(G-CODE GENERATED BY FLATCAM v8.994 - www.flatcam.org - Version Date: 2020/11/7)

(Name: GearClockControl - Drill Data - [Through Hole].drl_cnc)
(Type: G-code from Geometry)
(Units: MM)

(Created on Tuesday, 15 December 2020 at 17:15)

(This preprocessor is the default preprocessor used by FlatCAM.)
(It is made to work with MACH3 compatible motion controllers.)


(TOOLS DIAMETER: )
(Tool: 1 -> Dia: 0.5999479999999999)
(Tool: 2 -> Dia: 0.6096)
(Tool: 3 -> Dia: 0.889)
(Tool: 4 -> Dia: 0.899922)
(Tool: 5 -> Dia: 0.999998)
(Tool: 6 -> Dia: 2.999994)

(FEEDRATE Z: )
(Tool: 1 -> Feedrate: 300)
(Tool: 2 -> Feedrate: 300)
(Tool: 3 -> Feedrate: 300)
(Tool: 4 -> Feedrate: 300)
(Tool: 5 -> Feedrate: 300)
(Tool: 6 -> Feedrate: 300)

(FEEDRATE RAPIDS: )
(Tool: 1 -> Feedrate Rapids: 1500)
(Tool: 2 -> Feedrate Rapids: 1500)
(Tool: 3 -> Feedrate Rapids: 1500)
(Tool: 4 -> Feedrate Rapids: 1500)
(Tool: 5 -> Feedrate Rapids: 1500)
(Tool: 6 -> Feedrate Rapids: 1500)

(Z_CUT: )
(Tool: 1 -> Z_Cut: -2.0)
(Tool: 2 -> Z_Cut: -2.0)
(Tool: 3 -> Z_Cut: -1.7)
(Tool: 4 -> Z_Cut: -1.7)
(Tool: 5 -> Z_Cut: -1.7)
(Tool: 6 -> Z_Cut: -1.7)

(Tools Offset: )
(Tool: 1 -> Offset Z: 0.0)
(Tool: 2 -> Offset Z: 0.0)

(Z_MOVE: )
(Tool: 1 -> Z_Move: 2)
(Tool: 2 -> Z_Move: 2)
(Tool: 3 -> Z_Move: 2)
(Tool: 4 -> Z_Move: 2)
(Tool: 5 -> Z_Move: 2)
(Tool: 6 -> Z_Move: 2)

(Z Toolchange: 15 mm)
(X,Y Toolchange: 0.0000, 0.0000 mm)
(Z Start: None mm)
(Z End: 0.5 mm)
(X,Y End: None mm)
(Steps per circle: 64)
(Preprocessor Excellon: default)

(X range:   24.1739 ...  109.5135  mm)
(Y range:    2.5523 ...   64.0423  mm)

(Spindle Speed: 0 RPM)
G21
G90
G94

G01 F300.00

M5
G00 Z15.0000
T1
G00 X0.0000 Y0.0000                
M6
(MSG, Change to Tool Dia = 0.5999 ||| Total drills for tool T1 = 32)
M0
G00 Z15.0000

G01 F300.00
M03
G00 X24.4739 Y47.9024
G01 Z-2.0000
G01 Z0
G00 Z2.0000
G00 X24.4739 Y34.4025
G01 Z-2.0000
G01 Z0
G00 Z2.0000
G00 X32.9740 Y34.1523
G01 Z-2.0000
G01 Z0
G00 Z2.0000
G00 X38.9941 Y22.6525
G01 Z-2.0000
G01 Z0
G00 Z2.0000
G00 X38.9941 Y7.3525
G01 Z-2.0000
G01 Z0
G00 Z2.0000
G00 X44.8541 Y34.5323
G01 Z-2.0000
G01 Z0
G00 Z2.0000
G00 X54.9740 Y35.5925
G01 Z-2.0000
G01 Z0
G00 Z2.0000
G00 X59.8739 Y30.5125
G01 Z-2.0000
G01 Z0
G00 Z2.0000
G00 X58.3740 Y27.9725
G01 Z-2.0000
G01 Z0
G00 Z2.0000
G00 X58.4835 Y19.0525
G01 Z-2.0000
G01 Z0
G00 Z2.0000
G00 X62.8739 Y27.9700
G01 Z-2.0000
G01 Z0
G00 Z2.0000
G00 X62.8739 Y40.6725
G01 Z-2.0000
G01 Z0
G00 Z2.0000
G00 X67.6900 Y36.3525
G01 Z-2.0000
G01 Z0
G00 Z2.0000
G00 X69.9135 Y39.0223
G01 Z-2.0000
G01 Z0
G00 Z2.0000
G00 X81.6841 Y39.0525
G01 Z-2.0000
G01 Z0
G00 Z2.0000
G00 X88.0341 Y33.2623
G01 Z-2.0000
G01 Z0
G00 Z2.0000
G00 X93.4085 Y24.1325
G01 Z-2.0000
G01 Z0
G00 Z2.0000
G00 X88.0341 Y7.2273
G01 Z-2.0000
G01 Z0
G00 Z2.0000
G00 X102.9335 Y6.3525
G01 Z-2.0000
G01 Z0
G00 Z2.0000
G00 X100.3935 Y8.8925
G01 Z-2.0000
G01 Z0
G00 Z2.0000
G00 X100.3935 Y24.1325
G01 Z-2.0000
G01 Z0
G00 Z2.0000
G00 X102.9335 Y34.7525
G01 Z-2.0000
G01 Z0
G00 Z2.0000
G00 X101.0285 Y41.5925
G01 Z-2.0000
G01 Z0
G00 Z2.0000
G00 X101.0285 Y56.8325
G01 Z-2.0000
G01 Z0
G00 Z2.0000
G00 X93.4085 Y63.7423
G01 Z-2.0000
G01 Z0
G00 Z2.0000
G00 X81.6841 Y59.9323
G01 Z-2.0000
G01 Z0
G00 Z2.0000
G00 X67.6900 Y53.3524
G01 Z-2.0000
G01 Z0
G00 Z2.0000
G00 X54.9740 Y49.0525
G01 Z-2.0000
G01 Z0
G00 Z2.0000
G00 X44.8541 Y59.9323
G01 Z-2.0000
G01 Z0
G00 Z2.0000
G00 X32.3741 Y58.2524
G01 Z-2.0000
G01 Z0
G00 Z2.0000
G00 X32.3741 Y47.3525
G01 Z-2.0000
G01 Z0
G00 Z2.0000
G00 X32.9740 Y44.6524
G01 Z-2.0000
G01 Z0
G00 Z2.0000
M05
G00 Z0.50


