(G-CODE GENERATED BY FLATCAM v8.994 - www.flatcam.org - Version Date: 2020/11/7)

(Name: GearClockControl - Drill Data - [Through Hole].drl_cnc)
(Type: G-code from Geometry)
(Units: MM)

(Created on Tuesday, 15 December 2020 at 17:16)

(This preprocessor is the default preprocessor used by FlatCAM.)
(It is made to work with MACH3 compatible motion controllers.)


(TOOLS DIAMETER: )
(Tool: 1 -> Dia: 0.5999479999999999)
(Tool: 2 -> Dia: 0.6096)
(Tool: 3 -> Dia: 0.889)
(Tool: 4 -> Dia: 0.899922)
(Tool: 5 -> Dia: 0.999998)
(Tool: 6 -> Dia: 2.999994)

(FEEDRATE Z: )
(Tool: 1 -> Feedrate: 300)
(Tool: 2 -> Feedrate: 300)
(Tool: 3 -> Feedrate: 300)
(Tool: 4 -> Feedrate: 300)
(Tool: 5 -> Feedrate: 300)
(Tool: 6 -> Feedrate: 300)

(FEEDRATE RAPIDS: )
(Tool: 1 -> Feedrate Rapids: 1500)
(Tool: 2 -> Feedrate Rapids: 1500)
(Tool: 3 -> Feedrate Rapids: 1500)
(Tool: 4 -> Feedrate Rapids: 1500)
(Tool: 5 -> Feedrate Rapids: 1500)
(Tool: 6 -> Feedrate Rapids: 1500)

(Z_CUT: )
(Tool: 1 -> Z_Cut: -1.7)
(Tool: 2 -> Z_Cut: -1.7)
(Tool: 3 -> Z_Cut: -2.0)
(Tool: 4 -> Z_Cut: -2.0)
(Tool: 5 -> Z_Cut: -1.7)
(Tool: 6 -> Z_Cut: -1.7)

(Tools Offset: )
(Tool: 3 -> Offset Z: 0.0)
(Tool: 4 -> Offset Z: 0.0)

(Z_MOVE: )
(Tool: 1 -> Z_Move: 2)
(Tool: 2 -> Z_Move: 2)
(Tool: 3 -> Z_Move: 2)
(Tool: 4 -> Z_Move: 2)
(Tool: 5 -> Z_Move: 2)
(Tool: 6 -> Z_Move: 2)

(Z Toolchange: 15 mm)
(X,Y Toolchange: 0.0000, 0.0000 mm)
(Z Start: None mm)
(Z End: 0.5 mm)
(X,Y End: None mm)
(Steps per circle: 64)
(Preprocessor Excellon: default)

(X range:   24.1739 ...  109.5135  mm)
(Y range:    2.5523 ...   64.0423  mm)

(Spindle Speed: 0 RPM)
G21
G90
G94

G01 F300.00

M5
G00 Z15.0000
T3
G00 X0.0000 Y0.0000                
M6
(MSG, Change to Tool Dia = 0.8890 ||| Total drills for tool T3 = 66)
M0
G00 Z15.0000

G01 F300.00
M03
G00 X28.3741 Y55.5224
G01 Z-2.0000
G01 Z0
G00 Z2.0000
G00 X28.3741 Y52.9824
G01 Z-2.0000
G01 Z0
G00 Z2.0000
G00 X28.3741 Y50.4424
G01 Z-2.0000
G01 Z0
G00 Z2.0000
G00 X28.3741 Y47.9024
G01 Z-2.0000
G01 Z0
G00 Z2.0000
G00 X28.6741 Y42.0225
G01 Z-2.0000
G01 Z0
G00 Z2.0000
G00 X28.6741 Y39.4825
G01 Z-2.0000
G01 Z0
G00 Z2.0000
G00 X28.6741 Y36.9425
G01 Z-2.0000
G01 Z0
G00 Z2.0000
G00 X28.6741 Y34.4025
G01 Z-2.0000
G01 Z0
G00 Z2.0000
G00 X28.4541 Y27.9149
G01 Z-2.0000
G01 Z0
G00 Z2.0000
G00 X28.4541 Y25.3749
G01 Z-2.0000
G01 Z0
G00 Z2.0000
G00 X51.2341 Y27.9725
G01 Z-2.0000
G01 Z0
G00 Z2.0000
G00 X51.2341 Y30.5125
G01 Z-2.0000
G01 Z0
G00 Z2.0000
G00 X51.2341 Y33.0525
G01 Z-2.0000
G01 Z0
G00 Z2.0000
G00 X51.2341 Y35.5925
G01 Z-2.0000
G01 Z0
G00 Z2.0000
G00 X51.2341 Y38.1325
G01 Z-2.0000
G01 Z0
G00 Z2.0000
G00 X51.2341 Y40.6725
G01 Z-2.0000
G01 Z0
G00 Z2.0000
G00 X51.2341 Y43.2125
G01 Z-2.0000
G01 Z0
G00 Z2.0000
G00 X51.2341 Y45.7525
G01 Z-2.0000
G01 Z0
G00 Z2.0000
G00 X74.0941 Y45.7525
G01 Z-2.0000
G01 Z0
G00 Z2.0000
G00 X74.0941 Y43.2125
G01 Z-2.0000
G01 Z0
G00 Z2.0000
G00 X74.0941 Y40.6725
G01 Z-2.0000
G01 Z0
G00 Z2.0000
G00 X74.0941 Y38.1325
G01 Z-2.0000
G01 Z0
G00 Z2.0000
G00 X74.0941 Y35.5925
G01 Z-2.0000
G01 Z0
G00 Z2.0000
G00 X74.0941 Y33.0525
G01 Z-2.0000
G01 Z0
G00 Z2.0000
G00 X74.0941 Y30.5125
G01 Z-2.0000
G01 Z0
G00 Z2.0000
G00 X74.0941 Y27.9725
G01 Z-2.0000
G01 Z0
G00 Z2.0000
G00 X84.7601 Y24.1325
G01 Z-2.0000
G01 Z0
G00 Z2.0000
G00 X84.7601 Y21.5925
G01 Z-2.0000
G01 Z0
G00 Z2.0000
G00 X84.7601 Y19.0525
G01 Z-2.0000
G01 Z0
G00 Z2.0000
G00 X84.7601 Y16.5125
G01 Z-2.0000
G01 Z0
G00 Z2.0000
G00 X84.7601 Y13.9725
G01 Z-2.0000
G01 Z0
G00 Z2.0000
G00 X84.7601 Y11.4325
G01 Z-2.0000
G01 Z0
G00 Z2.0000
G00 X84.7601 Y8.8925
G01 Z-2.0000
G01 Z0
G00 Z2.0000
G00 X84.7601 Y6.3525
G01 Z-2.0000
G01 Z0
G00 Z2.0000
G00 X97.4601 Y6.3525
G01 Z-2.0000
G01 Z0
G00 Z2.0000
G00 X97.4601 Y8.8925
G01 Z-2.0000
G01 Z0
G00 Z2.0000
G00 X97.4601 Y11.4325
G01 Z-2.0000
G01 Z0
G00 Z2.0000
G00 X97.4601 Y13.9725
G01 Z-2.0000
G01 Z0
G00 Z2.0000
G00 X97.4601 Y16.5125
G01 Z-2.0000
G01 Z0
G00 Z2.0000
G00 X107.3485 Y11.4823
G01 Z-2.0000
G01 Z0
G00 Z2.0000
G00 X107.3485 Y14.0223
G01 Z-2.0000
G01 Z0
G00 Z2.0000
G00 X107.3485 Y16.5623
G01 Z-2.0000
G01 Z0
G00 Z2.0000
G00 X107.3485 Y19.1023
G01 Z-2.0000
G01 Z0
G00 Z2.0000
G00 X97.4601 Y19.0525
G01 Z-2.0000
G01 Z0
G00 Z2.0000
G00 X97.4601 Y21.5925
G01 Z-2.0000
G01 Z0
G00 Z2.0000
G00 X97.4601 Y24.1325
G01 Z-2.0000
G01 Z0
G00 Z2.0000
G00 X107.3785 Y43.9824
G01 Z-2.0000
G01 Z0
G00 Z2.0000
G00 X107.3785 Y46.5224
G01 Z-2.0000
G01 Z0
G00 Z2.0000
G00 X107.3785 Y49.0624
G01 Z-2.0000
G01 Z0
G00 Z2.0000
G00 X107.3785 Y51.6024
G01 Z-2.0000
G01 Z0
G00 Z2.0000
G00 X97.6600 Y56.8325
G01 Z-2.0000
G01 Z0
G00 Z2.0000
G00 X97.6600 Y54.2925
G01 Z-2.0000
G01 Z0
G00 Z2.0000
G00 X97.6600 Y51.7525
G01 Z-2.0000
G01 Z0
G00 Z2.0000
G00 X97.6600 Y49.2125
G01 Z-2.0000
G01 Z0
G00 Z2.0000
G00 X97.6600 Y46.6725
G01 Z-2.0000
G01 Z0
G00 Z2.0000
G00 X97.6600 Y44.1325
G01 Z-2.0000
G01 Z0
G00 Z2.0000
G00 X97.6600 Y41.5925
G01 Z-2.0000
G01 Z0
G00 Z2.0000
G00 X97.6600 Y39.0525
G01 Z-2.0000
G01 Z0
G00 Z2.0000
G00 X84.9600 Y39.0525
G01 Z-2.0000
G01 Z0
G00 Z2.0000
G00 X84.9600 Y41.5925
G01 Z-2.0000
G01 Z0
G00 Z2.0000
G00 X84.9600 Y44.1325
G01 Z-2.0000
G01 Z0
G00 Z2.0000
G00 X84.9600 Y46.6725
G01 Z-2.0000
G01 Z0
G00 Z2.0000
G00 X84.9600 Y49.2125
G01 Z-2.0000
G01 Z0
G00 Z2.0000
G00 X84.9600 Y51.7525
G01 Z-2.0000
G01 Z0
G00 Z2.0000
G00 X84.9600 Y54.2925
G01 Z-2.0000
G01 Z0
G00 Z2.0000
G00 X84.9600 Y56.8325
G01 Z-2.0000
G01 Z0
G00 Z2.0000
M05
G00 Z0.50


