(G-CODE GENERATED BY FLATCAM v8.994 - www.flatcam.org - Version Date: 2020/11/7)

(Name: GearClockControl - Drill Data - [Through Hole].drl_mill_cnc)
(Type: G-code from Geometry)
(Units: MM)

(Created on Tuesday, 15 December 2020 at 17:17)

(This preprocessor is the default preprocessor used by FlatCAM.)
(It is made to work with MACH3 compatible motion controllers.)

(TOOL DIAMETER: 1.5 mm)
(Feedrate_XY: 300.0 mm/min)
(Feedrate_Z: 200.0 mm/min)
(Feedrate rapids 1500.0 mm/min)

(Z_Cut: -2.0 mm)
(DepthPerCut: 0.5 mm <=>4 passes)
(Z_Move: 2.0 mm)
(Z Start: None mm)
(Z End: 15.0 mm)
(X,Y End: None mm)
(Steps per circle: 64)
(Preprocessor Geometry: default)

(X range:   26.3241 ...  108.7635  mm)
(Y range:    3.3023 ...   63.2025  mm)

(Spindle Speed: 0.0 RPM)
G21
G90
G94

G01 F300.00

M5
G00 Z15.0000
G00 X0.0000 Y0.0000
T1
M6    
(MSG, Change to Tool Dia = 1.5000)
M0
G00 Z15.0000

M03
G01 F300.00
G00 X27.8241 Y4.0523
G01 F200.00
G01 Z-0.5000
G01 F300.00
G01 X27.8205 Y3.9788
G01 X27.8097 Y3.9060
G01 X27.7918 Y3.8346
G01 X27.7670 Y3.7653
G01 X27.7356 Y3.6988
G01 X27.6977 Y3.6356
G01 X27.6539 Y3.5765
G01 X27.6044 Y3.5220
G01 X27.5499 Y3.4726
G01 X27.4908 Y3.4287
G01 X27.4277 Y3.3909
G01 X27.3611 Y3.3594
G01 X27.2918 Y3.3346
G01 X27.2204 Y3.3167
G01 X27.1476 Y3.3059
G01 X27.0741 Y3.3023
G01 X27.0006 Y3.3059
G01 X26.9278 Y3.3167
G01 X26.8564 Y3.3346
G01 X26.7871 Y3.3594
G01 X26.7206 Y3.3909
G01 X26.6574 Y3.4287
G01 X26.5983 Y3.4726
G01 X26.5438 Y3.5220
G01 X26.4944 Y3.5765
G01 X26.4505 Y3.6356
G01 X26.4127 Y3.6988
G01 X26.3812 Y3.7653
G01 X26.3564 Y3.8346
G01 X26.3385 Y3.9060
G01 X26.3277 Y3.9788
G01 X26.3241 Y4.0523
G01 X26.3277 Y4.1258
G01 X26.3385 Y4.1986
G01 X26.3564 Y4.2700
G01 X26.3812 Y4.3393
G01 X26.4127 Y4.4059
G01 X26.4505 Y4.4690
G01 X26.4944 Y4.5281
G01 X26.5438 Y4.5826
G01 X26.5983 Y4.6321
G01 X26.6574 Y4.6759
G01 X26.7206 Y4.7138
G01 X26.7871 Y4.7452
G01 X26.8564 Y4.7700
G01 X26.9278 Y4.7879
G01 X27.0006 Y4.7987
G01 X27.0741 Y4.8023
G01 X27.1476 Y4.7987
G01 X27.2204 Y4.7879
G01 X27.2918 Y4.7700
G01 X27.3611 Y4.7452
G01 X27.4277 Y4.7138
G01 X27.4908 Y4.6759
G01 X27.5499 Y4.6321
G01 X27.6044 Y4.5826
G01 X27.6539 Y4.5281
G01 X27.6977 Y4.4690
G01 X27.7356 Y4.4059
G01 X27.7670 Y4.3393
G01 X27.7918 Y4.2700
G01 X27.8097 Y4.1986
G01 X27.8205 Y4.1258
G01 X27.8241 Y4.0523
G00 X27.8241 Y4.0523
G01 F200.00
G01 Z-1.0000
G01 F300.00
G01 X27.8205 Y3.9788
G01 X27.8097 Y3.9060
G01 X27.7918 Y3.8346
G01 X27.7670 Y3.7653
G01 X27.7356 Y3.6988
G01 X27.6977 Y3.6356
G01 X27.6539 Y3.5765
G01 X27.6044 Y3.5220
G01 X27.5499 Y3.4726
G01 X27.4908 Y3.4287
G01 X27.4277 Y3.3909
G01 X27.3611 Y3.3594
G01 X27.2918 Y3.3346
G01 X27.2204 Y3.3167
G01 X27.1476 Y3.3059
G01 X27.0741 Y3.3023
G01 X27.0006 Y3.3059
G01 X26.9278 Y3.3167
G01 X26.8564 Y3.3346
G01 X26.7871 Y3.3594
G01 X26.7206 Y3.3909
G01 X26.6574 Y3.4287
G01 X26.5983 Y3.4726
G01 X26.5438 Y3.5220
G01 X26.4944 Y3.5765
G01 X26.4505 Y3.6356
G01 X26.4127 Y3.6988
G01 X26.3812 Y3.7653
G01 X26.3564 Y3.8346
G01 X26.3385 Y3.9060
G01 X26.3277 Y3.9788
G01 X26.3241 Y4.0523
G01 X26.3277 Y4.1258
G01 X26.3385 Y4.1986
G01 X26.3564 Y4.2700
G01 X26.3812 Y4.3393
G01 X26.4127 Y4.4059
G01 X26.4505 Y4.4690
G01 X26.4944 Y4.5281
G01 X26.5438 Y4.5826
G01 X26.5983 Y4.6321
G01 X26.6574 Y4.6759
G01 X26.7206 Y4.7138
G01 X26.7871 Y4.7452
G01 X26.8564 Y4.7700
G01 X26.9278 Y4.7879
G01 X27.0006 Y4.7987
G01 X27.0741 Y4.8023
G01 X27.1476 Y4.7987
G01 X27.2204 Y4.7879
G01 X27.2918 Y4.7700
G01 X27.3611 Y4.7452
G01 X27.4277 Y4.7138
G01 X27.4908 Y4.6759
G01 X27.5499 Y4.6321
G01 X27.6044 Y4.5826
G01 X27.6539 Y4.5281
G01 X27.6977 Y4.4690
G01 X27.7356 Y4.4059
G01 X27.7670 Y4.3393
G01 X27.7918 Y4.2700
G01 X27.8097 Y4.1986
G01 X27.8205 Y4.1258
G01 X27.8241 Y4.0523
G00 X27.8241 Y4.0523
G01 F200.00
G01 Z-1.5000
G01 F300.00
G01 X27.8205 Y3.9788
G01 X27.8097 Y3.9060
G01 X27.7918 Y3.8346
G01 X27.7670 Y3.7653
G01 X27.7356 Y3.6988
G01 X27.6977 Y3.6356
G01 X27.6539 Y3.5765
G01 X27.6044 Y3.5220
G01 X27.5499 Y3.4726
G01 X27.4908 Y3.4287
G01 X27.4277 Y3.3909
G01 X27.3611 Y3.3594
G01 X27.2918 Y3.3346
G01 X27.2204 Y3.3167
G01 X27.1476 Y3.3059
G01 X27.0741 Y3.3023
G01 X27.0006 Y3.3059
G01 X26.9278 Y3.3167
G01 X26.8564 Y3.3346
G01 X26.7871 Y3.3594
G01 X26.7206 Y3.3909
G01 X26.6574 Y3.4287
G01 X26.5983 Y3.4726
G01 X26.5438 Y3.5220
G01 X26.4944 Y3.5765
G01 X26.4505 Y3.6356
G01 X26.4127 Y3.6988
G01 X26.3812 Y3.7653
G01 X26.3564 Y3.8346
G01 X26.3385 Y3.9060
G01 X26.3277 Y3.9788
G01 X26.3241 Y4.0523
G01 X26.3277 Y4.1258
G01 X26.3385 Y4.1986
G01 X26.3564 Y4.2700
G01 X26.3812 Y4.3393
G01 X26.4127 Y4.4059
G01 X26.4505 Y4.4690
G01 X26.4944 Y4.5281
G01 X26.5438 Y4.5826
G01 X26.5983 Y4.6321
G01 X26.6574 Y4.6759
G01 X26.7206 Y4.7138
G01 X26.7871 Y4.7452
G01 X26.8564 Y4.7700
G01 X26.9278 Y4.7879
G01 X27.0006 Y4.7987
G01 X27.0741 Y4.8023
G01 X27.1476 Y4.7987
G01 X27.2204 Y4.7879
G01 X27.2918 Y4.7700
G01 X27.3611 Y4.7452
G01 X27.4277 Y4.7138
G01 X27.4908 Y4.6759
G01 X27.5499 Y4.6321
G01 X27.6044 Y4.5826
G01 X27.6539 Y4.5281
G01 X27.6977 Y4.4690
G01 X27.7356 Y4.4059
G01 X27.7670 Y4.3393
G01 X27.7918 Y4.2700
G01 X27.8097 Y4.1986
G01 X27.8205 Y4.1258
G01 X27.8241 Y4.0523
G00 X27.8241 Y4.0523
G01 F200.00
G01 Z-2.0000
G01 F300.00
G01 X27.8205 Y3.9788
G01 X27.8097 Y3.9060
G01 X27.7918 Y3.8346
G01 X27.7670 Y3.7653
G01 X27.7356 Y3.6988
G01 X27.6977 Y3.6356
G01 X27.6539 Y3.5765
G01 X27.6044 Y3.5220
G01 X27.5499 Y3.4726
G01 X27.4908 Y3.4287
G01 X27.4277 Y3.3909
G01 X27.3611 Y3.3594
G01 X27.2918 Y3.3346
G01 X27.2204 Y3.3167
G01 X27.1476 Y3.3059
G01 X27.0741 Y3.3023
G01 X27.0006 Y3.3059
G01 X26.9278 Y3.3167
G01 X26.8564 Y3.3346
G01 X26.7871 Y3.3594
G01 X26.7206 Y3.3909
G01 X26.6574 Y3.4287
G01 X26.5983 Y3.4726
G01 X26.5438 Y3.5220
G01 X26.4944 Y3.5765
G01 X26.4505 Y3.6356
G01 X26.4127 Y3.6988
G01 X26.3812 Y3.7653
G01 X26.3564 Y3.8346
G01 X26.3385 Y3.9060
G01 X26.3277 Y3.9788
G01 X26.3241 Y4.0523
G01 X26.3277 Y4.1258
G01 X26.3385 Y4.1986
G01 X26.3564 Y4.2700
G01 X26.3812 Y4.3393
G01 X26.4127 Y4.4059
G01 X26.4505 Y4.4690
G01 X26.4944 Y4.5281
G01 X26.5438 Y4.5826
G01 X26.5983 Y4.6321
G01 X26.6574 Y4.6759
G01 X26.7206 Y4.7138
G01 X26.7871 Y4.7452
G01 X26.8564 Y4.7700
G01 X26.9278 Y4.7879
G01 X27.0006 Y4.7987
G01 X27.0741 Y4.8023
G01 X27.1476 Y4.7987
G01 X27.2204 Y4.7879
G01 X27.2918 Y4.7700
G01 X27.3611 Y4.7452
G01 X27.4277 Y4.7138
G01 X27.4908 Y4.6759
G01 X27.5499 Y4.6321
G01 X27.6044 Y4.5826
G01 X27.6539 Y4.5281
G01 X27.6977 Y4.4690
G01 X27.7356 Y4.4059
G01 X27.7670 Y4.3393
G01 X27.7918 Y4.2700
G01 X27.8097 Y4.1986
G01 X27.8205 Y4.1258
G01 X27.8241 Y4.0523
G00 Z2.0000
G00 X27.8241 Y62.4525
G01 F200.00
G01 Z-0.5000
G01 F300.00
G01 X27.8205 Y62.3790
G01 X27.8097 Y62.3062
G01 X27.7918 Y62.2348
G01 X27.7670 Y62.1655
G01 X27.7356 Y62.0990
G01 X27.6977 Y62.0358
G01 X27.6539 Y61.9767
G01 X27.6044 Y61.9222
G01 X27.5499 Y61.8727
G01 X27.4908 Y61.8289
G01 X27.4277 Y61.7911
G01 X27.3611 Y61.7596
G01 X27.2918 Y61.7348
G01 X27.2204 Y61.7169
G01 X27.1476 Y61.7061
G01 X27.0741 Y61.7025
G01 X27.0006 Y61.7061
G01 X26.9278 Y61.7169
G01 X26.8564 Y61.7348
G01 X26.7871 Y61.7596
G01 X26.7206 Y61.7911
G01 X26.6574 Y61.8289
G01 X26.5983 Y61.8727
G01 X26.5438 Y61.9222
G01 X26.4944 Y61.9767
G01 X26.4505 Y62.0358
G01 X26.4127 Y62.0990
G01 X26.3812 Y62.1655
G01 X26.3564 Y62.2348
G01 X26.3385 Y62.3062
G01 X26.3277 Y62.3790
G01 X26.3241 Y62.4525
G01 X26.3277 Y62.5260
G01 X26.3385 Y62.5988
G01 X26.3564 Y62.6702
G01 X26.3812 Y62.7395
G01 X26.4127 Y62.8061
G01 X26.4505 Y62.8692
G01 X26.4944 Y62.9283
G01 X26.5438 Y62.9828
G01 X26.5983 Y63.0323
G01 X26.6574 Y63.0761
G01 X26.7206 Y63.1139
G01 X26.7871 Y63.1454
G01 X26.8564 Y63.1702
G01 X26.9278 Y63.1881
G01 X27.0006 Y63.1989
G01 X27.0741 Y63.2025
G01 X27.1476 Y63.1989
G01 X27.2204 Y63.1881
G01 X27.2918 Y63.1702
G01 X27.3611 Y63.1454
G01 X27.4277 Y63.1139
G01 X27.4908 Y63.0761
G01 X27.5499 Y63.0323
G01 X27.6044 Y62.9828
G01 X27.6539 Y62.9283
G01 X27.6977 Y62.8692
G01 X27.7356 Y62.8061
G01 X27.7670 Y62.7395
G01 X27.7918 Y62.6702
G01 X27.8097 Y62.5988
G01 X27.8205 Y62.5260
G01 X27.8241 Y62.4525
G00 X27.8241 Y62.4525
G01 F200.00
G01 Z-1.0000
G01 F300.00
G01 X27.8205 Y62.3790
G01 X27.8097 Y62.3062
G01 X27.7918 Y62.2348
G01 X27.7670 Y62.1655
G01 X27.7356 Y62.0990
G01 X27.6977 Y62.0358
G01 X27.6539 Y61.9767
G01 X27.6044 Y61.9222
G01 X27.5499 Y61.8727
G01 X27.4908 Y61.8289
G01 X27.4277 Y61.7911
G01 X27.3611 Y61.7596
G01 X27.2918 Y61.7348
G01 X27.2204 Y61.7169
G01 X27.1476 Y61.7061
G01 X27.0741 Y61.7025
G01 X27.0006 Y61.7061
G01 X26.9278 Y61.7169
G01 X26.8564 Y61.7348
G01 X26.7871 Y61.7596
G01 X26.7206 Y61.7911
G01 X26.6574 Y61.8289
G01 X26.5983 Y61.8727
G01 X26.5438 Y61.9222
G01 X26.4944 Y61.9767
G01 X26.4505 Y62.0358
G01 X26.4127 Y62.0990
G01 X26.3812 Y62.1655
G01 X26.3564 Y62.2348
G01 X26.3385 Y62.3062
G01 X26.3277 Y62.3790
G01 X26.3241 Y62.4525
G01 X26.3277 Y62.5260
G01 X26.3385 Y62.5988
G01 X26.3564 Y62.6702
G01 X26.3812 Y62.7395
G01 X26.4127 Y62.8061
G01 X26.4505 Y62.8692
G01 X26.4944 Y62.9283
G01 X26.5438 Y62.9828
G01 X26.5983 Y63.0323
G01 X26.6574 Y63.0761
G01 X26.7206 Y63.1139
G01 X26.7871 Y63.1454
G01 X26.8564 Y63.1702
G01 X26.9278 Y63.1881
G01 X27.0006 Y63.1989
G01 X27.0741 Y63.2025
G01 X27.1476 Y63.1989
G01 X27.2204 Y63.1881
G01 X27.2918 Y63.1702
G01 X27.3611 Y63.1454
G01 X27.4277 Y63.1139
G01 X27.4908 Y63.0761
G01 X27.5499 Y63.0323
G01 X27.6044 Y62.9828
G01 X27.6539 Y62.9283
G01 X27.6977 Y62.8692
G01 X27.7356 Y62.8061
G01 X27.7670 Y62.7395
G01 X27.7918 Y62.6702
G01 X27.8097 Y62.5988
G01 X27.8205 Y62.5260
G01 X27.8241 Y62.4525
G00 X27.8241 Y62.4525
G01 F200.00
G01 Z-1.5000
G01 F300.00
G01 X27.8205 Y62.3790
G01 X27.8097 Y62.3062
G01 X27.7918 Y62.2348
G01 X27.7670 Y62.1655
G01 X27.7356 Y62.0990
G01 X27.6977 Y62.0358
G01 X27.6539 Y61.9767
G01 X27.6044 Y61.9222
G01 X27.5499 Y61.8727
G01 X27.4908 Y61.8289
G01 X27.4277 Y61.7911
G01 X27.3611 Y61.7596
G01 X27.2918 Y61.7348
G01 X27.2204 Y61.7169
G01 X27.1476 Y61.7061
G01 X27.0741 Y61.7025
G01 X27.0006 Y61.7061
G01 X26.9278 Y61.7169
G01 X26.8564 Y61.7348
G01 X26.7871 Y61.7596
G01 X26.7206 Y61.7911
G01 X26.6574 Y61.8289
G01 X26.5983 Y61.8727
G01 X26.5438 Y61.9222
G01 X26.4944 Y61.9767
G01 X26.4505 Y62.0358
G01 X26.4127 Y62.0990
G01 X26.3812 Y62.1655
G01 X26.3564 Y62.2348
G01 X26.3385 Y62.3062
G01 X26.3277 Y62.3790
G01 X26.3241 Y62.4525
G01 X26.3277 Y62.5260
G01 X26.3385 Y62.5988
G01 X26.3564 Y62.6702
G01 X26.3812 Y62.7395
G01 X26.4127 Y62.8061
G01 X26.4505 Y62.8692
G01 X26.4944 Y62.9283
G01 X26.5438 Y62.9828
G01 X26.5983 Y63.0323
G01 X26.6574 Y63.0761
G01 X26.7206 Y63.1139
G01 X26.7871 Y63.1454
G01 X26.8564 Y63.1702
G01 X26.9278 Y63.1881
G01 X27.0006 Y63.1989
G01 X27.0741 Y63.2025
G01 X27.1476 Y63.1989
G01 X27.2204 Y63.1881
G01 X27.2918 Y63.1702
G01 X27.3611 Y63.1454
G01 X27.4277 Y63.1139
G01 X27.4908 Y63.0761
G01 X27.5499 Y63.0323
G01 X27.6044 Y62.9828
G01 X27.6539 Y62.9283
G01 X27.6977 Y62.8692
G01 X27.7356 Y62.8061
G01 X27.7670 Y62.7395
G01 X27.7918 Y62.6702
G01 X27.8097 Y62.5988
G01 X27.8205 Y62.5260
G01 X27.8241 Y62.4525
G00 X27.8241 Y62.4525
G01 F200.00
G01 Z-2.0000
G01 F300.00
G01 X27.8205 Y62.3790
G01 X27.8097 Y62.3062
G01 X27.7918 Y62.2348
G01 X27.7670 Y62.1655
G01 X27.7356 Y62.0990
G01 X27.6977 Y62.0358
G01 X27.6539 Y61.9767
G01 X27.6044 Y61.9222
G01 X27.5499 Y61.8727
G01 X27.4908 Y61.8289
G01 X27.4277 Y61.7911
G01 X27.3611 Y61.7596
G01 X27.2918 Y61.7348
G01 X27.2204 Y61.7169
G01 X27.1476 Y61.7061
G01 X27.0741 Y61.7025
G01 X27.0006 Y61.7061
G01 X26.9278 Y61.7169
G01 X26.8564 Y61.7348
G01 X26.7871 Y61.7596
G01 X26.7206 Y61.7911
G01 X26.6574 Y61.8289
G01 X26.5983 Y61.8727
G01 X26.5438 Y61.9222
G01 X26.4944 Y61.9767
G01 X26.4505 Y62.0358
G01 X26.4127 Y62.0990
G01 X26.3812 Y62.1655
G01 X26.3564 Y62.2348
G01 X26.3385 Y62.3062
G01 X26.3277 Y62.3790
G01 X26.3241 Y62.4525
G01 X26.3277 Y62.5260
G01 X26.3385 Y62.5988
G01 X26.3564 Y62.6702
G01 X26.3812 Y62.7395
G01 X26.4127 Y62.8061
G01 X26.4505 Y62.8692
G01 X26.4944 Y62.9283
G01 X26.5438 Y62.9828
G01 X26.5983 Y63.0323
G01 X26.6574 Y63.0761
G01 X26.7206 Y63.1139
G01 X26.7871 Y63.1454
G01 X26.8564 Y63.1702
G01 X26.9278 Y63.1881
G01 X27.0006 Y63.1989
G01 X27.0741 Y63.2025
G01 X27.1476 Y63.1989
G01 X27.2204 Y63.1881
G01 X27.2918 Y63.1702
G01 X27.3611 Y63.1454
G01 X27.4277 Y63.1139
G01 X27.4908 Y63.0761
G01 X27.5499 Y63.0323
G01 X27.6044 Y62.9828
G01 X27.6539 Y62.9283
G01 X27.6977 Y62.8692
G01 X27.7356 Y62.8061
G01 X27.7670 Y62.7395
G01 X27.7918 Y62.6702
G01 X27.8097 Y62.5988
G01 X27.8205 Y62.5260
G01 X27.8241 Y62.4525
G00 Z2.0000
G00 X108.7635 Y62.4525
G01 F200.00
G01 Z-0.5000
G01 F300.00
G01 X108.7599 Y62.3790
G01 X108.7491 Y62.3062
G01 X108.7312 Y62.2348
G01 X108.7064 Y62.1655
G01 X108.6749 Y62.0990
G01 X108.6371 Y62.0358
G01 X108.5933 Y61.9767
G01 X108.5438 Y61.9222
G01 X108.4893 Y61.8727
G01 X108.4302 Y61.8289
G01 X108.3670 Y61.7911
G01 X108.3005 Y61.7596
G01 X108.2312 Y61.7348
G01 X108.1598 Y61.7169
G01 X108.0870 Y61.7061
G01 X108.0135 Y61.7025
G01 X107.9400 Y61.7061
G01 X107.8672 Y61.7169
G01 X107.7958 Y61.7348
G01 X107.7265 Y61.7596
G01 X107.6600 Y61.7911
G01 X107.5968 Y61.8289
G01 X107.5377 Y61.8727
G01 X107.4832 Y61.9222
G01 X107.4337 Y61.9767
G01 X107.3899 Y62.0358
G01 X107.3521 Y62.0990
G01 X107.3206 Y62.1655
G01 X107.2958 Y62.2348
G01 X107.2779 Y62.3062
G01 X107.2671 Y62.3790
G01 X107.2635 Y62.4525
G01 X107.2671 Y62.5260
G01 X107.2779 Y62.5988
G01 X107.2958 Y62.6702
G01 X107.3206 Y62.7395
G01 X107.3521 Y62.8061
G01 X107.3899 Y62.8692
G01 X107.4337 Y62.9283
G01 X107.4832 Y62.9828
G01 X107.5377 Y63.0323
G01 X107.5968 Y63.0761
G01 X107.6600 Y63.1139
G01 X107.7265 Y63.1454
G01 X107.7958 Y63.1702
G01 X107.8672 Y63.1881
G01 X107.9400 Y63.1989
G01 X108.0135 Y63.2025
G01 X108.0870 Y63.1989
G01 X108.1598 Y63.1881
G01 X108.2312 Y63.1702
G01 X108.3005 Y63.1454
G01 X108.3670 Y63.1139
G01 X108.4302 Y63.0761
G01 X108.4893 Y63.0323
G01 X108.5438 Y62.9828
G01 X108.5933 Y62.9283
G01 X108.6371 Y62.8692
G01 X108.6749 Y62.8061
G01 X108.7064 Y62.7395
G01 X108.7312 Y62.6702
G01 X108.7491 Y62.5988
G01 X108.7599 Y62.5260
G01 X108.7635 Y62.4525
G00 X108.7635 Y62.4525
G01 F200.00
G01 Z-1.0000
G01 F300.00
G01 X108.7599 Y62.3790
G01 X108.7491 Y62.3062
G01 X108.7312 Y62.2348
G01 X108.7064 Y62.1655
G01 X108.6749 Y62.0990
G01 X108.6371 Y62.0358
G01 X108.5933 Y61.9767
G01 X108.5438 Y61.9222
G01 X108.4893 Y61.8727
G01 X108.4302 Y61.8289
G01 X108.3670 Y61.7911
G01 X108.3005 Y61.7596
G01 X108.2312 Y61.7348
G01 X108.1598 Y61.7169
G01 X108.0870 Y61.7061
G01 X108.0135 Y61.7025
G01 X107.9400 Y61.7061
G01 X107.8672 Y61.7169
G01 X107.7958 Y61.7348
G01 X107.7265 Y61.7596
G01 X107.6600 Y61.7911
G01 X107.5968 Y61.8289
G01 X107.5377 Y61.8727
G01 X107.4832 Y61.9222
G01 X107.4337 Y61.9767
G01 X107.3899 Y62.0358
G01 X107.3521 Y62.0990
G01 X107.3206 Y62.1655
G01 X107.2958 Y62.2348
G01 X107.2779 Y62.3062
G01 X107.2671 Y62.3790
G01 X107.2635 Y62.4525
G01 X107.2671 Y62.5260
G01 X107.2779 Y62.5988
G01 X107.2958 Y62.6702
G01 X107.3206 Y62.7395
G01 X107.3521 Y62.8061
G01 X107.3899 Y62.8692
G01 X107.4337 Y62.9283
G01 X107.4832 Y62.9828
G01 X107.5377 Y63.0323
G01 X107.5968 Y63.0761
G01 X107.6600 Y63.1139
G01 X107.7265 Y63.1454
G01 X107.7958 Y63.1702
G01 X107.8672 Y63.1881
G01 X107.9400 Y63.1989
G01 X108.0135 Y63.2025
G01 X108.0870 Y63.1989
G01 X108.1598 Y63.1881
G01 X108.2312 Y63.1702
G01 X108.3005 Y63.1454
G01 X108.3670 Y63.1139
G01 X108.4302 Y63.0761
G01 X108.4893 Y63.0323
G01 X108.5438 Y62.9828
G01 X108.5933 Y62.9283
G01 X108.6371 Y62.8692
G01 X108.6749 Y62.8061
G01 X108.7064 Y62.7395
G01 X108.7312 Y62.6702
G01 X108.7491 Y62.5988
G01 X108.7599 Y62.5260
G01 X108.7635 Y62.4525
G00 X108.7635 Y62.4525
G01 F200.00
G01 Z-1.5000
G01 F300.00
G01 X108.7599 Y62.3790
G01 X108.7491 Y62.3062
G01 X108.7312 Y62.2348
G01 X108.7064 Y62.1655
G01 X108.6749 Y62.0990
G01 X108.6371 Y62.0358
G01 X108.5933 Y61.9767
G01 X108.5438 Y61.9222
G01 X108.4893 Y61.8727
G01 X108.4302 Y61.8289
G01 X108.3670 Y61.7911
G01 X108.3005 Y61.7596
G01 X108.2312 Y61.7348
G01 X108.1598 Y61.7169
G01 X108.0870 Y61.7061
G01 X108.0135 Y61.7025
G01 X107.9400 Y61.7061
G01 X107.8672 Y61.7169
G01 X107.7958 Y61.7348
G01 X107.7265 Y61.7596
G01 X107.6600 Y61.7911
G01 X107.5968 Y61.8289
G01 X107.5377 Y61.8727
G01 X107.4832 Y61.9222
G01 X107.4337 Y61.9767
G01 X107.3899 Y62.0358
G01 X107.3521 Y62.0990
G01 X107.3206 Y62.1655
G01 X107.2958 Y62.2348
G01 X107.2779 Y62.3062
G01 X107.2671 Y62.3790
G01 X107.2635 Y62.4525
G01 X107.2671 Y62.5260
G01 X107.2779 Y62.5988
G01 X107.2958 Y62.6702
G01 X107.3206 Y62.7395
G01 X107.3521 Y62.8061
G01 X107.3899 Y62.8692
G01 X107.4337 Y62.9283
G01 X107.4832 Y62.9828
G01 X107.5377 Y63.0323
G01 X107.5968 Y63.0761
G01 X107.6600 Y63.1139
G01 X107.7265 Y63.1454
G01 X107.7958 Y63.1702
G01 X107.8672 Y63.1881
G01 X107.9400 Y63.1989
G01 X108.0135 Y63.2025
G01 X108.0870 Y63.1989
G01 X108.1598 Y63.1881
G01 X108.2312 Y63.1702
G01 X108.3005 Y63.1454
G01 X108.3670 Y63.1139
G01 X108.4302 Y63.0761
G01 X108.4893 Y63.0323
G01 X108.5438 Y62.9828
G01 X108.5933 Y62.9283
G01 X108.6371 Y62.8692
G01 X108.6749 Y62.8061
G01 X108.7064 Y62.7395
G01 X108.7312 Y62.6702
G01 X108.7491 Y62.5988
G01 X108.7599 Y62.5260
G01 X108.7635 Y62.4525
G00 X108.7635 Y62.4525
G01 F200.00
G01 Z-2.0000
G01 F300.00
G01 X108.7599 Y62.3790
G01 X108.7491 Y62.3062
G01 X108.7312 Y62.2348
G01 X108.7064 Y62.1655
G01 X108.6749 Y62.0990
G01 X108.6371 Y62.0358
G01 X108.5933 Y61.9767
G01 X108.5438 Y61.9222
G01 X108.4893 Y61.8727
G01 X108.4302 Y61.8289
G01 X108.3670 Y61.7911
G01 X108.3005 Y61.7596
G01 X108.2312 Y61.7348
G01 X108.1598 Y61.7169
G01 X108.0870 Y61.7061
G01 X108.0135 Y61.7025
G01 X107.9400 Y61.7061
G01 X107.8672 Y61.7169
G01 X107.7958 Y61.7348
G01 X107.7265 Y61.7596
G01 X107.6600 Y61.7911
G01 X107.5968 Y61.8289
G01 X107.5377 Y61.8727
G01 X107.4832 Y61.9222
G01 X107.4337 Y61.9767
G01 X107.3899 Y62.0358
G01 X107.3521 Y62.0990
G01 X107.3206 Y62.1655
G01 X107.2958 Y62.2348
G01 X107.2779 Y62.3062
G01 X107.2671 Y62.3790
G01 X107.2635 Y62.4525
G01 X107.2671 Y62.5260
G01 X107.2779 Y62.5988
G01 X107.2958 Y62.6702
G01 X107.3206 Y62.7395
G01 X107.3521 Y62.8061
G01 X107.3899 Y62.8692
G01 X107.4337 Y62.9283
G01 X107.4832 Y62.9828
G01 X107.5377 Y63.0323
G01 X107.5968 Y63.0761
G01 X107.6600 Y63.1139
G01 X107.7265 Y63.1454
G01 X107.7958 Y63.1702
G01 X107.8672 Y63.1881
G01 X107.9400 Y63.1989
G01 X108.0135 Y63.2025
G01 X108.0870 Y63.1989
G01 X108.1598 Y63.1881
G01 X108.2312 Y63.1702
G01 X108.3005 Y63.1454
G01 X108.3670 Y63.1139
G01 X108.4302 Y63.0761
G01 X108.4893 Y63.0323
G01 X108.5438 Y62.9828
G01 X108.5933 Y62.9283
G01 X108.6371 Y62.8692
G01 X108.6749 Y62.8061
G01 X108.7064 Y62.7395
G01 X108.7312 Y62.6702
G01 X108.7491 Y62.5988
G01 X108.7599 Y62.5260
G01 X108.7635 Y62.4525
G00 Z2.0000
G00 X108.7635 Y4.0523
G01 F200.00
G01 Z-0.5000
G01 F300.00
G01 X108.7599 Y3.9788
G01 X108.7491 Y3.9060
G01 X108.7312 Y3.8346
G01 X108.7064 Y3.7653
G01 X108.6749 Y3.6988
G01 X108.6371 Y3.6356
G01 X108.5933 Y3.5765
G01 X108.5438 Y3.5220
G01 X108.4893 Y3.4726
G01 X108.4302 Y3.4287
G01 X108.3670 Y3.3909
G01 X108.3005 Y3.3594
G01 X108.2312 Y3.3346
G01 X108.1598 Y3.3167
G01 X108.0870 Y3.3059
G01 X108.0135 Y3.3023
G01 X107.9400 Y3.3059
G01 X107.8672 Y3.3167
G01 X107.7958 Y3.3346
G01 X107.7265 Y3.3594
G01 X107.6600 Y3.3909
G01 X107.5968 Y3.4287
G01 X107.5377 Y3.4726
G01 X107.4832 Y3.5220
G01 X107.4337 Y3.5765
G01 X107.3899 Y3.6356
G01 X107.3521 Y3.6988
G01 X107.3206 Y3.7653
G01 X107.2958 Y3.8346
G01 X107.2779 Y3.9060
G01 X107.2671 Y3.9788
G01 X107.2635 Y4.0523
G01 X107.2671 Y4.1258
G01 X107.2779 Y4.1986
G01 X107.2958 Y4.2700
G01 X107.3206 Y4.3393
G01 X107.3521 Y4.4059
G01 X107.3899 Y4.4690
G01 X107.4337 Y4.5281
G01 X107.4832 Y4.5826
G01 X107.5377 Y4.6321
G01 X107.5968 Y4.6759
G01 X107.6600 Y4.7138
G01 X107.7265 Y4.7452
G01 X107.7958 Y4.7700
G01 X107.8672 Y4.7879
G01 X107.9400 Y4.7987
G01 X108.0135 Y4.8023
G01 X108.0870 Y4.7987
G01 X108.1598 Y4.7879
G01 X108.2312 Y4.7700
G01 X108.3005 Y4.7452
G01 X108.3670 Y4.7138
G01 X108.4302 Y4.6759
G01 X108.4893 Y4.6321
G01 X108.5438 Y4.5826
G01 X108.5933 Y4.5281
G01 X108.6371 Y4.4690
G01 X108.6749 Y4.4059
G01 X108.7064 Y4.3393
G01 X108.7312 Y4.2700
G01 X108.7491 Y4.1986
G01 X108.7599 Y4.1258
G01 X108.7635 Y4.0523
G00 X108.7635 Y4.0523
G01 F200.00
G01 Z-1.0000
G01 F300.00
G01 X108.7599 Y3.9788
G01 X108.7491 Y3.9060
G01 X108.7312 Y3.8346
G01 X108.7064 Y3.7653
G01 X108.6749 Y3.6988
G01 X108.6371 Y3.6356
G01 X108.5933 Y3.5765
G01 X108.5438 Y3.5220
G01 X108.4893 Y3.4726
G01 X108.4302 Y3.4287
G01 X108.3670 Y3.3909
G01 X108.3005 Y3.3594
G01 X108.2312 Y3.3346
G01 X108.1598 Y3.3167
G01 X108.0870 Y3.3059
G01 X108.0135 Y3.3023
G01 X107.9400 Y3.3059
G01 X107.8672 Y3.3167
G01 X107.7958 Y3.3346
G01 X107.7265 Y3.3594
G01 X107.6600 Y3.3909
G01 X107.5968 Y3.4287
G01 X107.5377 Y3.4726
G01 X107.4832 Y3.5220
G01 X107.4337 Y3.5765
G01 X107.3899 Y3.6356
G01 X107.3521 Y3.6988
G01 X107.3206 Y3.7653
G01 X107.2958 Y3.8346
G01 X107.2779 Y3.9060
G01 X107.2671 Y3.9788
G01 X107.2635 Y4.0523
G01 X107.2671 Y4.1258
G01 X107.2779 Y4.1986
G01 X107.2958 Y4.2700
G01 X107.3206 Y4.3393
G01 X107.3521 Y4.4059
G01 X107.3899 Y4.4690
G01 X107.4337 Y4.5281
G01 X107.4832 Y4.5826
G01 X107.5377 Y4.6321
G01 X107.5968 Y4.6759
G01 X107.6600 Y4.7138
G01 X107.7265 Y4.7452
G01 X107.7958 Y4.7700
G01 X107.8672 Y4.7879
G01 X107.9400 Y4.7987
G01 X108.0135 Y4.8023
G01 X108.0870 Y4.7987
G01 X108.1598 Y4.7879
G01 X108.2312 Y4.7700
G01 X108.3005 Y4.7452
G01 X108.3670 Y4.7138
G01 X108.4302 Y4.6759
G01 X108.4893 Y4.6321
G01 X108.5438 Y4.5826
G01 X108.5933 Y4.5281
G01 X108.6371 Y4.4690
G01 X108.6749 Y4.4059
G01 X108.7064 Y4.3393
G01 X108.7312 Y4.2700
G01 X108.7491 Y4.1986
G01 X108.7599 Y4.1258
G01 X108.7635 Y4.0523
G00 X108.7635 Y4.0523
G01 F200.00
G01 Z-1.5000
G01 F300.00
G01 X108.7599 Y3.9788
G01 X108.7491 Y3.9060
G01 X108.7312 Y3.8346
G01 X108.7064 Y3.7653
G01 X108.6749 Y3.6988
G01 X108.6371 Y3.6356
G01 X108.5933 Y3.5765
G01 X108.5438 Y3.5220
G01 X108.4893 Y3.4726
G01 X108.4302 Y3.4287
G01 X108.3670 Y3.3909
G01 X108.3005 Y3.3594
G01 X108.2312 Y3.3346
G01 X108.1598 Y3.3167
G01 X108.0870 Y3.3059
G01 X108.0135 Y3.3023
G01 X107.9400 Y3.3059
G01 X107.8672 Y3.3167
G01 X107.7958 Y3.3346
G01 X107.7265 Y3.3594
G01 X107.6600 Y3.3909
G01 X107.5968 Y3.4287
G01 X107.5377 Y3.4726
G01 X107.4832 Y3.5220
G01 X107.4337 Y3.5765
G01 X107.3899 Y3.6356
G01 X107.3521 Y3.6988
G01 X107.3206 Y3.7653
G01 X107.2958 Y3.8346
G01 X107.2779 Y3.9060
G01 X107.2671 Y3.9788
G01 X107.2635 Y4.0523
G01 X107.2671 Y4.1258
G01 X107.2779 Y4.1986
G01 X107.2958 Y4.2700
G01 X107.3206 Y4.3393
G01 X107.3521 Y4.4059
G01 X107.3899 Y4.4690
G01 X107.4337 Y4.5281
G01 X107.4832 Y4.5826
G01 X107.5377 Y4.6321
G01 X107.5968 Y4.6759
G01 X107.6600 Y4.7138
G01 X107.7265 Y4.7452
G01 X107.7958 Y4.7700
G01 X107.8672 Y4.7879
G01 X107.9400 Y4.7987
G01 X108.0135 Y4.8023
G01 X108.0870 Y4.7987
G01 X108.1598 Y4.7879
G01 X108.2312 Y4.7700
G01 X108.3005 Y4.7452
G01 X108.3670 Y4.7138
G01 X108.4302 Y4.6759
G01 X108.4893 Y4.6321
G01 X108.5438 Y4.5826
G01 X108.5933 Y4.5281
G01 X108.6371 Y4.4690
G01 X108.6749 Y4.4059
G01 X108.7064 Y4.3393
G01 X108.7312 Y4.2700
G01 X108.7491 Y4.1986
G01 X108.7599 Y4.1258
G01 X108.7635 Y4.0523
G00 X108.7635 Y4.0523
G01 F200.00
G01 Z-2.0000
G01 F300.00
G01 X108.7599 Y3.9788
G01 X108.7491 Y3.9060
G01 X108.7312 Y3.8346
G01 X108.7064 Y3.7653
G01 X108.6749 Y3.6988
G01 X108.6371 Y3.6356
G01 X108.5933 Y3.5765
G01 X108.5438 Y3.5220
G01 X108.4893 Y3.4726
G01 X108.4302 Y3.4287
G01 X108.3670 Y3.3909
G01 X108.3005 Y3.3594
G01 X108.2312 Y3.3346
G01 X108.1598 Y3.3167
G01 X108.0870 Y3.3059
G01 X108.0135 Y3.3023
G01 X107.9400 Y3.3059
G01 X107.8672 Y3.3167
G01 X107.7958 Y3.3346
G01 X107.7265 Y3.3594
G01 X107.6600 Y3.3909
G01 X107.5968 Y3.4287
G01 X107.5377 Y3.4726
G01 X107.4832 Y3.5220
G01 X107.4337 Y3.5765
G01 X107.3899 Y3.6356
G01 X107.3521 Y3.6988
G01 X107.3206 Y3.7653
G01 X107.2958 Y3.8346
G01 X107.2779 Y3.9060
G01 X107.2671 Y3.9788
G01 X107.2635 Y4.0523
G01 X107.2671 Y4.1258
G01 X107.2779 Y4.1986
G01 X107.2958 Y4.2700
G01 X107.3206 Y4.3393
G01 X107.3521 Y4.4059
G01 X107.3899 Y4.4690
G01 X107.4337 Y4.5281
G01 X107.4832 Y4.5826
G01 X107.5377 Y4.6321
G01 X107.5968 Y4.6759
G01 X107.6600 Y4.7138
G01 X107.7265 Y4.7452
G01 X107.7958 Y4.7700
G01 X107.8672 Y4.7879
G01 X107.9400 Y4.7987
G01 X108.0135 Y4.8023
G01 X108.0870 Y4.7987
G01 X108.1598 Y4.7879
G01 X108.2312 Y4.7700
G01 X108.3005 Y4.7452
G01 X108.3670 Y4.7138
G01 X108.4302 Y4.6759
G01 X108.4893 Y4.6321
G01 X108.5438 Y4.5826
G01 X108.5933 Y4.5281
G01 X108.6371 Y4.4690
G01 X108.6749 Y4.4059
G01 X108.7064 Y4.3393
G01 X108.7312 Y4.2700
G01 X108.7491 Y4.1986
G01 X108.7599 Y4.1258
G01 X108.7635 Y4.0523
G00 Z2.0000
M05
G00 Z2.0000
G00 Z15.00


