(G-CODE GENERATED BY FLATCAM v8.994 - www.flatcam.org - Version Date: 2020/11/7)

(Name: Alignment Drills_mill_cnc)
(Type: G-code from Geometry)
(Units: MM)

(Created on Tuesday, 15 December 2020 at 18:43)

(This preprocessor is the default preprocessor used by FlatCAM.)
(It is made to work with MACH3 compatible motion controllers.)

(TOOL DIAMETER: 1.5 mm)
(Feedrate_XY: 300.0 mm/min)
(Feedrate_Z: 200.0 mm/min)
(Feedrate rapids 1500.0 mm/min)

(Z_Cut: -7.0 mm)
(Z_Move: 2.0 mm)
(Z Start: None mm)
(Z End: 15.0 mm)
(X,Y End: None mm)
(Steps per circle: 64)
(Preprocessor Geometry: default)

(X range:   24.2500 ...  105.7500  mm)
(Y range:   -4.1554 ...   70.7500  mm)

(Spindle Speed: 0.0 RPM)
G21
G90
G94

G01 F300.00

M5
G00 Z15.0000
G00 X0.0000 Y0.0000
T1
M6    
(MSG, Change to Tool Dia = 1.5000)
M0
G00 Z15.0000

M03
G01 F300.00
G00 X25.7500 Y-3.4054
G01 F200.00
G01 Z-7.0000
G01 F300.00
G01 X25.7464 Y-3.4789
G01 X25.7356 Y-3.5517
G01 X25.7177 Y-3.6231
G01 X25.6929 Y-3.6924
G01 X25.6614 Y-3.7589
G01 X25.6236 Y-3.8221
G01 X25.5798 Y-3.8812
G01 X25.5303 Y-3.9357
G01 X25.4758 Y-3.9851
G01 X25.4167 Y-4.0290
G01 X25.3535 Y-4.0668
G01 X25.2870 Y-4.0983
G01 X25.2177 Y-4.1231
G01 X25.1463 Y-4.1410
G01 X25.0735 Y-4.1518
G01 X25.0000 Y-4.1554
G01 X24.9265 Y-4.1518
G01 X24.8537 Y-4.1410
G01 X24.7823 Y-4.1231
G01 X24.7130 Y-4.0983
G01 X24.6465 Y-4.0668
G01 X24.5833 Y-4.0290
G01 X24.5242 Y-3.9851
G01 X24.4697 Y-3.9357
G01 X24.4202 Y-3.8812
G01 X24.3764 Y-3.8221
G01 X24.3386 Y-3.7589
G01 X24.3071 Y-3.6924
G01 X24.2823 Y-3.6231
G01 X24.2644 Y-3.5517
G01 X24.2536 Y-3.4789
G01 X24.2500 Y-3.4054
G01 X24.2536 Y-3.3319
G01 X24.2644 Y-3.2591
G01 X24.2823 Y-3.1877
G01 X24.3071 Y-3.1184
G01 X24.3386 Y-3.0518
G01 X24.3764 Y-2.9887
G01 X24.4202 Y-2.9296
G01 X24.4697 Y-2.8751
G01 X24.5242 Y-2.8256
G01 X24.5833 Y-2.7818
G01 X24.6465 Y-2.7440
G01 X24.7130 Y-2.7125
G01 X24.7823 Y-2.6877
G01 X24.8537 Y-2.6698
G01 X24.9265 Y-2.6590
G01 X25.0000 Y-2.6554
G01 X25.0735 Y-2.6590
G01 X25.1463 Y-2.6698
G01 X25.2177 Y-2.6877
G01 X25.2870 Y-2.7125
G01 X25.3535 Y-2.7440
G01 X25.4167 Y-2.7818
G01 X25.4758 Y-2.8256
G01 X25.5303 Y-2.8751
G01 X25.5798 Y-2.9296
G01 X25.6236 Y-2.9887
G01 X25.6614 Y-3.0518
G01 X25.6929 Y-3.1184
G01 X25.7177 Y-3.1877
G01 X25.7356 Y-3.2591
G01 X25.7464 Y-3.3319
G01 X25.7500 Y-3.4054
G00 Z2.0000
G00 X25.7500 Y70.0000
G01 F200.00
G01 Z-7.0000
G01 F300.00
G01 X25.7464 Y69.9265
G01 X25.7356 Y69.8537
G01 X25.7177 Y69.7823
G01 X25.6929 Y69.7130
G01 X25.6614 Y69.6465
G01 X25.6236 Y69.5833
G01 X25.5798 Y69.5242
G01 X25.5303 Y69.4697
G01 X25.4758 Y69.4202
G01 X25.4167 Y69.3764
G01 X25.3535 Y69.3386
G01 X25.2870 Y69.3071
G01 X25.2177 Y69.2823
G01 X25.1463 Y69.2644
G01 X25.0735 Y69.2536
G01 X25.0000 Y69.2500
G01 X24.9265 Y69.2536
G01 X24.8537 Y69.2644
G01 X24.7823 Y69.2823
G01 X24.7130 Y69.3071
G01 X24.6465 Y69.3386
G01 X24.5833 Y69.3764
G01 X24.5242 Y69.4202
G01 X24.4697 Y69.4697
G01 X24.4202 Y69.5242
G01 X24.3764 Y69.5833
G01 X24.3386 Y69.6465
G01 X24.3071 Y69.7130
G01 X24.2823 Y69.7823
G01 X24.2644 Y69.8537
G01 X24.2536 Y69.9265
G01 X24.2500 Y70.0000
G01 X24.2536 Y70.0735
G01 X24.2644 Y70.1463
G01 X24.2823 Y70.2177
G01 X24.3071 Y70.2870
G01 X24.3386 Y70.3535
G01 X24.3764 Y70.4167
G01 X24.4202 Y70.4758
G01 X24.4697 Y70.5303
G01 X24.5242 Y70.5798
G01 X24.5833 Y70.6236
G01 X24.6465 Y70.6614
G01 X24.7130 Y70.6929
G01 X24.7823 Y70.7177
G01 X24.8537 Y70.7356
G01 X24.9265 Y70.7464
G01 X25.0000 Y70.7500
G01 X25.0735 Y70.7464
G01 X25.1463 Y70.7356
G01 X25.2177 Y70.7177
G01 X25.2870 Y70.6929
G01 X25.3535 Y70.6614
G01 X25.4167 Y70.6236
G01 X25.4758 Y70.5798
G01 X25.5303 Y70.5303
G01 X25.5798 Y70.4758
G01 X25.6236 Y70.4167
G01 X25.6614 Y70.3535
G01 X25.6929 Y70.2870
G01 X25.7177 Y70.2177
G01 X25.7356 Y70.1463
G01 X25.7464 Y70.0735
G01 X25.7500 Y70.0000
G00 Z2.0000
G00 X105.7500 Y69.0000
G01 F200.00
G01 Z-7.0000
G01 F300.00
G01 X105.7464 Y68.9265
G01 X105.7356 Y68.8537
G01 X105.7177 Y68.7823
G01 X105.6929 Y68.7130
G01 X105.6614 Y68.6465
G01 X105.6236 Y68.5833
G01 X105.5798 Y68.5242
G01 X105.5303 Y68.4697
G01 X105.4758 Y68.4202
G01 X105.4167 Y68.3764
G01 X105.3535 Y68.3386
G01 X105.2870 Y68.3071
G01 X105.2177 Y68.2823
G01 X105.1463 Y68.2644
G01 X105.0735 Y68.2536
G01 X105.0000 Y68.2500
G01 X104.9265 Y68.2536
G01 X104.8537 Y68.2644
G01 X104.7823 Y68.2823
G01 X104.7130 Y68.3071
G01 X104.6465 Y68.3386
G01 X104.5833 Y68.3764
G01 X104.5242 Y68.4202
G01 X104.4697 Y68.4697
G01 X104.4202 Y68.5242
G01 X104.3764 Y68.5833
G01 X104.3386 Y68.6465
G01 X104.3071 Y68.7130
G01 X104.2823 Y68.7823
G01 X104.2644 Y68.8537
G01 X104.2536 Y68.9265
G01 X104.2500 Y69.0000
G01 X104.2536 Y69.0735
G01 X104.2644 Y69.1463
G01 X104.2823 Y69.2177
G01 X104.3071 Y69.2870
G01 X104.3386 Y69.3535
G01 X104.3764 Y69.4167
G01 X104.4202 Y69.4758
G01 X104.4697 Y69.5303
G01 X104.5242 Y69.5798
G01 X104.5833 Y69.6236
G01 X104.6465 Y69.6614
G01 X104.7130 Y69.6929
G01 X104.7823 Y69.7177
G01 X104.8537 Y69.7356
G01 X104.9265 Y69.7464
G01 X105.0000 Y69.7500
G01 X105.0735 Y69.7464
G01 X105.1463 Y69.7356
G01 X105.2177 Y69.7177
G01 X105.2870 Y69.6929
G01 X105.3535 Y69.6614
G01 X105.4167 Y69.6236
G01 X105.4758 Y69.5798
G01 X105.5303 Y69.5303
G01 X105.5798 Y69.4758
G01 X105.6236 Y69.4167
G01 X105.6614 Y69.3535
G01 X105.6929 Y69.2870
G01 X105.7177 Y69.2177
G01 X105.7356 Y69.1463
G01 X105.7464 Y69.0735
G01 X105.7500 Y69.0000
G00 Z2.0000
G00 X105.7500 Y-2.4054
G01 F200.00
G01 Z-7.0000
G01 F300.00
G01 X105.7464 Y-2.4789
G01 X105.7356 Y-2.5517
G01 X105.7177 Y-2.6231
G01 X105.6929 Y-2.6924
G01 X105.6614 Y-2.7589
G01 X105.6236 Y-2.8221
G01 X105.5798 Y-2.8812
G01 X105.5303 Y-2.9357
G01 X105.4758 Y-2.9851
G01 X105.4167 Y-3.0290
G01 X105.3535 Y-3.0668
G01 X105.2870 Y-3.0983
G01 X105.2177 Y-3.1231
G01 X105.1463 Y-3.1410
G01 X105.0735 Y-3.1518
G01 X105.0000 Y-3.1554
G01 X104.9265 Y-3.1518
G01 X104.8537 Y-3.1410
G01 X104.7823 Y-3.1231
G01 X104.7130 Y-3.0983
G01 X104.6465 Y-3.0668
G01 X104.5833 Y-3.0290
G01 X104.5242 Y-2.9851
G01 X104.4697 Y-2.9357
G01 X104.4202 Y-2.8812
G01 X104.3764 Y-2.8221
G01 X104.3386 Y-2.7589
G01 X104.3071 Y-2.6924
G01 X104.2823 Y-2.6231
G01 X104.2644 Y-2.5517
G01 X104.2536 Y-2.4789
G01 X104.2500 Y-2.4054
G01 X104.2536 Y-2.3319
G01 X104.2644 Y-2.2591
G01 X104.2823 Y-2.1877
G01 X104.3071 Y-2.1184
G01 X104.3386 Y-2.0518
G01 X104.3764 Y-1.9887
G01 X104.4202 Y-1.9296
G01 X104.4697 Y-1.8751
G01 X104.5242 Y-1.8256
G01 X104.5833 Y-1.7818
G01 X104.6465 Y-1.7440
G01 X104.7130 Y-1.7125
G01 X104.7823 Y-1.6877
G01 X104.8537 Y-1.6698
G01 X104.9265 Y-1.6590
G01 X105.0000 Y-1.6554
G01 X105.0735 Y-1.6590
G01 X105.1463 Y-1.6698
G01 X105.2177 Y-1.6877
G01 X105.2870 Y-1.7125
G01 X105.3535 Y-1.7440
G01 X105.4167 Y-1.7818
G01 X105.4758 Y-1.8256
G01 X105.5303 Y-1.8751
G01 X105.5798 Y-1.9296
G01 X105.6236 Y-1.9887
G01 X105.6614 Y-2.0518
G01 X105.6929 Y-2.1184
G01 X105.7177 Y-2.1877
G01 X105.7356 Y-2.2591
G01 X105.7464 Y-2.3319
G01 X105.7500 Y-2.4054
G00 Z2.0000
M05
G00 Z2.0000
G00 Z15.00


