(G-CODE GENERATED BY FLATCAM v8.994 - www.flatcam.org - Version Date: 2020/11/7)

(Name: GearClockControl - Bottom Copper.gbr_iso_combined_cnc)
(Type: G-code from Geometry)
(Units: MM)

(Created on Tuesday, 15 December 2020 at 17:14)

(This preprocessor is the default preprocessor used by FlatCAM.)
(It is made to work with MACH3 compatible motion controllers.)

(TOOL DIAMETER: 0.2 mm)
(Feedrate_XY: 600.0 mm/min)
(Feedrate_Z: 200.0 mm/min)
(Feedrate rapids 1500.0 mm/min)

(Z_Cut: 0.0 mm)
(Z_Move: 2.0 mm)
(Z Start: None mm)
(Z End: 15.0 mm)
(X,Y End: None mm)
(Steps per circle: 64)
(Preprocessor Geometry: default)

(X range:   20.5089 ...  110.0985  mm)
(Y range:    0.4720 ...   66.2124  mm)

(Spindle Speed: 0.0 RPM)
G21
G90
G94

G01 F600.00

M5
G00 Z15.0000
G00 X0.0000 Y0.0000
T1
M6    
(MSG, Change to Tool Dia = 0.2000)
M0
G00 Z15.0000

M03
G01 F600.00
G00 X27.1255 Y26.9241
G01 F200.00
G01 Z0.0000
G01 F600.00
G01 X26.9906 Y27.0593
G01 X26.9695 Y27.0826
G01 X26.9494 Y27.1071
G01 X26.9494 Y26.8032
G01 X26.9650 Y26.7876
G01 X26.9799 Y26.8046
G01 X27.0016 Y26.8274
G01 X27.0128 Y26.8384
G01 X27.0361 Y26.8595
G01 X27.0604 Y26.8794
G01 X27.0856 Y26.8981
G01 X27.1117 Y26.9156
G01 X27.1255 Y26.9241
G00 Z2.0000
G00 X27.3834 Y28.3998
G01 F200.00
G01 Z0.0000
G01 F600.00
G01 X27.3768 Y28.3926
G01 X27.3710 Y28.3847
G01 X27.3671 Y28.3784
G01 X27.3627 Y28.3697
G01 X27.3591 Y28.3605
G01 X27.3565 Y28.3510
G01 X27.3549 Y28.3414
G01 X27.3541 Y28.3316
G01 X27.3541 Y27.5006
G01 X27.3544 Y27.4932
G01 X27.3556 Y27.4835
G01 X27.3577 Y27.4739
G01 X27.3608 Y27.4646
G01 X27.3648 Y27.4556
G01 X27.3696 Y27.4471
G01 X27.3753 Y27.4391
G01 X27.3834 Y27.4299
G01 X27.9691 Y26.8441
G01 X27.9783 Y26.8360
G01 X27.9843 Y26.8317
G01 X27.9905 Y26.8278
G01 X28.0016 Y26.8225
G01 X28.0085 Y26.8199
G01 X28.0155 Y26.8179
G01 X28.0276 Y26.8156
G01 X28.0398 Y26.8149
G01 X28.8684 Y26.8149
G01 X28.8757 Y26.8151
G01 X28.8830 Y26.8159
G01 X28.8950 Y26.8185
G01 X28.9066 Y26.8225
G01 X28.9177 Y26.8278
G01 X28.9279 Y26.8345
G01 X28.9373 Y26.8424
G01 X29.2745 Y27.1795
G01 X30.5764 Y27.1796
G01 X30.6461 Y27.1831
G01 X30.7174 Y27.1937
G01 X30.7874 Y27.2112
G01 X30.8508 Y27.2337
G01 X30.8599 Y27.2375
G01 X30.9206 Y27.2664
G01 X30.9825 Y27.3035
G01 X31.0405 Y27.3464
G01 X31.0904 Y27.3915
G01 X31.9461 Y28.2471
G01 X33.7930 Y28.2471
G01 X33.7930 Y28.2180
G01 X33.7941 Y28.2057
G01 X33.7954 Y28.1985
G01 X33.7980 Y28.1890
G01 X33.8016 Y28.1799
G01 X33.8048 Y28.1733
G01 X33.8085 Y28.1669
G01 X33.8142 Y28.1589
G01 X33.8189 Y28.1533
G01 X33.8258 Y28.1463
G01 X33.8334 Y28.1401
G01 X33.8395 Y28.1359
G01 X33.8480 Y28.1311
G01 X33.8562 Y28.1275
G01 X33.8562 Y27.9868
G01 X33.8597 Y27.9172
G01 X33.8703 Y27.8458
G01 X33.8878 Y27.7758
G01 X33.9122 Y27.7079
G01 X33.9430 Y27.6427
G01 X33.9801 Y27.5808
G01 X34.0216 Y27.5247
G01 X34.0263 Y27.5191
G01 X34.0716 Y27.4693
G01 X35.1053 Y26.4356
G01 X35.1570 Y26.3889
G01 X35.2110 Y26.3487
G01 X35.2191 Y26.3433
G01 X35.2791 Y26.3077
G01 X35.3421 Y26.2779
G01 X35.4054 Y26.2552
G01 X35.4148 Y26.2523
G01 X35.4800 Y26.2361
G01 X35.5466 Y26.2261
G01 X35.5563 Y26.2251
G01 X35.6186 Y26.2221
G01 X37.2239 Y26.2220
G01 X37.6436 Y25.8023
G01 X37.6970 Y25.7539
G01 X37.7550 Y25.7109
G01 X37.8169 Y25.6738
G01 X37.8821 Y25.6429
G01 X37.9454 Y25.6202
G01 X37.9548 Y25.6173
G01 X38.0153 Y25.6022
G01 X38.0249 Y25.6002
G01 X38.0914 Y25.5905
G01 X38.1610 Y25.5870
G01 X39.0685 Y25.5870
G01 X39.0685 Y24.9222
G01 X39.0687 Y24.9149
G01 X39.0695 Y24.9076
G01 X39.0709 Y24.9003
G01 X39.0728 Y24.8932
G01 X39.0770 Y24.8817
G01 X39.0827 Y24.8708
G01 X39.0896 Y24.8607
G01 X39.0977 Y24.8515
G01 X39.1069 Y24.8434
G01 X39.1129 Y24.8391
G01 X39.1192 Y24.8352
G01 X39.1302 Y24.8298
G01 X39.1418 Y24.8259
G01 X39.1538 Y24.8233
G01 X39.1660 Y24.8223
G01 X39.3332 Y24.8222
G01 X39.3332 Y24.7218
G01 X38.4724 Y23.8607
G01 X38.4288 Y23.8127
G01 X38.4226 Y23.8052
G01 X38.3827 Y23.7511
G01 X38.3480 Y23.6934
G01 X38.3434 Y23.6848
G01 X38.3147 Y23.6240
G01 X38.2904 Y23.5560
G01 X38.2729 Y23.4860
G01 X38.2629 Y23.4195
G01 X38.2619 Y23.4098
G01 X38.2588 Y23.3426
G01 X38.2588 Y23.0774
G01 X38.2433 Y23.0510
G01 X38.2097 Y22.9800
G01 X38.1814 Y22.9016
G01 X38.1793 Y22.8945
G01 X38.1604 Y22.8183
G01 X38.1487 Y22.7407
G01 X38.1479 Y22.7334
G01 X38.1440 Y22.6525
G01 X38.1481 Y22.5692
G01 X38.1604 Y22.4866
G01 X38.1793 Y22.4105
G01 X38.1822 Y22.4011
G01 X38.2070 Y22.3318
G01 X38.2107 Y22.3227
G01 X38.2444 Y22.2518
G01 X38.2873 Y22.1802
G01 X38.3370 Y22.1132
G01 X38.3930 Y22.0514
G01 X38.4548 Y21.9954
G01 X38.5178 Y21.9485
G01 X38.5260 Y21.9431
G01 X38.5934 Y21.9028
G01 X38.6643 Y21.8691
G01 X38.6734 Y21.8654
G01 X38.7427 Y21.8406
G01 X38.7521 Y21.8377
G01 X38.8282 Y21.8188
G01 X38.9059 Y21.8071
G01 X38.9157 Y21.8062
G01 X38.9941 Y21.8024
G01 X39.0725 Y21.8062
G01 X39.0823 Y21.8071
G01 X39.1599 Y21.8188
G01 X39.2408 Y21.8390
G01 X39.3148 Y21.8654
G01 X39.3239 Y21.8691
G01 X39.3948 Y21.9028
G01 X39.4663 Y21.9457
G01 X39.5334 Y21.9954
G01 X39.5916 Y22.0480
G01 X39.5985 Y22.0550
G01 X39.6480 Y22.1095
G01 X39.6542 Y22.1171
G01 X39.7009 Y22.1802
G01 X39.7413 Y22.2475
G01 X39.7460 Y22.2562
G01 X39.7794 Y22.3272
G01 X39.8075 Y22.4057
G01 X39.8267 Y22.4819
G01 X39.8286 Y22.4915
G01 X39.8400 Y22.5692
G01 X39.8441 Y22.6525
G01 X39.8404 Y22.7309
G01 X39.8394 Y22.7407
G01 X39.8278 Y22.8183
G01 X39.8088 Y22.8945
G01 X39.8060 Y22.9039
G01 X39.7794 Y22.9778
G01 X39.7440 Y23.0527
G01 X40.5885 Y23.8974
G01 X40.6370 Y23.9509
G01 X40.6785 Y24.0068
G01 X40.6826 Y24.0130
G01 X40.7170 Y24.0707
G01 X40.7479 Y24.1359
G01 X40.7722 Y24.2039
G01 X40.7886 Y24.2691
G01 X40.7905 Y24.2787
G01 X40.8003 Y24.3452
G01 X40.8038 Y24.4148
G01 X40.8038 Y24.8222
G01 X40.9710 Y24.8223
G01 X40.9832 Y24.8233
G01 X40.9952 Y24.8259
G01 X41.0022 Y24.8281
G01 X41.0091 Y24.8308
G01 X41.0200 Y24.8365
G01 X41.0301 Y24.8434
G01 X41.0393 Y24.8515
G01 X41.0474 Y24.8607
G01 X41.0517 Y24.8667
G01 X41.0556 Y24.8729
G01 X41.0609 Y24.8840
G01 X41.0635 Y24.8909
G01 X41.0655 Y24.8979
G01 X41.0678 Y24.9100
G01 X41.0685 Y24.9222
G01 X41.0685 Y27.7223
G01 X41.0681 Y27.7321
G01 X41.0666 Y27.7418
G01 X41.0642 Y27.7513
G01 X41.0600 Y27.7628
G01 X41.0556 Y27.7716
G01 X41.0489 Y27.7819
G01 X41.0410 Y27.7913
G01 X41.0339 Y27.7980
G01 X41.0261 Y27.8041
G01 X41.0200 Y27.8081
G01 X41.0135 Y27.8116
G01 X41.0045 Y27.8156
G01 X40.9952 Y27.8187
G01 X40.9881 Y27.8204
G01 X40.9783 Y27.8218
G01 X40.9685 Y27.8223
G01 X39.1685 Y27.8223
G01 X39.1587 Y27.8218
G01 X39.1489 Y27.8204
G01 X39.1418 Y27.8187
G01 X39.1325 Y27.8156
G01 X39.1257 Y27.8127
G01 X39.1192 Y27.8093
G01 X39.1089 Y27.8026
G01 X39.1031 Y27.7980
G01 X39.0977 Y27.7930
G01 X39.0927 Y27.7876
G01 X39.0881 Y27.7819
G01 X39.0814 Y27.7716
G01 X39.0781 Y27.7651
G01 X39.0752 Y27.7583
G01 X39.0728 Y27.7513
G01 X39.0709 Y27.7442
G01 X39.0695 Y27.7370
G01 X39.0687 Y27.7297
G01 X39.0685 Y27.7223
G01 X39.0685 Y27.0576
G01 X38.4681 Y27.0576
G01 X38.0484 Y27.4772
G01 X37.9987 Y27.5225
G01 X37.9931 Y27.5272
G01 X37.9410 Y27.5658
G01 X37.9329 Y27.5713
G01 X37.8751 Y27.6058
G01 X37.8144 Y27.6346
G01 X37.8053 Y27.6384
G01 X37.7420 Y27.6609
G01 X37.6720 Y27.6785
G01 X37.6006 Y27.6890
G01 X37.5285 Y27.6926
G01 X35.9281 Y27.6926
G01 X35.3900 Y28.2307
G01 X35.3899 Y29.7493
G01 X35.3889 Y29.7591
G01 X35.3876 Y29.7663
G01 X35.3857 Y29.7734
G01 X35.3833 Y29.7804
G01 X35.3804 Y29.7872
G01 X35.3770 Y29.7937
G01 X35.3718 Y29.8020
G01 X35.3673 Y29.8079
G01 X35.3624 Y29.8134
G01 X35.3553 Y29.8201
G01 X35.3496 Y29.8247
G01 X35.3435 Y29.8289
G01 X35.3371 Y29.8326
G01 X35.3305 Y29.8358
G01 X35.3237 Y29.8386
G01 X35.3143 Y29.8414
G01 X35.3022 Y29.8437
G01 X35.2900 Y29.8444
G01 X33.8930 Y29.8444
G01 X33.8856 Y29.8441
G01 X33.8759 Y29.8429
G01 X33.8663 Y29.8408
G01 X33.8547 Y29.8368
G01 X33.8459 Y29.8326
G01 X33.8374 Y29.8276
G01 X33.8277 Y29.8201
G01 X33.8206 Y29.8134
G01 X33.8127 Y29.8040
G01 X33.8072 Y29.7958
G01 X33.8026 Y29.7872
G01 X33.7980 Y29.7758
G01 X33.7954 Y29.7663
G01 X33.7938 Y29.7567
G01 X33.7931 Y29.7493
G01 X33.7930 Y29.7177
G01 X31.6415 Y29.7177
G01 X31.5695 Y29.7142
G01 X31.5005 Y29.7041
G01 X31.4328 Y29.6874
G01 X31.4234 Y29.6845
G01 X31.3601 Y29.6618
G01 X31.2993 Y29.6331
G01 X31.2906 Y29.6285
G01 X31.2330 Y29.5938
G01 X31.1789 Y29.5538
G01 X31.1732 Y29.5492
G01 X31.1216 Y29.5024
G01 X30.2694 Y28.6502
G01 X29.2745 Y28.6502
G01 X28.9373 Y28.9873
G01 X28.9279 Y28.9952
G01 X28.9177 Y29.0019
G01 X28.9089 Y29.0063
G01 X28.8974 Y29.0105
G01 X28.8903 Y29.0124
G01 X28.8830 Y29.0138
G01 X28.8757 Y29.0146
G01 X28.8684 Y29.0148
G01 X28.0398 Y29.0148
G01 X28.0300 Y29.0144
G01 X28.0227 Y29.0134
G01 X28.0132 Y29.0112
G01 X28.0038 Y29.0081
G01 X27.9971 Y29.0052
G01 X27.9905 Y29.0019
G01 X27.9843 Y28.9980
G01 X27.9783 Y28.9937
G01 X27.9709 Y28.9873
G01 X27.3834 Y28.3998
G00 Z2.0000
G00 X27.2561 Y28.5271
G01 F200.00
G01 Z0.0000
G01 F600.00
G01 X27.2466 Y28.5172
G01 X27.2377 Y28.5068
G01 X27.2292 Y28.4959
G01 X27.2213 Y28.4847
G01 X27.2139 Y28.4731
G01 X27.2072 Y28.4611
G01 X27.1981 Y28.4426
G01 X27.1929 Y28.4299
G01 X27.1882 Y28.4170
G01 X27.1825 Y28.3972
G01 X27.1795 Y28.3838
G01 X27.1771 Y28.3702
G01 X27.1754 Y28.3566
G01 X27.1744 Y28.3429
G01 X27.1741 Y28.3291
G01 X27.1742 Y27.4937
G01 X27.1754 Y27.4731
G01 X27.1782 Y27.4527
G01 X27.1825 Y27.4325
G01 X27.1862 Y27.4193
G01 X27.1905 Y27.4063
G01 X27.1981 Y27.3871
G01 X27.2040 Y27.3747
G01 X27.2105 Y27.3626
G01 X27.2175 Y27.3508
G01 X27.2252 Y27.3394
G01 X27.2334 Y27.3283
G01 X27.2466 Y27.3125
G01 X27.2561 Y27.3026
G01 X27.8468 Y26.7121
G01 X27.8569 Y26.7028
G01 X27.8676 Y26.6941
G01 X27.8786 Y26.6859
G01 X27.8900 Y26.6783
G01 X27.9018 Y26.6712
G01 X27.9139 Y26.6648
G01 X27.9264 Y26.6589
G01 X27.9360 Y26.6548
G01 X27.4472 Y26.6548
G01 X27.4335 Y26.6541
G01 X27.4198 Y26.6527
G01 X27.3995 Y26.6495
G01 X27.3794 Y26.6447
G01 X27.3598 Y26.6385
G01 X27.3469 Y26.6335
G01 X27.3344 Y26.6280
G01 X27.3221 Y26.6218
G01 X27.3102 Y26.6150
G01 X27.2929 Y26.6038
G01 X27.2818 Y26.5956
G01 X27.2712 Y26.5869
G01 X27.2610 Y26.5776
G01 X27.2513 Y26.5679
G01 X27.2421 Y26.5577
G01 X27.2334 Y26.5471
G01 X27.2213 Y26.5304
G01 X27.2139 Y26.5188
G01 X27.2072 Y26.5068
G01 X27.2010 Y26.4946
G01 X27.1954 Y26.4820
G01 X27.1882 Y26.4627
G01 X27.1825 Y26.4429
G01 X27.1795 Y26.4295
G01 X27.1771 Y26.4159
G01 X27.1754 Y26.4023
G01 X27.1742 Y26.3817
G01 X27.1741 Y26.2902
G01 X26.9532 Y26.2902
G01 X26.5894 Y26.6541
G01 X26.5894 Y30.3531
G01 X33.6587 Y30.3531
G01 X33.6681 Y30.3396
G01 X33.6766 Y30.3288
G01 X33.6855 Y30.3184
G01 X33.6999 Y30.3036
G01 X33.7101 Y30.2944
G01 X33.7207 Y30.2857
G01 X33.7374 Y30.2736
G01 X33.7491 Y30.2663
G01 X33.7671 Y30.2563
G01 X33.7795 Y30.2504
G01 X33.7922 Y30.2452
G01 X33.8117 Y30.2385
G01 X33.8250 Y30.2348
G01 X33.8451 Y30.2305
G01 X33.8587 Y30.2285
G01 X33.8724 Y30.2272
G01 X33.8930 Y30.2264
G01 X35.2900 Y30.2264
G01 X35.3106 Y30.2272
G01 X35.3243 Y30.2285
G01 X35.3446 Y30.2318
G01 X35.3580 Y30.2348
G01 X35.3778 Y30.2406
G01 X35.3908 Y30.2452
G01 X35.4097 Y30.2533
G01 X35.4220 Y30.2595
G01 X35.4398 Y30.2699
G01 X35.4512 Y30.2775
G01 X35.4676 Y30.2900
G01 X35.4780 Y30.2990
G01 X35.4928 Y30.3133
G01 X35.5020 Y30.3235
G01 X35.5149 Y30.3396
G01 X35.5243 Y30.3531
G01 X41.0932 Y30.3531
G01 X41.6932 Y29.7531
G01 X41.6932 Y27.6914
G01 X41.6805 Y27.6782
G01 X41.6711 Y27.6672
G01 X41.6249 Y27.6103
G01 X41.6114 Y27.5924
G01 X41.5674 Y27.5247
G01 X41.5598 Y27.5123
G01 X41.5528 Y27.4995
G01 X41.5163 Y27.4276
G01 X41.5075 Y27.4072
G01 X41.4814 Y27.3388
G01 X41.4766 Y27.3252
G01 X41.4725 Y27.3114
G01 X41.4534 Y27.2405
G01 X41.4499 Y27.2261
G01 X41.4472 Y27.2115
G01 X41.4348 Y27.1319
G01 X41.4328 Y27.1100
G01 X41.4290 Y27.0369
G01 X41.4286 Y27.0223
G01 X41.4287 Y25.6155
G01 X41.4328 Y25.5293
G01 X41.4340 Y25.5168
G01 X41.4357 Y25.5045
G01 X41.4474 Y25.4321
G01 X41.4500 Y25.4183
G01 X41.4532 Y25.4047
G01 X41.4720 Y25.3341
G01 X41.4763 Y25.3196
G01 X41.4813 Y25.3055
G01 X41.5077 Y25.2369
G01 X41.5133 Y25.2235
G01 X41.5196 Y25.2104
G01 X41.5528 Y25.1451
G01 X41.5635 Y25.1260
G01 X41.6114 Y25.0522
G01 X41.6249 Y25.0342
G01 X41.6711 Y24.9773
G01 X41.6805 Y24.9663
G01 X41.6904 Y24.9559
G01 X41.7475 Y24.8989
G01 X41.7642 Y24.8843
G01 X41.8211 Y24.8383
G01 X41.8383 Y24.8255
G01 X41.9118 Y24.7776
G01 X41.9246 Y24.7702
G01 X41.9472 Y24.7586
G01 X41.9472 Y21.8575
G01 X41.9337 Y21.8482
G01 X41.9229 Y21.8397
G01 X41.9125 Y21.8307
G01 X41.8977 Y21.8163
G01 X41.8885 Y21.8062
G01 X41.8756 Y21.7901
G01 X41.8677 Y21.7788
G01 X41.8603 Y21.7672
G01 X41.8536 Y21.7553
G01 X41.8474 Y21.7430
G01 X41.8418 Y21.7304
G01 X41.8346 Y21.7111
G01 X41.8289 Y21.6913
G01 X41.8259 Y21.6779
G01 X41.8226 Y21.6575
G01 X41.8213 Y21.6439
G01 X41.8205 Y21.6233
G01 X41.8205 Y20.2263
G01 X41.8213 Y20.2057
G01 X41.8226 Y20.1920
G01 X41.8259 Y20.1717
G01 X41.8289 Y20.1582
G01 X41.8346 Y20.1384
G01 X41.8418 Y20.1191
G01 X41.8504 Y20.1004
G01 X41.8569 Y20.0883
G01 X41.8639 Y20.0765
G01 X41.8756 Y20.0595
G01 X41.8885 Y20.0434
G01 X41.9025 Y20.0283
G01 X41.9176 Y20.0143
G01 X41.9337 Y20.0014
G01 X41.9507 Y19.9897
G01 X41.9685 Y19.9793
G01 X41.9870 Y19.9703
G01 X42.0062 Y19.9626
G01 X42.0258 Y19.9564
G01 X42.0459 Y19.9517
G01 X42.0662 Y19.9484
G01 X42.0868 Y19.9466
G01 X42.1005 Y19.9463
G01 X43.6245 Y19.9463
G01 X43.6451 Y19.9470
G01 X43.6588 Y19.9484
G01 X43.6724 Y19.9504
G01 X43.6925 Y19.9547
G01 X43.7058 Y19.9583
G01 X43.7188 Y19.9626
G01 X43.7380 Y19.9703
G01 X43.7565 Y19.9793
G01 X43.7684 Y19.9861
G01 X43.7801 Y19.9935
G01 X43.7968 Y20.0055
G01 X43.8074 Y20.0143
G01 X43.8176 Y20.0235
G01 X43.8273 Y20.0332
G01 X43.8365 Y20.0434
G01 X43.8494 Y20.0595
G01 X43.8611 Y20.0765
G01 X43.8681 Y20.0883
G01 X43.8746 Y20.1004
G01 X43.8832 Y20.1191
G01 X43.8904 Y20.1384
G01 X43.8944 Y20.1516
G01 X43.8977 Y20.1649
G01 X43.9015 Y20.1852
G01 X43.9037 Y20.2057
G01 X43.9045 Y20.2263
G01 X43.9044 Y21.6301
G01 X43.9037 Y21.6439
G01 X43.9015 Y21.6644
G01 X43.8991 Y21.6779
G01 X43.8944 Y21.6980
G01 X43.8904 Y21.7111
G01 X43.8832 Y21.7304
G01 X43.8746 Y21.7492
G01 X43.8681 Y21.7613
G01 X43.8573 Y21.7788
G01 X43.8494 Y21.7901
G01 X43.8409 Y21.8009
G01 X43.8273 Y21.8163
G01 X43.8176 Y21.8261
G01 X43.8021 Y21.8397
G01 X43.7913 Y21.8482
G01 X43.7778 Y21.8575
G01 X43.7778 Y25.4841
G01 X43.7822 Y25.5127
G01 X43.7838 Y25.5272
G01 X43.7880 Y25.6077
G01 X43.7884 Y25.6223
G01 X43.7884 Y27.0223
G01 X43.7881 Y27.0359
G01 X43.7845 Y27.1090
G01 X43.7830 Y27.1277
G01 X43.7696 Y27.2125
G01 X43.7670 Y27.2262
G01 X43.7638 Y27.2399
G01 X43.7450 Y27.3105
G01 X43.7407 Y27.3249
G01 X43.7357 Y27.3391
G01 X43.7066 Y27.4144
G01 X43.6974 Y27.4342
G01 X43.6642 Y27.4995
G01 X43.6572 Y27.5123
G01 X43.6496 Y27.5247
G01 X43.6097 Y27.5862
G01 X43.5968 Y27.6045
G01 X43.5459 Y27.6672
G01 X43.5365 Y27.6782
G01 X43.5238 Y27.6914
G01 X43.5238 Y29.5972
G01 X49.7649 Y29.5972
G01 X49.7781 Y29.5845
G01 X49.7890 Y29.5751
G01 X49.8518 Y29.5242
G01 X49.8701 Y29.5113
G01 X49.9316 Y29.4714
G01 X49.9504 Y29.4603
G01 X50.0287 Y29.4203
G01 X50.0491 Y29.4116
G01 X50.1175 Y29.3854
G01 X50.1311 Y29.3806
G01 X50.1449 Y29.3765
G01 X50.2158 Y29.3574
G01 X50.2302 Y29.3540
G01 X50.2448 Y29.3513
G01 X50.3172 Y29.3398
G01 X50.3317 Y29.3379
G01 X50.3463 Y29.3368
G01 X50.4194 Y29.3330
G01 X50.4340 Y29.3326
G01 X52.0342 Y29.3326
G01 X52.0478 Y29.3329
G01 X52.1207 Y29.3365
G01 X52.1394 Y29.3380
G01 X52.2241 Y29.3514
G01 X52.2377 Y29.3540
G01 X52.2513 Y29.3572
G01 X52.3221 Y29.3760
G01 X52.3368 Y29.3803
G01 X52.3513 Y29.3855
G01 X52.4196 Y29.4119
G01 X52.4327 Y29.4173
G01 X52.4454 Y29.4234
G01 X52.5110 Y29.4567
G01 X52.5242 Y29.4638
G01 X52.5370 Y29.4717
G01 X52.5982 Y29.5116
G01 X52.6162 Y29.5243
G01 X52.6789 Y29.5751
G01 X52.6898 Y29.5845
G01 X52.7031 Y29.5972
G01 X59.4021 Y29.5972
G01 X59.4671 Y29.5664
G01 X59.4797 Y29.5609
G01 X59.4925 Y29.5559
G01 X59.5618 Y29.5311
G01 X59.5749 Y29.5268
G01 X59.5881 Y29.5231
G01 X59.6595 Y29.5053
G01 X59.6729 Y29.5022
G01 X59.6865 Y29.4999
G01 X59.7593 Y29.4891
G01 X59.7729 Y29.4874
G01 X59.7866 Y29.4864
G01 X59.8602 Y29.4828
G01 X59.8739 Y29.4825
G01 X59.8876 Y29.4828
G01 X59.9612 Y29.4864
G01 X59.9749 Y29.4874
G01 X59.9885 Y29.4891
G01 X60.0613 Y29.4999
G01 X60.0749 Y29.5022
G01 X60.0883 Y29.5053
G01 X60.1597 Y29.5231
G01 X60.1729 Y29.5268
G01 X60.1860 Y29.5311
G01 X60.2553 Y29.5559
G01 X60.2681 Y29.5609
G01 X60.2806 Y29.5664
G01 X60.3472 Y29.5979
G01 X60.3595 Y29.6041
G01 X60.3714 Y29.6109
G01 X60.4346 Y29.6487
G01 X60.4462 Y29.6560
G01 X60.4574 Y29.6640
G01 X60.5165 Y29.7078
G01 X60.5274 Y29.7163
G01 X60.5378 Y29.7252
G01 X60.5923 Y29.7747
G01 X60.6023 Y29.7841
G01 X60.6117 Y29.7941
G01 X60.6612 Y29.8486
G01 X60.6701 Y29.8590
G01 X60.6786 Y29.8699
G01 X60.7224 Y29.9290
G01 X60.7304 Y29.9402
G01 X60.7377 Y29.9519
G01 X60.7756 Y30.0150
G01 X60.7823 Y30.0269
G01 X60.7885 Y30.0392
G01 X60.8200 Y30.1058
G01 X60.8255 Y30.1183
G01 X60.8305 Y30.1311
G01 X60.8553 Y30.2005
G01 X60.8596 Y30.2135
G01 X60.8633 Y30.2267
G01 X60.8812 Y30.2981
G01 X60.8842 Y30.3116
G01 X60.8865 Y30.3251
G01 X60.8973 Y30.3979
G01 X60.8990 Y30.4115
G01 X60.9000 Y30.4253
G01 X60.9036 Y30.4988
G01 X60.9040 Y30.5125
G01 X60.9036 Y30.5263
G01 X60.8996 Y30.6066
G01 X60.8973 Y30.6271
G01 X60.8865 Y30.6999
G01 X60.8842 Y30.7135
G01 X60.8812 Y30.7269
G01 X60.8633 Y30.7983
G01 X60.8575 Y30.8181
G01 X60.8305 Y30.8939
G01 X60.8255 Y30.9067
G01 X60.8200 Y30.9193
G01 X60.7885 Y30.9858
G01 X60.7823 Y30.9981
G01 X60.7756 Y31.0100
G01 X60.7377 Y31.0732
G01 X60.7304 Y31.0848
G01 X60.7224 Y31.0960
G01 X60.6786 Y31.1551
G01 X60.6701 Y31.1660
G01 X60.6612 Y31.1764
G01 X60.6117 Y31.2309
G01 X60.6023 Y31.2409
G01 X60.5923 Y31.2504
G01 X60.5378 Y31.2998
G01 X60.5274 Y31.3088
G01 X60.5165 Y31.3172
G01 X60.4574 Y31.3611
G01 X60.4462 Y31.3690
G01 X60.4346 Y31.3763
G01 X60.3714 Y31.4142
G01 X60.3595 Y31.4209
G01 X60.3472 Y31.4271
G01 X60.2806 Y31.4586
G01 X60.2681 Y31.4642
G01 X60.2553 Y31.4691
G01 X60.1795 Y31.4961
G01 X60.1597 Y31.5019
G01 X60.0883 Y31.5198
G01 X60.0749 Y31.5228
G01 X60.0613 Y31.5251
G01 X59.9885 Y31.5359
G01 X59.9680 Y31.5382
G01 X59.8876 Y31.5422
G01 X59.8739 Y31.5426
G01 X59.8602 Y31.5422
G01 X59.7866 Y31.5386
G01 X59.7729 Y31.5376
G01 X59.7593 Y31.5359
G01 X59.6865 Y31.5251
G01 X59.6729 Y31.5228
G01 X59.6595 Y31.5198
G01 X59.5881 Y31.5019
G01 X59.5749 Y31.4982
G01 X59.5618 Y31.4939
G01 X59.4925 Y31.4691
G01 X59.4797 Y31.4642
G01 X59.4671 Y31.4586
G01 X59.4021 Y31.4278
G01 X52.7033 Y31.4278
G01 X52.6901 Y31.4405
G01 X52.6791 Y31.4499
G01 X52.6164 Y31.5008
G01 X52.5981 Y31.5137
G01 X52.5366 Y31.5536
G01 X52.5242 Y31.5612
G01 X52.5114 Y31.5682
G01 X52.4461 Y31.6014
G01 X52.4327 Y31.6078
G01 X52.4190 Y31.6135
G01 X52.3507 Y31.6396
G01 X52.3371 Y31.6444
G01 X52.3233 Y31.6485
G01 X52.2524 Y31.6676
G01 X52.2380 Y31.6711
G01 X52.2234 Y31.6738
G01 X52.1510 Y31.6852
G01 X52.1365 Y31.6871
G01 X52.1219 Y31.6882
G01 X52.0487 Y31.6921
G01 X52.0342 Y31.6924
G01 X50.4340 Y31.6924
G01 X50.4203 Y31.6921
G01 X50.3474 Y31.6885
G01 X50.3288 Y31.6870
G01 X50.2441 Y31.6736
G01 X50.2304 Y31.6711
G01 X50.2169 Y31.6678
G01 X50.1460 Y31.6490
G01 X50.1313 Y31.6447
G01 X50.1169 Y31.6396
G01 X50.0485 Y31.6131
G01 X50.0355 Y31.6077
G01 X50.0227 Y31.6016
G01 X49.9505 Y31.5649
G01 X49.9311 Y31.5533
G01 X49.8699 Y31.5134
G01 X49.8520 Y31.5007
G01 X49.7893 Y31.4499
G01 X49.7783 Y31.4405
G01 X49.7651 Y31.4278
G01 X42.6074 Y31.4278
G01 X42.1147 Y31.9204
G01 X42.0634 Y31.9670
G01 X42.0530 Y31.9760
G01 X42.0422 Y31.9844
G01 X41.9865 Y32.0256
G01 X41.9693 Y32.0368
G01 X41.9158 Y32.0689
G01 X41.9038 Y32.0757
G01 X41.8916 Y32.0818
G01 X41.8352 Y32.1085
G01 X41.8226 Y32.1141
G01 X41.8098 Y32.1190
G01 X41.7511 Y32.1400
G01 X41.7381 Y32.1443
G01 X41.7248 Y32.1480
G01 X41.6643 Y32.1631
G01 X41.6509 Y32.1661
G01 X41.6374 Y32.1685
G01 X41.5757 Y32.1776
G01 X41.5621 Y32.1793
G01 X41.5484 Y32.1803
G01 X41.4861 Y32.1834
G01 X41.4724 Y32.1837
G01 X35.5243 Y32.1837
G01 X35.5149 Y32.1972
G01 X35.5064 Y32.2080
G01 X35.4975 Y32.2185
G01 X35.4880 Y32.2284
G01 X35.4780 Y32.2379
G01 X35.4676 Y32.2469
G01 X35.4568 Y32.2553
G01 X35.4398 Y32.2670
G01 X35.4280 Y32.2740
G01 X35.4159 Y32.2805
G01 X35.4035 Y32.2864
G01 X35.3843 Y32.2940
G01 X35.3647 Y32.3003
G01 X35.3513 Y32.3036
G01 X35.3379 Y32.3063
G01 X35.3243 Y32.3083
G01 X35.3106 Y32.3097
G01 X35.2900 Y32.3104
G01 X34.5115 Y32.3104
G01 X33.6543 Y33.1677
G01 X33.6543 Y33.3799
G01 X33.6924 Y33.4145
G01 X33.7072 Y33.4289
G01 X33.7613 Y33.4885
G01 X33.7703 Y33.4989
G01 X33.7787 Y33.5097
G01 X33.8226 Y33.5688
G01 X33.8305 Y33.5801
G01 X33.8378 Y33.5917
G01 X33.8791 Y33.6607
G01 X33.8886 Y33.6790
G01 X33.9201 Y33.7456
G01 X33.9257 Y33.7581
G01 X33.9306 Y33.7710
G01 X33.9554 Y33.8403
G01 X33.9616 Y33.8599
G01 X33.9813 Y33.9380
G01 X33.9843 Y33.9514
G01 X33.9866 Y33.9649
G01 X33.9974 Y34.0377
G01 X33.9991 Y34.0514
G01 X34.0001 Y34.0651
G01 X34.0037 Y34.1386
G01 X34.0041 Y34.1523
G01 X34.0037 Y34.1661
G01 X34.0001 Y34.2396
G01 X33.9991 Y34.2533
G01 X33.9974 Y34.2669
G01 X33.9866 Y34.3397
G01 X33.9843 Y34.3533
G01 X33.9813 Y34.3667
G01 X33.9616 Y34.4447
G01 X33.9554 Y34.4644
G01 X33.9306 Y34.5337
G01 X33.9257 Y34.5465
G01 X33.9201 Y34.5591
G01 X33.8886 Y34.6256
G01 X33.8825 Y34.6379
G01 X33.8757 Y34.6499
G01 X33.8378 Y34.7130
G01 X33.8305 Y34.7246
G01 X33.8226 Y34.7358
G01 X33.7787 Y34.7950
G01 X33.7703 Y34.8058
G01 X33.7613 Y34.8162
G01 X33.7119 Y34.8707
G01 X33.7024 Y34.8807
G01 X33.6924 Y34.8902
G01 X33.6379 Y34.9396
G01 X33.6275 Y34.9486
G01 X33.6167 Y34.9570
G01 X33.5575 Y35.0009
G01 X33.5463 Y35.0088
G01 X33.5347 Y35.0161
G01 X33.4716 Y35.0540
G01 X33.4596 Y35.0608
G01 X33.4473 Y35.0669
G01 X33.3808 Y35.0984
G01 X33.3682 Y35.1040
G01 X33.3554 Y35.1089
G01 X33.2861 Y35.1337
G01 X33.2730 Y35.1380
G01 X33.2598 Y35.1417
G01 X33.1884 Y35.1596
G01 X33.1750 Y35.1626
G01 X33.1614 Y35.1649
G01 X33.0886 Y35.1757
G01 X33.0750 Y35.1774
G01 X33.0613 Y35.1784
G01 X32.9809 Y35.1823
G01 X32.9603 Y35.1821
G01 X32.8868 Y35.1784
G01 X32.8731 Y35.1774
G01 X32.8594 Y35.1757
G01 X32.7866 Y35.1649
G01 X32.7731 Y35.1626
G01 X32.7597 Y35.1596
G01 X32.6883 Y35.1417
G01 X32.6750 Y35.1380
G01 X32.6620 Y35.1337
G01 X32.5927 Y35.1089
G01 X32.5798 Y35.1040
G01 X32.5673 Y35.0984
G01 X32.4946 Y35.0639
G01 X32.4765 Y35.0540
G01 X32.4134 Y35.0161
G01 X32.3961 Y35.0049
G01 X32.3314 Y34.9570
G01 X32.3206 Y34.9486
G01 X32.3102 Y34.9396
G01 X32.2556 Y34.8902
G01 X32.2457 Y34.8807
G01 X32.2362 Y34.8707
G01 X32.1868 Y34.8162
G01 X32.1778 Y34.8058
G01 X32.1693 Y34.7950
G01 X32.1255 Y34.7358
G01 X32.1176 Y34.7246
G01 X32.1102 Y34.7130
G01 X32.0724 Y34.6499
G01 X32.0656 Y34.6379
G01 X32.0594 Y34.6256
G01 X32.0279 Y34.5591
G01 X32.0224 Y34.5465
G01 X32.0174 Y34.5337
G01 X31.9926 Y34.4644
G01 X31.9883 Y34.4513
G01 X31.9847 Y34.4381
G01 X31.9668 Y34.3667
G01 X31.9638 Y34.3533
G01 X31.9614 Y34.3397
G01 X31.9506 Y34.2669
G01 X31.9489 Y34.2533
G01 X31.9479 Y34.2396
G01 X31.9443 Y34.1661
G01 X31.9440 Y34.1523
G01 X31.9443 Y34.1386
G01 X31.9479 Y34.0651
G01 X31.9489 Y34.0514
G01 X31.9506 Y34.0377
G01 X31.9614 Y33.9649
G01 X31.9638 Y33.9514
G01 X31.9668 Y33.9380
G01 X31.9847 Y33.8666
G01 X31.9883 Y33.8533
G01 X31.9926 Y33.8403
G01 X32.0198 Y33.7645
G01 X32.0279 Y33.7456
G01 X32.0594 Y33.6790
G01 X32.0656 Y33.6668
G01 X32.0724 Y33.6548
G01 X32.1102 Y33.5917
G01 X32.1215 Y33.5744
G01 X32.1693 Y33.5097
G01 X32.1778 Y33.4989
G01 X32.1868 Y33.4885
G01 X32.2362 Y33.4339
G01 X32.2457 Y33.4240
G01 X32.2556 Y33.4145
G01 X32.2938 Y33.3799
G01 X32.2938 Y32.8859
G01 X32.2941 Y32.8721
G01 X32.2965 Y32.8261
G01 X32.2987 Y32.8056
G01 X32.3056 Y32.7599
G01 X32.3083 Y32.7465
G01 X32.3194 Y32.7017
G01 X32.3231 Y32.6884
G01 X32.3406 Y32.6384
G01 X32.3456 Y32.6256
G01 X32.3511 Y32.6130
G01 X32.3709 Y32.5713
G01 X32.3809 Y32.5533
G01 X32.4084 Y32.5080
G01 X32.4163 Y32.4967
G01 X32.4482 Y32.4543
G01 X32.4835 Y32.4148
G01 X32.4930 Y32.4049
G01 X32.7142 Y32.1837
G01 X26.0901 Y32.1837
G01 X26.0764 Y32.1834
G01 X26.0141 Y32.1803
G01 X26.0004 Y32.1793
G01 X25.9868 Y32.1776
G01 X25.9251 Y32.1685
G01 X25.9115 Y32.1661
G01 X25.8981 Y32.1631
G01 X25.8377 Y32.1480
G01 X25.8244 Y32.1443
G01 X25.8114 Y32.1400
G01 X25.7527 Y32.1190
G01 X25.7398 Y32.1141
G01 X25.7273 Y32.1085
G01 X25.6709 Y32.0818
G01 X25.6586 Y32.0757
G01 X25.6467 Y32.0689
G01 X25.5932 Y32.0368
G01 X25.5816 Y32.0295
G01 X25.5704 Y32.0216
G01 X25.5203 Y31.9844
G01 X25.5094 Y31.9760
G01 X25.4990 Y31.9670
G01 X25.4528 Y31.9251
G01 X25.4429 Y31.9156
G01 X25.0268 Y31.4996
G01 X25.0174 Y31.4896
G01 X24.9755 Y31.4434
G01 X24.9665 Y31.4330
G01 X24.9581 Y31.4222
G01 X24.9169 Y31.3666
G01 X24.9057 Y31.3493
G01 X24.8736 Y31.2958
G01 X24.8668 Y31.2838
G01 X24.8607 Y31.2716
G01 X24.8340 Y31.2152
G01 X24.8284 Y31.2026
G01 X24.8235 Y31.1898
G01 X24.8025 Y31.1311
G01 X24.7982 Y31.1181
G01 X24.7945 Y31.1048
G01 X24.7793 Y31.0443
G01 X24.7763 Y31.0309
G01 X24.7740 Y31.0174
G01 X24.7648 Y30.9557
G01 X24.7632 Y30.9421
G01 X24.7621 Y30.9284
G01 X24.7588 Y30.8592
G01 X24.7588 Y26.2750
G01 X24.7591 Y26.2613
G01 X24.7621 Y26.1990
G01 X24.7632 Y26.1853
G01 X24.7648 Y26.1717
G01 X24.7751 Y26.1032
G01 X24.7793 Y26.0831
G01 X24.7945 Y26.0226
G01 X24.7981 Y26.0094
G01 X24.8025 Y25.9963
G01 X24.8235 Y25.9376
G01 X24.8284 Y25.9248
G01 X24.8340 Y25.9123
G01 X24.8606 Y25.8559
G01 X24.8668 Y25.8436
G01 X24.8736 Y25.8317
G01 X24.9056 Y25.7782
G01 X24.9130 Y25.7666
G01 X24.9209 Y25.7554
G01 X24.9580 Y25.7053
G01 X24.9709 Y25.6892
G01 X25.0173 Y25.6378
G01 X25.0267 Y25.6279
G01 X25.9267 Y24.7277
G01 X25.9366 Y24.7182
G01 X25.9828 Y24.6764
G01 X25.9932 Y24.6674
G01 X26.0041 Y24.6589
G01 X26.0597 Y24.6177
G01 X26.0770 Y24.6065
G01 X26.1305 Y24.5744
G01 X26.1424 Y24.5677
G01 X26.1547 Y24.5615
G01 X26.2111 Y24.5348
G01 X26.2237 Y24.5292
G01 X26.2365 Y24.5243
G01 X26.2952 Y24.5033
G01 X26.3082 Y24.4990
G01 X26.3215 Y24.4953
G01 X26.3820 Y24.4801
G01 X26.4021 Y24.4759
G01 X26.4706 Y24.4656
G01 X26.4843 Y24.4639
G01 X26.4980 Y24.4629
G01 X26.5602 Y24.4599
G01 X26.5740 Y24.4595
G01 X27.1741 Y24.4595
G01 X27.1741 Y24.3749
G01 X27.1744 Y24.3611
G01 X27.1762 Y24.3406
G01 X27.1795 Y24.3202
G01 X27.1825 Y24.3068
G01 X27.1862 Y24.2936
G01 X27.1905 Y24.2805
G01 X27.1954 Y24.2677
G01 X27.2010 Y24.2551
G01 X27.2072 Y24.2429
G01 X27.2139 Y24.2309
G01 X27.2213 Y24.2193
G01 X27.2292 Y24.2081
G01 X27.2377 Y24.1972
G01 X27.2466 Y24.1868
G01 X27.2561 Y24.1769
G01 X27.2661 Y24.1674
G01 X27.2818 Y24.1541
G01 X27.2929 Y24.1459
G01 X27.3043 Y24.1383
G01 X27.3161 Y24.1312
G01 X27.3282 Y24.1248
G01 X27.3469 Y24.1162
G01 X27.3598 Y24.1112
G01 X27.3728 Y24.1069
G01 X27.3861 Y24.1032
G01 X27.3995 Y24.1002
G01 X27.4130 Y24.0979
G01 X27.4335 Y24.0956
G01 X27.4541 Y24.0949
G01 X29.4541 Y24.0949
G01 X29.4678 Y24.0952
G01 X29.4815 Y24.0962
G01 X29.5020 Y24.0990
G01 X29.5154 Y24.1017
G01 X29.5288 Y24.1050
G01 X29.5419 Y24.1090
G01 X29.5549 Y24.1136
G01 X29.5676 Y24.1189
G01 X29.5800 Y24.1248
G01 X29.5980 Y24.1347
G01 X29.6153 Y24.1459
G01 X29.6317 Y24.1584
G01 X29.6472 Y24.1721
G01 X29.6569 Y24.1818
G01 X29.6705 Y24.1972
G01 X29.6830 Y24.2136
G01 X29.6907 Y24.2251
G01 X29.7010 Y24.2429
G01 X29.7101 Y24.2614
G01 X29.7177 Y24.2805
G01 X29.7220 Y24.2936
G01 X29.7273 Y24.3135
G01 X29.7311 Y24.3338
G01 X29.7333 Y24.3543
G01 X29.7341 Y24.3749
G01 X29.7341 Y26.3748
G01 X29.7338 Y26.3886
G01 X29.7327 Y26.4023
G01 X29.7300 Y26.4227
G01 X29.7273 Y26.4362
G01 X29.7220 Y26.4561
G01 X29.7153 Y26.4756
G01 X29.7072 Y26.4946
G01 X29.7010 Y26.5068
G01 X29.6943 Y26.5188
G01 X29.6830 Y26.5361
G01 X29.6705 Y26.5525
G01 X29.6569 Y26.5679
G01 X29.6421 Y26.5823
G01 X29.6264 Y26.5956
G01 X29.6097 Y26.6077
G01 X29.5980 Y26.6150
G01 X29.5800 Y26.6250
G01 X29.5612 Y26.6335
G01 X29.5484 Y26.6385
G01 X29.5288 Y26.6447
G01 X29.5087 Y26.6495
G01 X29.4952 Y26.6518
G01 X29.4815 Y26.6535
G01 X29.4610 Y26.6548
G01 X28.9722 Y26.6548
G01 X28.9818 Y26.6589
G01 X28.9943 Y26.6648
G01 X29.0064 Y26.6712
G01 X29.0182 Y26.6783
G01 X29.0352 Y26.6900
G01 X29.0460 Y26.6984
G01 X29.0564 Y26.7074
G01 X29.0664 Y26.7169
G01 X29.3490 Y26.9995
G01 X30.5740 Y26.9995
G01 X30.5877 Y26.9999
G01 X30.6500 Y27.0029
G01 X30.6637 Y27.0039
G01 X30.6773 Y27.0056
G01 X30.7390 Y27.0148
G01 X30.7593 Y27.0185
G01 X30.8264 Y27.0353
G01 X30.8397 Y27.0390
G01 X30.8527 Y27.0433
G01 X30.9114 Y27.0643
G01 X30.9243 Y27.0692
G01 X30.9368 Y27.0748
G01 X30.9932 Y27.1014
G01 X31.0055 Y27.1076
G01 X31.0174 Y27.1144
G01 X31.0709 Y27.1464
G01 X31.0825 Y27.1538
G01 X31.0937 Y27.1617
G01 X31.1438 Y27.1989
G01 X31.1546 Y27.2073
G01 X31.1651 Y27.2163
G01 X31.2113 Y27.2582
G01 X31.2212 Y27.2676
G01 X32.0207 Y28.0671
G01 X33.6587 Y28.0671
G01 X33.6681 Y28.0536
G01 X33.6762 Y28.0433
G01 X33.6763 Y27.9824
G01 X33.6796 Y27.9133
G01 X33.6813 Y27.8927
G01 X33.6914 Y27.8242
G01 X33.6938 Y27.8107
G01 X33.6968 Y27.7973
G01 X33.7119 Y27.7368
G01 X33.7177 Y27.7170
G01 X33.7409 Y27.6518
G01 X33.7459 Y27.6390
G01 X33.7514 Y27.6264
G01 X33.7781 Y27.5701
G01 X33.7843 Y27.5578
G01 X33.7910 Y27.5458
G01 X33.8231 Y27.4924
G01 X33.8304 Y27.4808
G01 X33.8384 Y27.4695
G01 X33.8755 Y27.4194
G01 X33.8839 Y27.4086
G01 X33.8929 Y27.3982
G01 X33.9348 Y27.3520
G01 X33.9443 Y27.3421
G01 X34.9812 Y26.3052
G01 X35.0324 Y26.2587
G01 X35.0428 Y26.2497
G01 X35.0537 Y26.2413
G01 X35.1037 Y26.2041
G01 X35.1150 Y26.1962
G01 X35.1266 Y26.1889
G01 X35.1801 Y26.1568
G01 X35.1981 Y26.1469
G01 X35.2607 Y26.1172
G01 X35.2732 Y26.1116
G01 X35.2860 Y26.1067
G01 X35.3447 Y26.0857
G01 X35.3578 Y26.0814
G01 X35.3710 Y26.0777
G01 X35.4315 Y26.0626
G01 X35.4449 Y26.0595
G01 X35.4585 Y26.0572
G01 X35.5201 Y26.0480
G01 X35.5338 Y26.0464
G01 X35.5475 Y26.0454
G01 X35.6098 Y26.0423
G01 X35.6235 Y26.0420
G01 X37.1494 Y26.0420
G01 X37.5163 Y25.6750
G01 X37.5262 Y25.6656
G01 X37.5776 Y25.6192
G01 X37.5937 Y25.6063
G01 X37.6437 Y25.5691
G01 X37.6550 Y25.5612
G01 X37.6666 Y25.5539
G01 X37.7201 Y25.5218
G01 X37.7320 Y25.5150
G01 X37.7443 Y25.5089
G01 X37.8069 Y25.4793
G01 X37.8260 Y25.4717
G01 X37.8847 Y25.4507
G01 X37.8978 Y25.4464
G01 X37.9110 Y25.4427
G01 X37.9782 Y25.4260
G01 X37.9985 Y25.4222
G01 X38.0601 Y25.4130
G01 X38.0738 Y25.4114
G01 X38.0875 Y25.4104
G01 X38.1498 Y25.4073
G01 X38.1635 Y25.4070
G01 X38.8885 Y25.4070
G01 X38.8885 Y24.9222
G01 X38.8888 Y24.9085
G01 X38.8898 Y24.8948
G01 X38.8915 Y24.8811
G01 X38.8938 Y24.8676
G01 X38.8986 Y24.8475
G01 X38.9026 Y24.8344
G01 X38.9072 Y24.8215
G01 X38.9125 Y24.8088
G01 X38.9184 Y24.7963
G01 X38.9248 Y24.7842
G01 X38.9356 Y24.7667
G01 X38.9436 Y24.7554
G01 X38.9520 Y24.7446
G01 X38.9610 Y24.7342
G01 X38.9705 Y24.7242
G01 X38.9856 Y24.7102
G01 X38.9962 Y24.7015
G01 X39.0072 Y24.6933
G01 X39.0187 Y24.6857
G01 X39.0337 Y24.6768
G01 X38.3420 Y23.9848
G01 X38.2954 Y23.9336
G01 X38.2865 Y23.9232
G01 X38.2780 Y23.9124
G01 X38.2409 Y23.8623
G01 X38.2330 Y23.8511
G01 X38.2256 Y23.8394
G01 X38.1936 Y23.7860
G01 X38.1836 Y23.7679
G01 X38.1540 Y23.7054
G01 X38.1484 Y23.6928
G01 X38.1435 Y23.6800
G01 X38.1225 Y23.6213
G01 X38.1182 Y23.6083
G01 X38.1145 Y23.5950
G01 X38.0994 Y23.5345
G01 X38.0951 Y23.5144
G01 X38.0849 Y23.4459
G01 X38.0832 Y23.4323
G01 X38.0822 Y23.4186
G01 X38.0791 Y23.3563
G01 X38.0788 Y23.3426
G01 X38.0788 Y23.1243
G01 X38.0480 Y23.0592
G01 X38.0424 Y23.0467
G01 X38.0375 Y23.0338
G01 X38.0127 Y22.9645
G01 X38.0084 Y22.9515
G01 X38.0047 Y22.9382
G01 X37.9868 Y22.8668
G01 X37.9838 Y22.8534
G01 X37.9815 Y22.8399
G01 X37.9707 Y22.7671
G01 X37.9690 Y22.7534
G01 X37.9680 Y22.7397
G01 X37.9644 Y22.6662
G01 X37.9640 Y22.6525
G01 X37.9644 Y22.6387
G01 X37.9680 Y22.5652
G01 X37.9690 Y22.5515
G01 X37.9707 Y22.5379
G01 X37.9815 Y22.4651
G01 X37.9838 Y22.4515
G01 X37.9868 Y22.4381
G01 X38.0047 Y22.3667
G01 X38.0084 Y22.3535
G01 X38.0127 Y22.3404
G01 X38.0375 Y22.2711
G01 X38.0424 Y22.2583
G01 X38.0480 Y22.2457
G01 X38.0795 Y22.1792
G01 X38.0856 Y22.1669
G01 X38.0924 Y22.1550
G01 X38.1303 Y22.0918
G01 X38.1376 Y22.0802
G01 X38.1455 Y22.0690
G01 X38.1894 Y22.0099
G01 X38.1978 Y21.9990
G01 X38.2068 Y21.9886
G01 X38.2562 Y21.9341
G01 X38.2657 Y21.9241
G01 X38.2757 Y21.9146
G01 X38.3302 Y21.8652
G01 X38.3406 Y21.8562
G01 X38.3515 Y21.8478
G01 X38.4106 Y21.8039
G01 X38.4218 Y21.7960
G01 X38.4334 Y21.7887
G01 X38.4966 Y21.7508
G01 X38.5085 Y21.7441
G01 X38.5208 Y21.7379
G01 X38.5873 Y21.7064
G01 X38.5999 Y21.7008
G01 X38.6127 Y21.6959
G01 X38.6820 Y21.6711
G01 X38.6951 Y21.6668
G01 X38.7083 Y21.6631
G01 X38.7797 Y21.6452
G01 X38.7931 Y21.6422
G01 X38.8067 Y21.6399
G01 X38.8795 Y21.6291
G01 X38.8931 Y21.6274
G01 X38.9068 Y21.6264
G01 X38.9803 Y21.6228
G01 X38.9941 Y21.6224
G01 X39.0078 Y21.6228
G01 X39.0882 Y21.6268
G01 X39.1087 Y21.6291
G01 X39.1815 Y21.6399
G01 X39.1950 Y21.6422
G01 X39.2084 Y21.6452
G01 X39.2798 Y21.6631
G01 X39.2931 Y21.6668
G01 X39.3061 Y21.6711
G01 X39.3754 Y21.6959
G01 X39.3883 Y21.7008
G01 X39.4008 Y21.7064
G01 X39.4674 Y21.7379
G01 X39.4796 Y21.7441
G01 X39.4916 Y21.7508
G01 X39.5547 Y21.7887
G01 X39.5664 Y21.7960
G01 X39.5776 Y21.8039
G01 X39.6367 Y21.8478
G01 X39.6528 Y21.8607
G01 X39.7125 Y21.9146
G01 X39.7224 Y21.9241
G01 X39.7319 Y21.9341
G01 X39.7814 Y21.9886
G01 X39.7903 Y21.9990
G01 X39.7988 Y22.0099
G01 X39.8426 Y22.0690
G01 X39.8505 Y22.0802
G01 X39.8579 Y22.0918
G01 X39.8957 Y22.1550
G01 X39.9025 Y22.1669
G01 X39.9087 Y22.1792
G01 X39.9402 Y22.2457
G01 X39.9457 Y22.2583
G01 X39.9507 Y22.2711
G01 X39.9755 Y22.3404
G01 X39.9798 Y22.3535
G01 X39.9835 Y22.3667
G01 X40.0013 Y22.4381
G01 X40.0043 Y22.4515
G01 X40.0067 Y22.4651
G01 X40.0184 Y22.5447
G01 X40.0202 Y22.5652
G01 X40.0238 Y22.6387
G01 X40.0241 Y22.6525
G01 X40.0238 Y22.6662
G01 X40.0202 Y22.7397
G01 X40.0184 Y22.7603
G01 X40.0067 Y22.8399
G01 X40.0043 Y22.8534
G01 X40.0013 Y22.8668
G01 X39.9835 Y22.9382
G01 X39.9798 Y22.9515
G01 X39.9755 Y22.9645
G01 X39.9583 Y23.0125
G01 X40.7206 Y23.7750
G01 X40.7671 Y23.8263
G01 X40.7761 Y23.8367
G01 X40.7846 Y23.8475
G01 X40.8257 Y23.9032
G01 X40.8370 Y23.9204
G01 X40.8690 Y23.9739
G01 X40.8758 Y23.9859
G01 X40.8819 Y23.9981
G01 X40.9086 Y24.0545
G01 X40.9142 Y24.0670
G01 X40.9191 Y24.0799
G01 X40.9401 Y24.1386
G01 X40.9444 Y24.1516
G01 X40.9481 Y24.1649
G01 X40.9648 Y24.2320
G01 X40.9686 Y24.2523
G01 X40.9777 Y24.3139
G01 X40.9794 Y24.3276
G01 X40.9804 Y24.3413
G01 X40.9835 Y24.4035
G01 X40.9838 Y24.4173
G01 X40.9838 Y24.6427
G01 X40.9960 Y24.6436
G01 X41.0096 Y24.6453
G01 X41.0299 Y24.6490
G01 X41.0498 Y24.6543
G01 X41.0693 Y24.6610
G01 X41.0883 Y24.6691
G01 X41.1066 Y24.6786
G01 X41.1241 Y24.6894
G01 X41.1408 Y24.7015
G01 X41.1566 Y24.7148
G01 X41.1713 Y24.7292
G01 X41.1850 Y24.7446
G01 X41.1975 Y24.7610
G01 X41.2087 Y24.7783
G01 X41.2186 Y24.7963
G01 X41.2272 Y24.8151
G01 X41.2344 Y24.8344
G01 X41.2402 Y24.8542
G01 X41.2444 Y24.8744
G01 X41.2472 Y24.8948
G01 X41.2482 Y24.9085
G01 X41.2485 Y24.9222
G01 X41.2485 Y27.7223
G01 X41.2482 Y27.7361
G01 X41.2472 Y27.7498
G01 X41.2444 Y27.7702
G01 X41.2417 Y27.7837
G01 X41.2365 Y27.8036
G01 X41.2322 Y27.8166
G01 X41.2245 Y27.8358
G01 X41.2186 Y27.8482
G01 X41.2087 Y27.8663
G01 X41.1975 Y27.8835
G01 X41.1893 Y27.8946
G01 X41.1760 Y27.9104
G01 X41.1665 Y27.9203
G01 X41.1566 Y27.9298
G01 X41.1408 Y27.9431
G01 X41.1298 Y27.9512
G01 X41.1125 Y27.9625
G01 X41.0944 Y27.9724
G01 X41.0820 Y27.9783
G01 X41.0629 Y27.9860
G01 X41.0432 Y27.9922
G01 X41.0232 Y27.9969
G01 X41.0096 Y27.9993
G01 X40.9960 Y28.0010
G01 X40.9754 Y28.0022
G01 X39.1685 Y28.0023
G01 X39.1547 Y28.0020
G01 X39.1410 Y28.0010
G01 X39.1206 Y27.9982
G01 X39.1004 Y27.9939
G01 X39.0806 Y27.9882
G01 X39.0677 Y27.9836
G01 X39.0487 Y27.9754
G01 X39.0365 Y27.9693
G01 X39.0187 Y27.9589
G01 X39.0072 Y27.9512
G01 X38.9908 Y27.9388
G01 X38.9754 Y27.9251
G01 X38.9657 Y27.9154
G01 X38.9520 Y27.8999
G01 X38.9395 Y27.8835
G01 X38.9319 Y27.8721
G01 X38.9215 Y27.8543
G01 X38.9125 Y27.8358
G01 X38.9072 Y27.8231
G01 X38.9026 Y27.8102
G01 X38.8968 Y27.7904
G01 X38.8938 Y27.7769
G01 X38.8915 Y27.7634
G01 X38.8898 Y27.7498
G01 X38.8885 Y27.7292
G01 X38.8885 Y27.2376
G01 X38.5426 Y27.2376
G01 X38.1757 Y27.6045
G01 X38.1658 Y27.6140
G01 X38.1196 Y27.6558
G01 X38.1092 Y27.6648
G01 X38.0983 Y27.6733
G01 X38.0483 Y27.7104
G01 X38.0370 Y27.7183
G01 X38.0254 Y27.7257
G01 X37.9719 Y27.7577
G01 X37.9539 Y27.7677
G01 X37.8913 Y27.7973
G01 X37.8788 Y27.8029
G01 X37.8660 Y27.8079
G01 X37.8073 Y27.8289
G01 X37.7942 Y27.8332
G01 X37.7810 Y27.8368
G01 X37.7138 Y27.8536
G01 X37.6935 Y27.8574
G01 X37.6319 Y27.8665
G01 X37.6182 Y27.8682
G01 X37.6045 Y27.8692
G01 X37.5422 Y27.8723
G01 X37.5285 Y27.8726
G01 X36.0026 Y27.8726
G01 X35.5700 Y28.3052
G01 X35.5700 Y29.7444
G01 X35.5692 Y29.7650
G01 X35.5670 Y29.7855
G01 X35.5632 Y29.8058
G01 X35.5599 Y29.8191
G01 X35.5559 Y29.8322
G01 X35.5512 Y29.8452
G01 X35.5460 Y29.8579
G01 X35.5369 Y29.8764
G01 X35.5266 Y29.8942
G01 X35.5189 Y29.9056
G01 X35.5107 Y29.9167
G01 X35.4975 Y29.9324
G01 X35.4880 Y29.9424
G01 X35.4780 Y29.9519
G01 X35.4623 Y29.9652
G01 X35.4512 Y29.9733
G01 X35.4398 Y29.9810
G01 X35.4280 Y29.9880
G01 X35.4159 Y29.9945
G01 X35.3971 Y30.0031
G01 X35.3843 Y30.0080
G01 X35.3713 Y30.0124
G01 X35.3513 Y30.0176
G01 X35.3311 Y30.0214
G01 X35.3174 Y30.0231
G01 X35.3037 Y30.0241
G01 X35.2900 Y30.0244
G01 X33.8930 Y30.0244
G01 X33.8724 Y30.0237
G01 X33.8587 Y30.0223
G01 X33.8451 Y30.0203
G01 X33.8317 Y30.0176
G01 X33.8117 Y30.0124
G01 X33.7987 Y30.0080
G01 X33.7795 Y30.0004
G01 X33.7610 Y29.9914
G01 X33.7491 Y29.9846
G01 X33.7374 Y29.9772
G01 X33.7262 Y29.9693
G01 X33.7101 Y29.9564
G01 X33.6999 Y29.9472
G01 X33.6855 Y29.9324
G01 X33.6766 Y29.9220
G01 X33.6681 Y29.9112
G01 X33.6587 Y29.8977
G01 X31.6415 Y29.8977
G01 X31.6278 Y29.8974
G01 X31.5655 Y29.8943
G01 X31.5518 Y29.8933
G01 X31.5382 Y29.8916
G01 X31.4697 Y29.8814
G01 X31.4496 Y29.8771
G01 X31.3891 Y29.8620
G01 X31.3758 Y29.8583
G01 X31.3628 Y29.8540
G01 X31.3041 Y29.8330
G01 X31.2913 Y29.8281
G01 X31.2787 Y29.8225
G01 X31.2223 Y29.7958
G01 X31.2101 Y29.7897
G01 X31.1981 Y29.7829
G01 X31.1446 Y29.7508
G01 X31.1330 Y29.7435
G01 X31.1218 Y29.7356
G01 X31.0717 Y29.6984
G01 X31.0609 Y29.6900
G01 X31.0505 Y29.6810
G01 X31.0043 Y29.6391
G01 X30.9943 Y29.6296
G01 X30.1948 Y28.8302
G01 X29.3490 Y28.8302
G01 X29.0664 Y29.1128
G01 X29.0564 Y29.1223
G01 X29.0460 Y29.1313
G01 X29.0352 Y29.1397
G01 X29.0182 Y29.1514
G01 X29.0064 Y29.1585
G01 X28.9881 Y29.1680
G01 X28.9691 Y29.1761
G01 X28.9496 Y29.1828
G01 X28.9297 Y29.1880
G01 X28.9162 Y29.1907
G01 X28.9026 Y29.1927
G01 X28.8890 Y29.1941
G01 X28.8684 Y29.1948
G01 X28.0398 Y29.1948
G01 X28.0261 Y29.1945
G01 X28.0124 Y29.1935
G01 X27.9920 Y29.1907
G01 X27.9718 Y29.1865
G01 X27.9520 Y29.1807
G01 X27.9391 Y29.1761
G01 X27.9264 Y29.1708
G01 X27.9078 Y29.1618
G01 X27.8900 Y29.1514
G01 X27.8730 Y29.1397
G01 X27.8569 Y29.1269
G01 X27.8418 Y29.1128
G01 X27.2561 Y28.5271
G00 Z2.0000
G00 X27.1288 Y28.6544
G01 F200.00
G01 Z0.0000
G01 F600.00
G01 X27.7146 Y29.2401
G01 X27.7226 Y29.2480
G01 X27.7394 Y29.2632
G01 X27.7480 Y29.2704
G01 X27.7658 Y29.2843
G01 X27.7843 Y29.2973
G01 X27.7937 Y29.3035
G01 X27.8131 Y29.3151
G01 X27.8330 Y29.3257
G01 X27.8534 Y29.3354
G01 X27.8743 Y29.3440
G01 X27.8849 Y29.3480
G01 X27.9063 Y29.3550
G01 X27.9281 Y29.3611
G01 X27.9390 Y29.3637
G01 X27.9612 Y29.3681
G01 X27.9835 Y29.3714
G01 X28.0060 Y29.3736
G01 X28.0285 Y29.3747
G01 X28.0398 Y29.3748
G01 X28.8684 Y29.3748
G01 X28.8909 Y29.3743
G01 X28.9135 Y29.3726
G01 X28.9247 Y29.3714
G01 X28.9470 Y29.3681
G01 X28.9692 Y29.3637
G01 X28.9801 Y29.3611
G01 X29.0019 Y29.3550
G01 X29.0127 Y29.3516
G01 X29.0339 Y29.3440
G01 X29.0548 Y29.3354
G01 X29.0650 Y29.3307
G01 X29.0852 Y29.3205
G01 X29.1049 Y29.3094
G01 X29.1239 Y29.2973
G01 X29.1424 Y29.2843
G01 X29.1602 Y29.2704
G01 X29.1773 Y29.2557
G01 X29.1856 Y29.2480
G01 X29.4236 Y29.0102
G01 X30.1203 Y29.0102
G01 X30.8670 Y29.7569
G01 X30.8834 Y29.7725
G01 X30.9380 Y29.8218
G01 X30.9555 Y29.8362
G01 X30.9645 Y29.8430
G01 X31.0146 Y29.8801
G01 X31.0330 Y29.8931
G01 X31.0521 Y29.9052
G01 X31.1056 Y29.9373
G01 X31.1252 Y29.9484
G01 X31.1454 Y29.9585
G01 X31.2017 Y29.9852
G01 X31.2224 Y29.9944
G01 X31.2434 Y30.0025
G01 X31.3128 Y30.0272
G01 X31.3344 Y30.0337
G01 X31.4058 Y30.0517
G01 X31.4279 Y30.0567
G01 X31.4501 Y30.0605
G01 X31.5118 Y30.0697
G01 X31.5342 Y30.0725
G01 X31.5567 Y30.0741
G01 X31.6303 Y30.0776
G01 X33.5760 Y30.0777
G01 X33.5925 Y30.0927
G01 X33.6012 Y30.1000
G01 X33.6190 Y30.1139
G01 X33.6353 Y30.1254
G01 X33.6190 Y30.1369
G01 X33.6012 Y30.1508
G01 X33.5925 Y30.1581
G01 X33.5760 Y30.1731
G01 X26.7694 Y30.1731
G01 X26.7694 Y26.7286
G01 X27.0086 Y26.4893
G01 X27.0139 Y26.5084
G01 X27.0210 Y26.5298
G01 X27.0291 Y26.5509
G01 X27.0336 Y26.5613
G01 X27.0383 Y26.5715
G01 X27.0484 Y26.5917
G01 X27.0595 Y26.6113
G01 X27.0716 Y26.6304
G01 X27.0846 Y26.6489
G01 X27.0985 Y26.6667
G01 X27.1133 Y26.6838
G01 X27.1209 Y26.6920
G01 X27.1369 Y26.7080
G01 X27.1536 Y26.7232
G01 X27.1623 Y26.7304
G01 X27.1801 Y26.7443
G01 X27.1985 Y26.7573
G01 X27.2080 Y26.7635
G01 X27.2274 Y26.7751
G01 X27.2473 Y26.7857
G01 X27.2677 Y26.7954
G01 X27.2781 Y26.7998
G01 X27.2991 Y26.8080
G01 X27.3206 Y26.8150
G01 X27.3423 Y26.8211
G01 X27.3644 Y26.8260
G01 X27.3866 Y26.8299
G01 X27.3978 Y26.8314
G01 X27.4090 Y26.8326
G01 X27.4315 Y26.8343
G01 X27.4693 Y26.8348
G01 X27.1288 Y27.1753
G01 X27.1133 Y27.1917
G01 X27.0985 Y27.2088
G01 X27.0846 Y27.2266
G01 X27.0716 Y27.2450
G01 X27.0655 Y27.2545
G01 X27.0595 Y27.2641
G01 X27.0484 Y27.2837
G01 X27.0383 Y27.3039
G01 X27.0336 Y27.3142
G01 X27.0249 Y27.3350
G01 X27.0173 Y27.3563
G01 X27.0139 Y27.3671
G01 X27.0079 Y27.3888
G01 X27.0029 Y27.4108
G01 X26.9991 Y27.4331
G01 X26.9963 Y27.4555
G01 X26.9947 Y27.4780
G01 X26.9941 Y27.5006
G01 X26.9941 Y28.3291
G01 X26.9947 Y28.3517
G01 X26.9963 Y28.3742
G01 X26.9976 Y28.3854
G01 X27.0009 Y28.4078
G01 X27.0053 Y28.4299
G01 X27.0108 Y28.4518
G01 X27.0139 Y28.4627
G01 X27.0210 Y28.4841
G01 X27.0291 Y28.5052
G01 X27.0383 Y28.5258
G01 X27.0484 Y28.5460
G01 X27.0595 Y28.5656
G01 X27.0655 Y28.5752
G01 X27.0780 Y28.5940
G01 X27.0915 Y28.6121
G01 X27.1058 Y28.6296
G01 X27.1209 Y28.6463
G01 X27.1288 Y28.6544
G00 Z2.0000
G00 X27.0016 Y28.7817
G01 F200.00
G01 Z0.0000
G01 F600.00
G01 X27.5873 Y29.3674
G01 X27.6100 Y29.3891
G01 X27.6338 Y29.4096
G01 X27.6461 Y29.4194
G01 X27.6713 Y29.4381
G01 X27.6843 Y29.4470
G01 X27.7108 Y29.4638
G01 X27.7381 Y29.4793
G01 X27.7521 Y29.4865
G01 X27.7662 Y29.4934
G01 X27.7949 Y29.5061
G01 X27.8095 Y29.5120
G01 X27.8391 Y29.5225
G01 X27.8691 Y29.5317
G01 X27.8996 Y29.5393
G01 X27.9150 Y29.5426
G01 X27.9459 Y29.5479
G01 X27.9615 Y29.5500
G01 X27.9771 Y29.5518
G01 X28.0084 Y29.5541
G01 X28.0398 Y29.5548
G01 X28.8684 Y29.5548
G01 X28.8841 Y29.5547
G01 X28.9155 Y29.5531
G01 X28.9467 Y29.5500
G01 X28.9778 Y29.5454
G01 X29.0086 Y29.5393
G01 X29.0391 Y29.5317
G01 X29.0542 Y29.5273
G01 X29.0840 Y29.5174
G01 X29.1133 Y29.5061
G01 X29.1420 Y29.4934
G01 X29.1701 Y29.4793
G01 X29.1974 Y29.4638
G01 X29.2239 Y29.4470
G01 X29.2496 Y29.4289
G01 X29.2744 Y29.4096
G01 X29.2982 Y29.3891
G01 X29.3097 Y29.3784
G01 X29.4981 Y29.1902
G01 X30.0457 Y29.1902
G01 X30.7398 Y29.8842
G01 X30.7625 Y29.9059
G01 X30.8205 Y29.9581
G01 X30.8448 Y29.9781
G01 X30.8647 Y29.9931
G01 X26.9494 Y29.9931
G01 X26.9494 Y28.7226
G01 X26.9695 Y28.7472
G01 X26.9799 Y28.7589
G01 X27.0016 Y28.7817
G00 Z2.0000
G00 X27.1294 Y29.1641
G01 F200.00
G01 Z0.0000
G01 F600.00
G01 X27.4744 Y29.5087
G01 X27.5042 Y29.5358
G01 X27.5196 Y29.5487
G01 X27.5513 Y29.5735
G01 X27.5677 Y29.5853
G01 X27.6011 Y29.6076
G01 X27.6356 Y29.6283
G01 X27.6711 Y29.6473
G01 X27.7075 Y29.6645
G01 X27.7447 Y29.6799
G01 X27.7826 Y29.6935
G01 X27.8211 Y29.7051
G01 X27.8602 Y29.7149
G01 X27.8798 Y29.7191
G01 X27.9195 Y29.7260
G01 X27.9594 Y29.7309
G01 X27.9996 Y29.7339
G01 X28.0398 Y29.7348
G01 X28.8885 Y29.7346
G01 X28.9287 Y29.7326
G01 X28.9487 Y29.7309
G01 X28.9687 Y29.7287
G01 X29.0086 Y29.7228
G01 X29.0480 Y29.7149
G01 X29.0871 Y29.7051
G01 X29.1256 Y29.6935
G01 X29.1635 Y29.6799
G01 X29.2007 Y29.6645
G01 X29.2370 Y29.6473
G01 X29.2725 Y29.6283
G01 X29.3071 Y29.6076
G01 X29.3239 Y29.5967
G01 X29.3568 Y29.5735
G01 X29.3886 Y29.5487
G01 X29.4190 Y29.5224
G01 X29.4482 Y29.4947
G01 X29.5727 Y29.3702
G01 X29.9712 Y29.3702
G01 X30.4141 Y29.8131
G01 X27.1294 Y29.8131
G01 X27.1294 Y29.1641
G00 Z2.0000
G00 X27.3094 Y29.5986
G01 F200.00
G01 Z0.0000
G01 F600.00
G01 X27.3327 Y29.6220
G01 X27.3441 Y29.6331
G01 X27.3094 Y29.6331
G01 X27.3094 Y29.5986
G00 Z2.0000
G00 X29.5641 Y29.6331
G01 F200.00
G01 Z0.0000
G01 F600.00
G01 X29.6473 Y29.5502
G01 X29.8966 Y29.5502
G01 X29.9795 Y29.6331
G01 X29.5641 Y29.6331
G00 Z2.0000
G00 X31.0269 Y33.2637
G01 F200.00
G01 Z0.0000
G01 F600.00
G01 X31.0611 Y33.2637
G01 X31.0377 Y33.3142
G01 X31.0319 Y33.3277
G01 X31.0304 Y33.3025
G01 X31.0269 Y33.2637
G00 Z2.0000
G00 X31.0341 Y35.1823
G01 F200.00
G01 Z0.0000
G01 F600.00
G01 X31.0341 Y34.9819
G01 X31.0516 Y35.0208
G01 X31.0831 Y35.0874
G01 X31.0977 Y35.1174
G01 X31.1131 Y35.1470
G01 X31.1327 Y35.1823
G01 X31.0341 Y35.1823
G00 Z2.0000
G00 X30.8541 Y35.3623
G01 F200.00
G01 Z0.0000
G01 F600.00
G01 X30.8541 Y33.4025
G01 X30.8537 Y33.3736
G01 X30.8526 Y33.3446
G01 X30.8509 Y33.3157
G01 X30.8484 Y33.2869
G01 X30.8452 Y33.2581
G01 X30.8413 Y33.2294
G01 X30.8367 Y33.2008
G01 X30.8314 Y33.1723
G01 X30.8254 Y33.1440
G01 X30.8187 Y33.1158
G01 X30.8101 Y33.0837
G01 X31.3668 Y33.0837
G01 X31.3534 Y33.1043
G01 X31.3383 Y33.1290
G01 X31.3004 Y33.1921
G01 X31.2858 Y33.2171
G01 X31.2719 Y33.2425
G01 X31.2585 Y33.2682
G01 X31.2458 Y33.2942
G01 X31.2144 Y33.3608
G01 X31.2023 Y33.3871
G01 X31.1909 Y33.4137
G01 X31.1801 Y33.4406
G01 X31.1700 Y33.4678
G01 X31.1452 Y33.5371
G01 X31.1358 Y33.5645
G01 X31.1271 Y33.5921
G01 X31.1190 Y33.6199
G01 X31.1116 Y33.6479
G01 X31.0937 Y33.7193
G01 X31.0871 Y33.7475
G01 X31.0811 Y33.7758
G01 X31.0758 Y33.8043
G01 X31.0712 Y33.8329
G01 X31.0604 Y33.9057
G01 X31.0565 Y33.9344
G01 X31.0533 Y33.9632
G01 X31.0508 Y33.9920
G01 X31.0490 Y34.0209
G01 X31.0454 Y34.0944
G01 X31.0443 Y34.1234
G01 X31.0440 Y34.1523
G01 X31.0443 Y34.1813
G01 X31.0454 Y34.2102
G01 X31.0490 Y34.2838
G01 X31.0508 Y34.3127
G01 X31.0533 Y34.3415
G01 X31.0565 Y34.3703
G01 X31.0604 Y34.3990
G01 X31.0712 Y34.4718
G01 X31.0758 Y34.5004
G01 X31.0811 Y34.5289
G01 X31.0871 Y34.5572
G01 X31.0937 Y34.5854
G01 X31.1116 Y34.6568
G01 X31.1190 Y34.6848
G01 X31.1271 Y34.7126
G01 X31.1358 Y34.7402
G01 X31.1452 Y34.7676
G01 X31.1700 Y34.8369
G01 X31.1801 Y34.8640
G01 X31.1909 Y34.8909
G01 X31.2023 Y34.9176
G01 X31.2144 Y34.9439
G01 X31.2458 Y35.0104
G01 X31.2585 Y35.0364
G01 X31.2719 Y35.0622
G01 X31.2858 Y35.0875
G01 X31.3004 Y35.1125
G01 X31.3383 Y35.1757
G01 X31.3534 Y35.2003
G01 X31.3692 Y35.2246
G01 X31.3856 Y35.2485
G01 X31.4026 Y35.2720
G01 X31.4464 Y35.3311
G01 X31.4705 Y35.3623
G01 X30.8541 Y35.3623
G00 Z2.0000
G00 X30.6642 Y35.5423
G01 F200.00
G01 Z0.0000
G01 F600.00
G01 X30.6665 Y35.5249
G01 X30.6692 Y35.5005
G01 X30.6713 Y35.4761
G01 X30.6729 Y35.4516
G01 X30.6738 Y35.4271
G01 X30.6741 Y35.4025
G01 X30.6741 Y33.4025
G01 X30.6738 Y33.3780
G01 X30.6729 Y33.3535
G01 X30.6713 Y33.3290
G01 X30.6692 Y33.3045
G01 X30.6665 Y33.2801
G01 X30.6632 Y33.2558
G01 X30.6593 Y33.2316
G01 X30.6548 Y33.2074
G01 X30.6498 Y33.1834
G01 X30.6441 Y33.1595
G01 X30.6378 Y33.1358
G01 X30.6310 Y33.1122
G01 X30.6236 Y33.0888
G01 X30.6156 Y33.0656
G01 X30.6070 Y33.0426
G01 X30.5979 Y33.0198
G01 X30.5883 Y32.9973
G01 X30.5780 Y32.9750
G01 X30.5673 Y32.9529
G01 X30.5560 Y32.9311
G01 X30.5407 Y32.9037
G01 X31.5738 Y32.9037
G01 X31.5738 Y33.1040
G01 X31.5328 Y33.1598
G01 X31.5189 Y33.1801
G01 X31.5055 Y33.2006
G01 X31.4926 Y33.2215
G01 X31.4424 Y33.3059
G01 X31.4306 Y33.3274
G01 X31.4193 Y33.3491
G01 X31.3771 Y33.4377
G01 X31.3669 Y33.4601
G01 X31.3572 Y33.4826
G01 X31.3481 Y33.5054
G01 X31.3395 Y33.5284
G01 X31.3067 Y33.6209
G01 X31.2993 Y33.6443
G01 X31.2925 Y33.6679
G01 X31.2683 Y33.7630
G01 X31.2627 Y33.7869
G01 X31.2576 Y33.8109
G01 X31.2531 Y33.8350
G01 X31.2384 Y33.9321
G01 X31.2351 Y33.9564
G01 X31.2324 Y33.9808
G01 X31.2303 Y34.0052
G01 X31.2288 Y34.0297
G01 X31.2243 Y34.1278
G01 X31.2240 Y34.1523
G01 X31.2243 Y34.1769
G01 X31.2252 Y34.2014
G01 X31.2303 Y34.2994
G01 X31.2324 Y34.3239
G01 X31.2351 Y34.3483
G01 X31.2492 Y34.4454
G01 X31.2531 Y34.4696
G01 X31.2576 Y34.4938
G01 X31.2627 Y34.5178
G01 X31.2683 Y34.5416
G01 X31.2925 Y34.6368
G01 X31.2993 Y34.6603
G01 X31.3067 Y34.6837
G01 X31.3395 Y34.7763
G01 X31.3481 Y34.7993
G01 X31.3572 Y34.8221
G01 X31.3669 Y34.8446
G01 X31.3771 Y34.8669
G01 X31.4193 Y34.9555
G01 X31.4306 Y34.9773
G01 X31.4424 Y34.9988
G01 X31.4548 Y35.0200
G01 X31.5055 Y35.1040
G01 X31.5189 Y35.1246
G01 X31.5328 Y35.1449
G01 X31.5910 Y35.2239
G01 X31.6059 Y35.2434
G01 X31.6212 Y35.2626
G01 X31.6370 Y35.2813
G01 X31.7027 Y35.3543
G01 X31.7194 Y35.3722
G01 X31.7365 Y35.3898
G01 X31.7541 Y35.4070
G01 X31.7721 Y35.4237
G01 X31.8450 Y35.4893
G01 X31.8638 Y35.5051
G01 X31.8830 Y35.5205
G01 X31.9118 Y35.5423
G01 X30.6642 Y35.5423
G00 Z2.0000
G00 X30.4291 Y35.7223
G01 F200.00
G01 Z0.0000
G01 F600.00
G01 X30.4391 Y35.6976
G01 X30.4527 Y35.6597
G01 X30.4644 Y35.6212
G01 X30.4741 Y35.5822
G01 X30.4820 Y35.5427
G01 X30.4879 Y35.5029
G01 X30.4918 Y35.4628
G01 X30.4938 Y35.4226
G01 X30.4941 Y33.4025
G01 X30.4931 Y33.3623
G01 X30.4901 Y33.3222
G01 X30.4852 Y33.2822
G01 X30.4783 Y33.2426
G01 X30.4695 Y33.2033
G01 X30.4587 Y33.1645
G01 X30.4527 Y33.1453
G01 X30.4391 Y33.1074
G01 X30.4316 Y33.0887
G01 X30.4153 Y33.0519
G01 X30.3972 Y33.0160
G01 X30.3774 Y32.9810
G01 X30.3559 Y32.9470
G01 X30.3327 Y32.9141
G01 X30.3079 Y32.8823
G01 X30.2950 Y32.8669
G01 X30.2679 Y32.8371
G01 X30.2395 Y32.8086
G01 X30.2097 Y32.7816
G01 X30.1785 Y32.7561
G01 X30.1625 Y32.7439
G01 X30.1340 Y32.7237
G01 X31.7650 Y32.7237
G01 X31.7619 Y32.7463
G01 X31.7579 Y32.7863
G01 X31.7540 Y32.8658
G01 X31.7538 Y33.1645
G01 X31.7356 Y33.1880
G01 X31.6917 Y33.2471
G01 X31.6686 Y33.2801
G01 X31.6470 Y33.3141
G01 X31.6092 Y33.3772
G01 X31.5894 Y33.4122
G01 X31.5801 Y33.4301
G01 X31.5398 Y33.5147
G01 X31.5235 Y33.5515
G01 X31.5090 Y33.5890
G01 X31.4777 Y33.6774
G01 X31.4660 Y33.7159
G01 X31.4608 Y33.7354
G01 X31.4430 Y33.8068
G01 X31.4341 Y33.8460
G01 X31.4273 Y33.8857
G01 X31.4137 Y33.9784
G01 X31.4115 Y33.9984
G01 X31.4086 Y34.0386
G01 X31.4050 Y34.1121
G01 X31.4040 Y34.1523
G01 X31.4050 Y34.1926
G01 X31.4098 Y34.2862
G01 X31.4137 Y34.3262
G01 X31.4165 Y34.3462
G01 X31.4273 Y34.4190
G01 X31.4341 Y34.4586
G01 X31.4430 Y34.4979
G01 X31.4608 Y34.5693
G01 X31.4660 Y34.5888
G01 X31.4777 Y34.6273
G01 X31.5090 Y34.7156
G01 X31.5235 Y34.7532
G01 X31.5398 Y34.7900
G01 X31.5801 Y34.8746
G01 X31.5894 Y34.8925
G01 X31.6092 Y34.9275
G01 X31.6470 Y34.9906
G01 X31.6686 Y35.0246
G01 X31.6917 Y35.0575
G01 X31.7356 Y35.1166
G01 X31.7604 Y35.1484
G01 X31.7866 Y35.1788
G01 X31.8498 Y35.2481
G01 X31.8782 Y35.2766
G01 X31.8930 Y35.2903
G01 X31.9475 Y35.3397
G01 X31.9780 Y35.3660
G01 X32.0097 Y35.3908
G01 X32.0688 Y35.4346
G01 X32.1017 Y35.4578
G01 X32.1358 Y35.4793
G01 X32.1989 Y35.5172
G01 X32.2339 Y35.5370
G01 X32.2699 Y35.5551
G01 X32.3364 Y35.5866
G01 X32.3547 Y35.5949
G01 X32.3919 Y35.6104
G01 X32.4800 Y35.6422
G01 X32.5183 Y35.6548
G01 X32.5571 Y35.6655
G01 X32.6480 Y35.6881
G01 X32.6875 Y35.6959
G01 X32.7074 Y35.6991
G01 X32.7802 Y35.7099
G01 X32.8201 Y35.7148
G01 X32.8603 Y35.7178
G01 X32.9338 Y35.7214
G01 X32.9644 Y35.7223
G01 X30.4291 Y35.7223
G00 Z2.0000
G00 X30.0738 Y35.9023
G01 F200.00
G01 Z0.0000
G01 F600.00
G01 X30.0921 Y35.8871
G01 X30.1039 Y35.8767
G01 X30.1266 Y35.8551
G01 X30.1483 Y35.8323
G01 X30.1688 Y35.8085
G01 X30.1881 Y35.7838
G01 X30.2062 Y35.7581
G01 X30.2230 Y35.7315
G01 X30.2385 Y35.7042
G01 X30.2526 Y35.6762
G01 X30.2653 Y35.6474
G01 X30.2766 Y35.6181
G01 X30.2865 Y35.5883
G01 X30.2949 Y35.5580
G01 X30.3018 Y35.5274
G01 X30.3071 Y35.4964
G01 X30.3110 Y35.4652
G01 X30.3133 Y35.4339
G01 X30.3141 Y35.4025
G01 X30.3141 Y33.4025
G01 X30.3133 Y33.3711
G01 X30.3110 Y33.3398
G01 X30.3071 Y33.3086
G01 X30.3018 Y33.2777
G01 X30.2985 Y33.2623
G01 X30.2949 Y33.2470
G01 X30.2865 Y33.2167
G01 X30.2766 Y33.1869
G01 X30.2653 Y33.1576
G01 X30.2526 Y33.1289
G01 X30.2385 Y33.1008
G01 X30.2230 Y33.0735
G01 X30.2148 Y33.0601
G01 X30.1973 Y33.0340
G01 X30.1786 Y33.0088
G01 X30.1587 Y32.9845
G01 X30.1376 Y32.9612
G01 X30.1266 Y32.9500
G01 X30.1039 Y32.9283
G01 X30.0921 Y32.9179
G01 X30.0678 Y32.8980
G01 X30.0553 Y32.8885
G01 X30.0296 Y32.8704
G01 X30.0031 Y32.8536
G01 X29.9895 Y32.8457
G01 X29.9618 Y32.8309
G01 X29.9477 Y32.8240
G01 X29.9334 Y32.8174
G01 X29.9044 Y32.8054
G01 X29.8748 Y32.7948
G01 X29.8448 Y32.7857
G01 X29.8296 Y32.7817
G01 X29.7989 Y32.7748
G01 X29.7680 Y32.7695
G01 X29.7524 Y32.7673
G01 X29.7368 Y32.7656
G01 X29.7055 Y32.7633
G01 X29.6741 Y32.7625
G01 X27.6741 Y32.7625
G01 X27.6427 Y32.7633
G01 X27.6113 Y32.7656
G01 X27.5802 Y32.7695
G01 X27.5492 Y32.7748
G01 X27.5338 Y32.7781
G01 X27.5034 Y32.7857
G01 X27.4733 Y32.7948
G01 X27.4437 Y32.8054
G01 X27.4147 Y32.8174
G01 X27.3863 Y32.8309
G01 X27.3586 Y32.8457
G01 X27.3450 Y32.8536
G01 X27.3185 Y32.8704
G01 X27.2928 Y32.8885
G01 X27.2803 Y32.8980
G01 X27.2560 Y32.9179
G01 X27.2328 Y32.9390
G01 X27.2105 Y32.9612
G01 X27.1999 Y32.9727
G01 X27.1793 Y32.9965
G01 X27.1600 Y33.0213
G01 X27.1419 Y33.0470
G01 X27.1251 Y33.0735
G01 X27.1096 Y33.1008
G01 X27.0955 Y33.1289
G01 X27.0890 Y33.1432
G01 X27.0770 Y33.1722
G01 X27.0715 Y33.1869
G01 X27.0616 Y33.2167
G01 X27.0532 Y33.2470
G01 X27.0464 Y33.2777
G01 X27.0410 Y33.3086
G01 X27.0371 Y33.3398
G01 X27.0354 Y33.3623
G01 X25.3947 Y33.3623
G01 X25.3678 Y33.3381
G01 X25.3558 Y33.3280
G01 X25.3310 Y33.3087
G01 X25.2591 Y33.2556
G01 X25.2462 Y33.2467
G01 X25.2197 Y33.2299
G01 X25.1429 Y33.1842
G01 X25.1152 Y33.1694
G01 X25.0203 Y33.1245
G01 X25.0059 Y33.1183
G01 X24.9853 Y33.1102
G01 X24.8338 Y32.9587
G01 X24.8338 Y31.8157
G01 X25.1996 Y32.1812
G01 X25.2690 Y32.2441
G01 X25.2933 Y32.2641
G01 X25.3686 Y32.3199
G01 X25.3948 Y32.3374
G01 X25.4752 Y32.3856
G01 X25.5029 Y32.4004
G01 X25.5170 Y32.4073
G01 X25.5734 Y32.4339
G01 X25.6021 Y32.4467
G01 X25.6314 Y32.4580
G01 X25.6901 Y32.4790
G01 X25.7049 Y32.4841
G01 X25.7350 Y32.4932
G01 X25.8259 Y32.5160
G01 X25.8568 Y32.5221
G01 X25.8723 Y32.5246
G01 X25.9339 Y32.5337
G01 X25.9651 Y32.5376
G01 X25.9964 Y32.5399
G01 X26.0587 Y32.5430
G01 X26.0901 Y32.5437
G01 X31.9921 Y32.5437
G01 X31.9833 Y32.5689
G01 X31.9742 Y32.5990
G01 X31.9570 Y32.6676
G01 X31.9509 Y32.6984
G01 X31.9426 Y32.7527
G01 X31.9388 Y32.7839
G01 X31.9374 Y32.7996
G01 X31.9345 Y32.8545
G01 X31.9338 Y32.8859
G01 X31.9338 Y33.2315
G01 X31.9096 Y33.2585
G01 X31.8897 Y33.2828
G01 X31.8271 Y33.3671
G01 X31.8097 Y33.3932
G01 X31.7636 Y33.4697
G01 X31.7557 Y33.4833
G01 X31.7409 Y33.5110
G01 X31.7025 Y33.5917
G01 X31.6898 Y33.6204
G01 X31.6785 Y33.6497
G01 X31.6537 Y33.7190
G01 X31.6438 Y33.7488
G01 X31.6354 Y33.7791
G01 X31.6139 Y33.8658
G01 X31.6078 Y33.8966
G01 X31.5924 Y34.0005
G01 X31.5893 Y34.0317
G01 X31.5883 Y34.0474
G01 X31.5847 Y34.1209
G01 X31.5840 Y34.1523
G01 X31.5847 Y34.1837
G01 X31.5883 Y34.2573
G01 X31.5893 Y34.2729
G01 X31.5924 Y34.3042
G01 X31.6053 Y34.3926
G01 X31.6107 Y34.4235
G01 X31.6176 Y34.4542
G01 X31.6354 Y34.5256
G01 X31.6438 Y34.5558
G01 X31.6486 Y34.5708
G01 X31.6785 Y34.6550
G01 X31.6898 Y34.6843
G01 X31.7025 Y34.7130
G01 X31.7409 Y34.7937
G01 X31.7557 Y34.8214
G01 X31.8014 Y34.8981
G01 X31.8182 Y34.9246
G01 X31.8363 Y34.9503
G01 X31.8802 Y35.0094
G01 X31.8995 Y35.0342
G01 X31.9200 Y35.0580
G01 X31.9694 Y35.1125
G01 X31.9911 Y35.1353
G01 X32.0139 Y35.1569
G01 X32.0684 Y35.2063
G01 X32.0922 Y35.2269
G01 X32.1169 Y35.2462
G01 X32.1761 Y35.2900
G01 X32.1888 Y35.2992
G01 X32.2149 Y35.3167
G01 X32.2914 Y35.3628
G01 X32.3188 Y35.3783
G01 X32.3468 Y35.3924
G01 X32.4134 Y35.4238
G01 X32.4421 Y35.4366
G01 X32.4714 Y35.4479
G01 X32.5407 Y35.4727
G01 X32.5705 Y35.4825
G01 X32.6008 Y35.4909
G01 X32.6722 Y35.5088
G01 X32.7028 Y35.5157
G01 X32.7338 Y35.5211
G01 X32.8066 Y35.5319
G01 X32.8222 Y35.5340
G01 X32.8534 Y35.5370
G01 X32.9426 Y35.5416
G01 X32.9740 Y35.5424
G01 X33.0054 Y35.5416
G01 X33.0946 Y35.5370
G01 X33.1259 Y35.5340
G01 X33.1415 Y35.5319
G01 X33.2143 Y35.5211
G01 X33.2452 Y35.5157
G01 X33.2759 Y35.5088
G01 X33.3473 Y35.4909
G01 X33.3625 Y35.4869
G01 X33.3925 Y35.4778
G01 X33.4767 Y35.4479
G01 X33.5060 Y35.4366
G01 X33.5347 Y35.4238
G01 X33.6154 Y35.3855
G01 X33.6431 Y35.3707
G01 X33.6566 Y35.3628
G01 X33.7198 Y35.3249
G01 X33.7463 Y35.3081
G01 X33.7720 Y35.2900
G01 X33.8311 Y35.2462
G01 X33.8559 Y35.2269
G01 X33.8679 Y35.2167
G01 X33.9342 Y35.1569
G01 X33.9569 Y35.1353
G01 X33.9786 Y35.1125
G01 X34.0384 Y35.0462
G01 X34.0584 Y35.0219
G01 X34.0679 Y35.0094
G01 X34.1117 Y34.9503
G01 X34.1298 Y34.9246
G01 X34.1466 Y34.8981
G01 X34.1845 Y34.8349
G01 X34.1999 Y34.8076
G01 X34.2141 Y34.7795
G01 X34.2521 Y34.6987
G01 X34.2641 Y34.6697
G01 X34.2944 Y34.5857
G01 X34.3042 Y34.5558
G01 X34.3126 Y34.5256
G01 X34.3341 Y34.4389
G01 X34.3403 Y34.4081
G01 X34.3535 Y34.3198
G01 X34.3574 Y34.2886
G01 X34.3597 Y34.2573
G01 X34.3633 Y34.1837
G01 X34.3641 Y34.1523
G01 X34.3633 Y34.1209
G01 X34.3587 Y34.0317
G01 X34.3557 Y34.0005
G01 X34.3427 Y33.9121
G01 X34.3374 Y33.8811
G01 X34.3305 Y33.8505
G01 X34.3126 Y33.7791
G01 X34.3042 Y33.7488
G01 X34.2944 Y33.7190
G01 X34.2696 Y33.6497
G01 X34.2583 Y33.6204
G01 X34.2455 Y33.5917
G01 X34.2072 Y33.5110
G01 X34.1924 Y33.4833
G01 X34.1845 Y33.4697
G01 X34.1466 Y33.4066
G01 X34.1298 Y33.3801
G01 X34.1117 Y33.3544
G01 X34.0679 Y33.2953
G01 X34.0539 Y33.2772
G01 X34.6606 Y32.6704
G01 X35.2900 Y32.6704
G01 X35.3057 Y32.6702
G01 X35.3371 Y32.6687
G01 X35.3683 Y32.6656
G01 X35.3994 Y32.6610
G01 X35.4149 Y32.6581
G01 X35.4455 Y32.6512
G01 X35.4758 Y32.6429
G01 X35.4907 Y32.6381
G01 X35.5056 Y32.6330
G01 X35.5349 Y32.6217
G01 X35.5493 Y32.6155
G01 X35.5777 Y32.6021
G01 X35.6054 Y32.5873
G01 X35.6324 Y32.5711
G01 X35.6456 Y32.5626
G01 X35.6722 Y32.5437
G01 X41.4724 Y32.5437
G01 X41.5038 Y32.5430
G01 X41.5660 Y32.5399
G01 X41.5974 Y32.5376
G01 X41.6285 Y32.5337
G01 X41.6902 Y32.5246
G01 X41.7057 Y32.5221
G01 X41.7365 Y32.5160
G01 X41.8275 Y32.4932
G01 X41.8575 Y32.4841
G01 X41.8724 Y32.4790
G01 X41.9311 Y32.4580
G01 X41.9604 Y32.4467
G01 X41.9891 Y32.4339
G01 X42.0455 Y32.4073
G01 X42.0596 Y32.4004
G01 X42.0873 Y32.3856
G01 X42.1677 Y32.3374
G01 X42.1938 Y32.3199
G01 X42.2691 Y32.2641
G01 X42.2934 Y32.2441
G01 X42.3629 Y32.1812
G01 X42.7565 Y31.7878
G01 X49.6210 Y31.7878
G01 X49.5494 Y31.8463
G01 X49.5370 Y31.8572
G01 X49.5131 Y31.8799
G01 X49.4612 Y31.9317
G01 X49.4380 Y31.9562
G01 X49.4160 Y31.9820
G01 X49.3915 Y32.0123
G01 X46.3182 Y32.0125
G01 X46.2476 Y32.0159
G01 X46.2163 Y32.0190
G01 X46.1464 Y32.0294
G01 X46.1156 Y32.0355
G01 X46.0470 Y32.0527
G01 X46.0170 Y32.0618
G01 X45.9504 Y32.0856
G01 X45.9214 Y32.0976
G01 X45.8716 Y32.1210
G01 X45.8435 Y32.1351
G01 X45.8162 Y32.1506
G01 X45.7825 Y32.1708
G01 X45.7560 Y32.1876
G01 X45.7303 Y32.2057
G01 X45.6863 Y32.2386
G01 X45.6620 Y32.2585
G01 X45.6211 Y32.2953
G01 X45.5984 Y32.3169
G01 X44.7697 Y33.1456
G01 X44.7335 Y33.1476
G01 X44.7023 Y33.1507
G01 X44.6139 Y33.1636
G01 X44.5984 Y33.1661
G01 X44.5676 Y33.1722
G01 X44.4809 Y33.1937
G01 X44.4506 Y33.2021
G01 X44.4208 Y33.2120
G01 X44.3515 Y33.2368
G01 X44.3222 Y33.2481
G01 X44.3077 Y33.2543
G01 X44.2269 Y33.2923
G01 X44.1988 Y33.3064
G01 X44.1715 Y33.3219
G01 X44.1084 Y33.3597
G01 X44.0818 Y33.3765
G01 X44.0562 Y33.3946
G01 X43.9970 Y33.4385
G01 X43.9723 Y33.4578
G01 X43.9485 Y33.4783
G01 X43.8939 Y33.5277
G01 X43.8712 Y33.5494
G01 X43.8495 Y33.5721
G01 X43.8001 Y33.6267
G01 X43.7796 Y33.6505
G01 X43.7603 Y33.6752
G01 X43.7164 Y33.7344
G01 X43.6983 Y33.7600
G01 X43.6815 Y33.7866
G01 X43.6437 Y33.8497
G01 X43.6282 Y33.8770
G01 X43.6141 Y33.9051
G01 X43.5826 Y33.9716
G01 X43.5699 Y34.0004
G01 X43.5586 Y34.0297
G01 X43.5338 Y34.0990
G01 X43.5239 Y34.1288
G01 X43.5155 Y34.1591
G01 X43.4976 Y34.2305
G01 X43.4908 Y34.2611
G01 X43.4854 Y34.2921
G01 X43.4746 Y34.3649
G01 X43.4707 Y34.3961
G01 X43.4684 Y34.4274
G01 X43.4642 Y34.5166
G01 X43.4642 Y34.5480
G01 X43.4648 Y34.5637
G01 X43.4684 Y34.6372
G01 X43.4707 Y34.6686
G01 X43.4746 Y34.6997
G01 X43.4854 Y34.7726
G01 X43.4908 Y34.8035
G01 X43.4976 Y34.8342
G01 X43.5155 Y34.9056
G01 X43.5239 Y34.9358
G01 X43.5338 Y34.9657
G01 X43.5586 Y35.0350
G01 X43.5699 Y35.0643
G01 X43.5826 Y35.0930
G01 X43.6141 Y35.1595
G01 X43.6282 Y35.1876
G01 X43.6437 Y35.2149
G01 X43.6815 Y35.2781
G01 X43.6983 Y35.3046
G01 X43.7164 Y35.3303
G01 X43.7603 Y35.3894
G01 X43.7796 Y35.4142
G01 X43.7897 Y35.4262
G01 X43.8602 Y35.5040
G01 X43.8824 Y35.5262
G01 X43.8939 Y35.5369
G01 X43.9603 Y35.5967
G01 X43.9723 Y35.6068
G01 X43.9970 Y35.6262
G01 X44.0562 Y35.6700
G01 X44.0818 Y35.6881
G01 X44.1084 Y35.7049
G01 X44.1715 Y35.7428
G01 X44.1851 Y35.7507
G01 X44.2128 Y35.7655
G01 X44.3077 Y35.8104
G01 X44.3367 Y35.8224
G01 X44.4208 Y35.8527
G01 X44.4506 Y35.8625
G01 X44.4657 Y35.8669
G01 X44.5676 Y35.8924
G01 X44.5829 Y35.8957
G01 X44.6139 Y35.9010
G01 X44.7023 Y35.9140
G01 X44.7335 Y35.9170
G01 X44.7492 Y35.9180
G01 X44.8227 Y35.9216
G01 X44.8541 Y35.9224
G01 X44.8855 Y35.9216
G01 X44.9747 Y35.9170
G01 X44.9904 Y35.9157
G01 X45.0215 Y35.9118
G01 X45.1099 Y35.8985
G01 X45.1407 Y35.8924
G01 X45.2274 Y35.8709
G01 X45.2576 Y35.8625
G01 X45.2726 Y35.8578
G01 X45.3568 Y35.8279
G01 X45.3861 Y35.8166
G01 X45.4148 Y35.8038
G01 X45.4813 Y35.7724
G01 X45.5094 Y35.7582
G01 X45.5367 Y35.7428
G01 X45.5999 Y35.7049
G01 X45.6264 Y35.6881
G01 X45.6521 Y35.6700
G01 X45.7112 Y35.6262
G01 X45.7360 Y35.6068
G01 X45.7597 Y35.5863
G01 X45.8143 Y35.5369
G01 X45.8370 Y35.5152
G01 X45.8587 Y35.4925
G01 X45.9081 Y35.4379
G01 X45.9286 Y35.4142
G01 X45.9480 Y35.3894
G01 X45.9918 Y35.3303
G01 X46.0099 Y35.3046
G01 X46.0267 Y35.2781
G01 X46.0646 Y35.2149
G01 X46.0800 Y35.1876
G01 X46.0942 Y35.1595
G01 X46.1322 Y35.0787
G01 X46.1384 Y35.0643
G01 X46.1497 Y35.0350
G01 X46.1745 Y34.9657
G01 X46.1843 Y34.9358
G01 X46.1927 Y34.9056
G01 X46.2142 Y34.8189
G01 X46.2203 Y34.7881
G01 X46.2228 Y34.7726
G01 X46.2357 Y34.6842
G01 X46.2388 Y34.6529
G01 X46.2408 Y34.6168
G01 X46.7648 Y34.0928
G01 X49.3917 Y34.0928
G01 X49.4279 Y34.1370
G01 X49.4500 Y34.1615
G01 X49.5251 Y34.2367
G01 X49.5496 Y34.2587
G01 X49.6279 Y34.3224
G01 X49.5494 Y34.3863
G01 X49.5249 Y34.4084
G01 X49.4494 Y34.4838
G01 X49.4380 Y34.4962
G01 X49.4160 Y34.5220
G01 X49.3700 Y34.5789
G01 X49.3498 Y34.6053
G01 X49.3309 Y34.6328
G01 X49.2910 Y34.6943
G01 X49.2822 Y34.7084
G01 X49.2655 Y34.7372
G01 X49.2245 Y34.8172
G01 X49.2172 Y34.8319
G01 X49.2038 Y34.8619
G01 X49.1654 Y34.9614
G01 X49.1548 Y34.9937
G01 X49.1502 Y35.0101
G01 X49.1270 Y35.0974
G01 X49.1199 Y35.1305
G01 X49.1170 Y35.1473
G01 X49.1056 Y35.2196
G01 X49.1013 Y35.2528
G01 X49.0986 Y35.2862
G01 X49.0948 Y35.3593
G01 X49.0940 Y35.3926
G01 X49.0940 Y35.7924
G01 X49.0948 Y35.8256
G01 X49.0998 Y35.9163
G01 X49.1034 Y35.9507
G01 X49.1060 Y35.9678
G01 X49.1176 Y36.0402
G01 X49.1238 Y36.0727
G01 X49.1316 Y36.1049
G01 X49.1506 Y36.1755
G01 X49.1550 Y36.1911
G01 X49.1650 Y36.2218
G01 X49.1967 Y36.3055
G01 X49.2098 Y36.3371
G01 X49.2245 Y36.3680
G01 X49.2577 Y36.4333
G01 X49.2739 Y36.4631
G01 X49.2826 Y36.4777
G01 X49.3316 Y36.5532
G01 X49.3506 Y36.5809
G01 X49.3711 Y36.6075
G01 X49.4279 Y36.6770
G01 X49.4388 Y36.6894
G01 X49.4615 Y36.7133
G01 X49.5133 Y36.7651
G01 X49.5372 Y36.7879
G01 X49.5623 Y36.8093
G01 X49.6279 Y36.8624
G01 X49.5494 Y36.9263
G01 X49.5249 Y36.9484
G01 X49.4612 Y37.0117
G01 X49.4380 Y37.0362
G01 X49.4268 Y37.0490
G01 X49.3700 Y37.1189
G01 X49.3498 Y37.1453
G01 X49.3309 Y37.1728
G01 X49.2910 Y37.2343
G01 X49.2822 Y37.2484
G01 X49.2655 Y37.2772
G01 X49.2245 Y37.3572
G01 X49.2103 Y37.3868
G01 X49.1977 Y37.4171
G01 X49.1713 Y37.4854
G01 X49.1599 Y37.5175
G01 X49.1548 Y37.5337
G01 X49.1311 Y37.6209
G01 X49.1232 Y37.6539
G01 X49.1170 Y37.6873
G01 X49.1056 Y37.7596
G01 X49.1032 Y37.7762
G01 X49.0997 Y37.8095
G01 X49.0948 Y37.8993
G01 X49.0940 Y37.9326
G01 X49.0940 Y38.3324
G01 X49.0948 Y38.3656
G01 X49.0986 Y38.4390
G01 X49.1014 Y38.4735
G01 X49.1034 Y38.4907
G01 X49.1205 Y38.5965
G01 X49.1274 Y38.6289
G01 X49.1316 Y38.6449
G01 X49.1506 Y38.7155
G01 X49.1598 Y38.7465
G01 X49.1705 Y38.7769
G01 X49.2030 Y38.8614
G01 X49.2098 Y38.8771
G01 X49.2245 Y38.9080
G01 X49.2577 Y38.9733
G01 X49.2739 Y39.0031
G01 X49.2917 Y39.0320
G01 X49.3316 Y39.0932
G01 X49.3506 Y39.1209
G01 X49.3711 Y39.1475
G01 X49.4279 Y39.2170
G01 X49.4500 Y39.2415
G01 X49.4615 Y39.2533
G01 X49.5133 Y39.3051
G01 X49.5372 Y39.3279
G01 X49.5623 Y39.3493
G01 X49.6279 Y39.4024
G01 X49.5494 Y39.4663
G01 X49.5249 Y39.4884
G01 X49.4494 Y39.5638
G01 X49.4268 Y39.5890
G01 X49.3915 Y39.6323
G01 X37.6249 Y39.6323
G01 X37.1143 Y39.1216
G01 X37.1143 Y37.4424
G01 X37.1136 Y37.4110
G01 X37.1107 Y37.3561
G01 X37.1076 Y37.3248
G01 X37.0972 Y37.2548
G01 X37.0911 Y37.2240
G01 X37.0739 Y37.1554
G01 X37.0648 Y37.1254
G01 X37.0409 Y37.0588
G01 X37.0289 Y37.0297
G01 X37.0056 Y36.9799
G01 X36.9914 Y36.9519
G01 X36.9759 Y36.9245
G01 X36.9557 Y36.8908
G01 X36.9389 Y36.8643
G01 X36.9208 Y36.8386
G01 X36.8974 Y36.8071
G01 X36.8781 Y36.7823
G01 X36.8575 Y36.7585
G01 X36.8205 Y36.7179
G01 X36.3093 Y36.2068
G01 X36.2866 Y36.1851
G01 X36.2575 Y36.1588
G01 X36.2337 Y36.1383
G01 X36.2090 Y36.1189
G01 X36.1647 Y36.0864
G01 X36.1517 Y36.0775
G01 X36.1252 Y36.0607
G01 X36.0780 Y36.0326
G01 X36.0503 Y36.0178
G01 X35.9864 Y35.9876
G01 X35.9574 Y35.9756
G01 X35.8908 Y35.9518
G01 X35.8758 Y35.9470
G01 X35.8456 Y35.9387
G01 X35.8075 Y35.9291
G01 X35.7768 Y35.9222
G01 X35.7459 Y35.9169
G01 X35.7071 Y35.9111
G01 X35.6915 Y35.9090
G01 X35.6603 Y35.9059
G01 X35.5897 Y35.9025
G01 X30.0738 Y35.9023
G00 Z2.0000
G00 X29.6589 Y35.8625
G01 F200.00
G01 Z0.0000
G01 F600.00
G01 X29.6966 Y35.8620
G01 X29.7191 Y35.8603
G01 X29.7416 Y35.8575
G01 X29.7638 Y35.8537
G01 X29.7858 Y35.8487
G01 X29.8076 Y35.8427
G01 X29.8290 Y35.8356
G01 X29.8396 Y35.8317
G01 X29.8605 Y35.8231
G01 X29.8809 Y35.8134
G01 X29.9008 Y35.8028
G01 X29.9202 Y35.7912
G01 X29.9389 Y35.7786
G01 X29.9571 Y35.7652
G01 X29.9745 Y35.7508
G01 X29.9912 Y35.7357
G01 X30.0072 Y35.7197
G01 X30.0224 Y35.7030
G01 X30.0296 Y35.6943
G01 X30.0435 Y35.6765
G01 X30.0565 Y35.6581
G01 X30.0686 Y35.6390
G01 X30.0797 Y35.6194
G01 X30.0849 Y35.6093
G01 X30.0946 Y35.5889
G01 X30.1032 Y35.5681
G01 X30.1108 Y35.5468
G01 X30.1174 Y35.5252
G01 X30.1229 Y35.5033
G01 X30.1273 Y35.4812
G01 X30.1306 Y35.4588
G01 X30.1318 Y35.4476
G01 X30.1335 Y35.4251
G01 X30.1341 Y35.4025
G01 X30.1341 Y33.4025
G01 X30.1335 Y33.3800
G01 X30.1328 Y33.3687
G01 X30.1306 Y33.3462
G01 X30.1291 Y33.3350
G01 X30.1252 Y33.3128
G01 X30.1203 Y33.2908
G01 X30.1142 Y33.2690
G01 X30.1072 Y33.2476
G01 X30.0990 Y33.2265
G01 X30.0899 Y33.2059
G01 X30.0797 Y33.1857
G01 X30.0686 Y33.1660
G01 X30.0565 Y33.1470
G01 X30.0435 Y33.1285
G01 X30.0296 Y33.1107
G01 X30.0149 Y33.0936
G01 X29.9993 Y33.0773
G01 X29.9830 Y33.0617
G01 X29.9745 Y33.0542
G01 X29.9571 Y33.0399
G01 X29.9389 Y33.0264
G01 X29.9202 Y33.0139
G01 X29.9008 Y33.0023
G01 X29.8809 Y32.9916
G01 X29.8707 Y32.9867
G01 X29.8501 Y32.9775
G01 X29.8290 Y32.9694
G01 X29.8076 Y32.9623
G01 X29.7967 Y32.9592
G01 X29.7748 Y32.9537
G01 X29.7527 Y32.9493
G01 X29.7416 Y32.9475
G01 X29.7191 Y32.9447
G01 X29.6966 Y32.9431
G01 X29.6741 Y32.9425
G01 X27.6741 Y32.9425
G01 X27.6515 Y32.9431
G01 X27.6290 Y32.9447
G01 X27.6066 Y32.9475
G01 X27.5843 Y32.9514
G01 X27.5623 Y32.9563
G01 X27.5405 Y32.9623
G01 X27.5298 Y32.9657
G01 X27.5085 Y32.9733
G01 X27.4877 Y32.9820
G01 X27.4672 Y32.9916
G01 X27.4473 Y33.0023
G01 X27.4280 Y33.0139
G01 X27.4092 Y33.0264
G01 X27.3911 Y33.0399
G01 X27.3736 Y33.0542
G01 X27.3651 Y33.0617
G01 X27.3488 Y33.0773
G01 X27.3332 Y33.0936
G01 X27.3185 Y33.1107
G01 X27.3114 Y33.1195
G01 X27.2980 Y33.1377
G01 X27.2854 Y33.1564
G01 X27.2738 Y33.1758
G01 X27.2684 Y33.1857
G01 X27.2582 Y33.2058
G01 X27.2491 Y33.2265
G01 X27.2410 Y33.2476
G01 X27.2339 Y33.2690
G01 X27.2279 Y33.2908
G01 X27.2229 Y33.3128
G01 X27.2190 Y33.3350
G01 X27.2175 Y33.3462
G01 X27.2163 Y33.3574
G01 X27.2146 Y33.3800
G01 X27.2141 Y33.4025
G01 X27.2141 Y33.5423
G01 X25.3248 Y33.5423
G01 X25.3132 Y33.5313
G01 X25.2587 Y33.4819
G01 X25.2416 Y33.4671
G01 X25.2238 Y33.4532
G01 X25.1646 Y33.4094
G01 X25.1555 Y33.4028
G01 X25.1367 Y33.3902
G01 X25.0640 Y33.3465
G01 X25.0542 Y33.3408
G01 X25.0343 Y33.3301
G01 X24.9474 Y33.2890
G01 X24.9265 Y33.2804
G01 X24.8864 Y33.2659
G01 X24.6538 Y33.0332
G01 X24.6538 Y31.2499
G01 X24.6621 Y31.2715
G01 X24.6713 Y31.2922
G01 X24.7029 Y31.3587
G01 X24.7081 Y31.3687
G01 X24.7192 Y31.3883
G01 X24.7572 Y31.4514
G01 X24.7697 Y31.4702
G01 X24.8135 Y31.5294
G01 X24.8274 Y31.5472
G01 X24.8346 Y31.5559
G01 X24.8840 Y31.6105
G01 X24.8996 Y31.6269
G01 X25.3156 Y32.0429
G01 X25.3320 Y32.0585
G01 X25.3866 Y32.1078
G01 X25.4041 Y32.1222
G01 X25.4631 Y32.1661
G01 X25.4816 Y32.1791
G01 X25.5007 Y32.1912
G01 X25.5541 Y32.2233
G01 X25.5738 Y32.2344
G01 X25.5940 Y32.2445
G01 X25.6606 Y32.2759
G01 X25.6814 Y32.2845
G01 X25.7507 Y32.3095
G01 X25.7722 Y32.3166
G01 X25.7830 Y32.3197
G01 X25.8544 Y32.3377
G01 X25.8764 Y32.3427
G01 X25.8987 Y32.3465
G01 X25.9604 Y32.3557
G01 X25.9715 Y32.3572
G01 X25.9940 Y32.3594
G01 X26.0675 Y32.3632
G01 X26.0901 Y32.3637
G01 X32.2909 Y32.3637
G01 X32.2718 Y32.3895
G01 X32.2588 Y32.4080
G01 X32.2467 Y32.4270
G01 X32.2265 Y32.4607
G01 X32.2154 Y32.4804
G01 X32.2102 Y32.4904
G01 X32.1837 Y32.5463
G01 X32.1751 Y32.5672
G01 X32.1711 Y32.5778
G01 X32.1579 Y32.6147
G01 X32.1508 Y32.6362
G01 X32.1448 Y32.6579
G01 X32.1353 Y32.6960
G01 X32.1303 Y32.7181
G01 X32.1264 Y32.7403
G01 X32.1207 Y32.7792
G01 X32.1179 Y32.8016
G01 X32.1163 Y32.8241
G01 X32.1139 Y32.8746
G01 X32.1138 Y33.3014
G01 X32.1028 Y33.3130
G01 X32.0534 Y33.3676
G01 X32.0386 Y33.3847
G01 X32.0247 Y33.4025
G01 X31.9809 Y33.4616
G01 X31.9679 Y33.4801
G01 X31.9558 Y33.4991
G01 X31.9180 Y33.5623
G01 X31.9068 Y33.5819
G01 X31.8967 Y33.6021
G01 X31.8652 Y33.6686
G01 X31.8561 Y33.6893
G01 X31.8480 Y33.7103
G01 X31.8232 Y33.7796
G01 X31.8161 Y33.8011
G01 X31.8100 Y33.8228
G01 X31.7922 Y33.8942
G01 X31.7872 Y33.9163
G01 X31.7834 Y33.9385
G01 X31.7726 Y34.0113
G01 X31.7698 Y34.0337
G01 X31.7681 Y34.0562
G01 X31.7645 Y34.1298
G01 X31.7640 Y34.1523
G01 X31.7645 Y34.1749
G01 X31.7681 Y34.2484
G01 X31.7698 Y34.2709
G01 X31.7726 Y34.2933
G01 X31.7834 Y34.3662
G01 X31.7852 Y34.3773
G01 X31.7896 Y34.3994
G01 X31.8100 Y34.4818
G01 X31.8161 Y34.5036
G01 X31.8232 Y34.5250
G01 X31.8480 Y34.5943
G01 X31.8561 Y34.6154
G01 X31.8652 Y34.6360
G01 X31.8967 Y34.7026
G01 X31.9068 Y34.7228
G01 X31.9180 Y34.7424
G01 X31.9558 Y34.8055
G01 X31.9617 Y34.8151
G01 X31.9743 Y34.8339
G01 X32.0247 Y34.9022
G01 X32.0386 Y34.9200
G01 X32.0534 Y34.9371
G01 X32.1028 Y34.9916
G01 X32.1184 Y35.0080
G01 X32.1347 Y35.0235
G01 X32.1893 Y35.0730
G01 X32.2064 Y35.0877
G01 X32.2242 Y35.1016
G01 X32.2833 Y35.1455
G01 X32.3018 Y35.1585
G01 X32.3208 Y35.1705
G01 X32.3840 Y35.2084
G01 X32.3937 Y35.2141
G01 X32.4136 Y35.2247
G01 X32.4903 Y35.2611
G01 X32.5110 Y35.2703
G01 X32.5320 Y35.2784
G01 X32.6013 Y35.3032
G01 X32.6228 Y35.3103
G01 X32.6445 Y35.3163
G01 X32.7159 Y35.3342
G01 X32.7380 Y35.3391
G01 X32.7602 Y35.3430
G01 X32.8330 Y35.3538
G01 X32.8554 Y35.3566
G01 X32.8779 Y35.3582
G01 X32.9627 Y35.3623
G01 X32.9740 Y35.3624
G01 X32.9966 Y35.3618
G01 X33.0701 Y35.3582
G01 X33.0814 Y35.3575
G01 X33.1039 Y35.3553
G01 X33.1879 Y35.3430
G01 X33.2101 Y35.3391
G01 X33.2321 Y35.3342
G01 X33.3035 Y35.3163
G01 X33.3253 Y35.3103
G01 X33.3467 Y35.3032
G01 X33.4160 Y35.2784
G01 X33.4371 Y35.2703
G01 X33.4577 Y35.2611
G01 X33.5243 Y35.2297
G01 X33.5444 Y35.2195
G01 X33.5641 Y35.2084
G01 X33.6272 Y35.1705
G01 X33.6463 Y35.1585
G01 X33.6648 Y35.1455
G01 X33.7239 Y35.1016
G01 X33.7417 Y35.0877
G01 X33.7588 Y35.0730
G01 X33.8133 Y35.0235
G01 X33.8297 Y35.0080
G01 X33.8452 Y34.9916
G01 X33.8947 Y34.9371
G01 X33.9094 Y34.9200
G01 X33.9233 Y34.9022
G01 X33.9672 Y34.8431
G01 X33.9802 Y34.8246
G01 X33.9922 Y34.8055
G01 X34.0358 Y34.7326
G01 X34.0412 Y34.7228
G01 X34.0514 Y34.7026
G01 X34.0828 Y34.6360
G01 X34.0920 Y34.6154
G01 X34.1001 Y34.5943
G01 X34.1249 Y34.5250
G01 X34.1320 Y34.5036
G01 X34.1380 Y34.4818
G01 X34.1559 Y34.4104
G01 X34.1608 Y34.3884
G01 X34.1647 Y34.3662
G01 X34.1755 Y34.2933
G01 X34.1783 Y34.2709
G01 X34.1799 Y34.2484
G01 X34.1835 Y34.1749
G01 X34.1841 Y34.1523
G01 X34.1835 Y34.1298
G01 X34.1799 Y34.0562
G01 X34.1792 Y34.0450
G01 X34.1770 Y34.0225
G01 X34.1647 Y33.9385
G01 X34.1608 Y33.9163
G01 X34.1559 Y33.8942
G01 X34.1380 Y33.8228
G01 X34.1320 Y33.8011
G01 X34.1249 Y33.7796
G01 X34.1001 Y33.7103
G01 X34.0920 Y33.6893
G01 X34.0875 Y33.6789
G01 X34.0514 Y33.6021
G01 X34.0412 Y33.5819
G01 X34.0301 Y33.5623
G01 X33.9922 Y33.4991
G01 X33.9802 Y33.4801
G01 X33.9672 Y33.4616
G01 X33.9233 Y33.4025
G01 X33.9094 Y33.3847
G01 X33.8947 Y33.3676
G01 X33.8452 Y33.3130
G01 X33.8343 Y33.3014
G01 X33.8343 Y33.2422
G01 X34.5861 Y32.4904
G01 X35.2900 Y32.4904
G01 X35.3126 Y32.4899
G01 X35.3238 Y32.4892
G01 X35.3463 Y32.4870
G01 X35.3575 Y32.4854
G01 X35.3797 Y32.4816
G01 X35.3908 Y32.4792
G01 X35.4127 Y32.4738
G01 X35.4235 Y32.4706
G01 X35.4450 Y32.4635
G01 X35.4660 Y32.4554
G01 X35.4867 Y32.4462
G01 X35.4968 Y32.4413
G01 X35.5167 Y32.4307
G01 X35.5361 Y32.4190
G01 X35.5456 Y32.4129
G01 X35.5640 Y32.3999
G01 X35.5730 Y32.3931
G01 X35.5905 Y32.3787
G01 X35.6070 Y32.3637
G01 X41.4724 Y32.3637
G01 X41.4949 Y32.3632
G01 X41.5572 Y32.3601
G01 X41.5797 Y32.3585
G01 X41.6021 Y32.3557
G01 X41.6638 Y32.3465
G01 X41.6860 Y32.3427
G01 X41.7081 Y32.3377
G01 X41.7795 Y32.3197
G01 X41.8011 Y32.3132
G01 X41.8117 Y32.3095
G01 X41.8705 Y32.2885
G01 X41.8915 Y32.2804
G01 X41.9122 Y32.2712
G01 X41.9685 Y32.2445
G01 X41.9787 Y32.2396
G01 X41.9986 Y32.2290
G01 X42.0618 Y32.1912
G01 X42.0809 Y32.1791
G01 X42.0993 Y32.1661
G01 X42.1494 Y32.1290
G01 X42.1672 Y32.1151
G01 X42.1843 Y32.1004
G01 X42.2388 Y32.0508
G01 X42.6820 Y31.6078
G01 X49.6982 Y31.6078
G01 X49.7327 Y31.6358
G01 X49.7518 Y31.6506
G01 X49.7717 Y31.6643
G01 X49.8433 Y31.7107
G01 X49.8648 Y31.7231
G01 X49.9412 Y31.7621
G01 X49.9622 Y31.7721
G01 X49.9874 Y31.7825
G01 X49.9735 Y31.7880
G01 X49.9513 Y31.7978
G01 X49.8751 Y31.8365
G01 X49.8540 Y31.8479
G01 X49.8336 Y31.8604
G01 X49.7619 Y31.9071
G01 X49.7519 Y31.9142
G01 X49.7324 Y31.9292
G01 X49.6755 Y31.9754
G01 X49.6575 Y31.9908
G01 X49.6403 Y32.0072
G01 X49.5800 Y32.0677
G01 X49.5638 Y32.0858
G01 X49.5560 Y32.0951
G01 X49.5100 Y32.1520
G01 X49.4955 Y32.1710
G01 X49.4810 Y32.1923
G01 X46.3226 Y32.1924
G01 X46.2721 Y32.1947
G01 X46.2496 Y32.1964
G01 X46.2272 Y32.1992
G01 X46.1883 Y32.2049
G01 X46.1661 Y32.2088
G01 X46.1441 Y32.2137
G01 X46.1060 Y32.2233
G01 X46.0842 Y32.2293
G01 X46.0628 Y32.2364
G01 X46.0258 Y32.2496
G01 X46.0047 Y32.2577
G01 X45.9841 Y32.2669
G01 X45.9486 Y32.2837
G01 X45.9284 Y32.2938
G01 X45.9088 Y32.3050
G01 X45.8655 Y32.3311
G01 X45.8467 Y32.3436
G01 X45.7970 Y32.3805
G01 X45.7795 Y32.3948
G01 X45.7420 Y32.4287
G01 X45.7256 Y32.4442
G01 X44.8475 Y33.3223
G01 X44.8315 Y33.3228
G01 X44.7580 Y33.3264
G01 X44.7355 Y33.3281
G01 X44.7131 Y33.3308
G01 X44.6403 Y33.3416
G01 X44.6180 Y33.3455
G01 X44.5960 Y33.3505
G01 X44.5246 Y33.3683
G01 X44.5029 Y33.3744
G01 X44.4814 Y33.3814
G01 X44.4121 Y33.4062
G01 X44.3910 Y33.4144
G01 X44.3704 Y33.4235
G01 X44.3039 Y33.4550
G01 X44.2837 Y33.4651
G01 X44.2641 Y33.4763
G01 X44.2009 Y33.5141
G01 X44.1818 Y33.5262
G01 X44.1634 Y33.5392
G01 X44.1043 Y33.5830
G01 X44.0865 Y33.5969
G01 X44.0694 Y33.6117
G01 X44.0148 Y33.6611
G01 X43.9985 Y33.6767
G01 X43.9829 Y33.6930
G01 X43.9260 Y33.7560
G01 X43.9117 Y33.7735
G01 X43.9048 Y33.7825
G01 X43.8610 Y33.8416
G01 X43.8544 Y33.8507
G01 X43.8418 Y33.8695
G01 X43.7924 Y33.9520
G01 X43.7869 Y33.9619
G01 X43.7768 Y33.9821
G01 X43.7453 Y34.0486
G01 X43.7362 Y34.0692
G01 X43.7320 Y34.0797
G01 X43.7032 Y34.1596
G01 X43.6996 Y34.1703
G01 X43.6930 Y34.1919
G01 X43.6723 Y34.2742
G01 X43.6673 Y34.2962
G01 X43.6634 Y34.3185
G01 X43.6526 Y34.3913
G01 X43.6499 Y34.4137
G01 X43.6489 Y34.4250
G01 X43.6446 Y34.5097
G01 X43.6441 Y34.5323
G01 X43.6446 Y34.5549
G01 X43.6482 Y34.6284
G01 X43.6489 Y34.6397
G01 X43.6511 Y34.6621
G01 X43.6634 Y34.7461
G01 X43.6652 Y34.7573
G01 X43.6696 Y34.7794
G01 X43.6930 Y34.8727
G01 X43.6996 Y34.8943
G01 X43.7032 Y34.9050
G01 X43.7280 Y34.9743
G01 X43.7320 Y34.9849
G01 X43.7406 Y35.0058
G01 X43.7817 Y35.0927
G01 X43.7924 Y35.1126
G01 X43.7981 Y35.1224
G01 X43.8359 Y35.1855
G01 X43.8480 Y35.2046
G01 X43.8610 Y35.2230
G01 X43.9048 Y35.2822
G01 X43.9117 Y35.2912
G01 X43.9260 Y35.3086
G01 X43.9829 Y35.3716
G01 X43.9985 Y35.3880
G01 X44.0148 Y35.4035
G01 X44.0694 Y35.4530
G01 X44.0865 Y35.4677
G01 X44.1043 Y35.4816
G01 X44.1634 Y35.5254
G01 X44.1818 Y35.5384
G01 X44.2009 Y35.5505
G01 X44.2641 Y35.5884
G01 X44.2837 Y35.5995
G01 X44.3039 Y35.6096
G01 X44.3704 Y35.6411
G01 X44.3910 Y35.6503
G01 X44.4121 Y35.6584
G01 X44.4814 Y35.6832
G01 X44.5029 Y35.6903
G01 X44.5246 Y35.6963
G01 X44.5960 Y35.7142
G01 X44.6180 Y35.7191
G01 X44.6403 Y35.7230
G01 X44.7131 Y35.7338
G01 X44.7355 Y35.7365
G01 X44.7580 Y35.7382
G01 X44.8315 Y35.7418
G01 X44.8541 Y35.7424
G01 X44.8654 Y35.7422
G01 X44.9502 Y35.7382
G01 X44.9727 Y35.7365
G01 X44.9951 Y35.7338
G01 X45.0679 Y35.7230
G01 X45.0902 Y35.7191
G01 X45.1122 Y35.7142
G01 X45.1836 Y35.6963
G01 X45.2054 Y35.6903
G01 X45.2268 Y35.6832
G01 X45.2961 Y35.6584
G01 X45.3172 Y35.6503
G01 X45.3378 Y35.6411
G01 X45.4044 Y35.6096
G01 X45.4245 Y35.5995
G01 X45.4442 Y35.5884
G01 X45.5073 Y35.5505
G01 X45.5264 Y35.5384
G01 X45.5448 Y35.5254
G01 X45.6040 Y35.4816
G01 X45.6218 Y35.4677
G01 X45.6389 Y35.4530
G01 X45.6934 Y35.4035
G01 X45.7098 Y35.3880
G01 X45.7253 Y35.3716
G01 X45.7748 Y35.3171
G01 X45.7895 Y35.3000
G01 X45.8034 Y35.2822
G01 X45.8472 Y35.2230
G01 X45.8602 Y35.2046
G01 X45.8723 Y35.1855
G01 X45.9102 Y35.1224
G01 X45.9213 Y35.1027
G01 X45.9314 Y35.0826
G01 X45.9629 Y35.0160
G01 X45.9721 Y34.9954
G01 X45.9802 Y34.9743
G01 X46.0050 Y34.9050
G01 X46.0121 Y34.8836
G01 X46.0181 Y34.8618
G01 X46.0360 Y34.7904
G01 X46.0409 Y34.7684
G01 X46.0448 Y34.7461
G01 X46.0556 Y34.6733
G01 X46.0583 Y34.6509
G01 X46.0600 Y34.6284
G01 X46.0636 Y34.5549
G01 X46.0641 Y34.5389
G01 X46.6902 Y33.9128
G01 X49.4810 Y33.9128
G01 X49.4961 Y33.9348
G01 X49.5108 Y33.9540
G01 X49.5570 Y34.0109
G01 X49.5725 Y34.0289
G01 X49.5805 Y34.0376
G01 X49.6406 Y34.0979
G01 X49.6578 Y34.1142
G01 X49.6758 Y34.1296
G01 X49.7327 Y34.1758
G01 X49.7518 Y34.1906
G01 X49.7717 Y34.2043
G01 X49.8329 Y34.2441
G01 X49.8540 Y34.2571
G01 X49.8757 Y34.2689
G01 X49.9517 Y34.3073
G01 X49.9729 Y34.3167
G01 X49.9874 Y34.3225
G01 X49.9735 Y34.3280
G01 X49.9513 Y34.3378
G01 X49.8751 Y34.3765
G01 X49.8540 Y34.3879
G01 X49.8336 Y34.4004
G01 X49.7721 Y34.4403
G01 X49.7619 Y34.4471
G01 X49.7421 Y34.4616
G01 X49.6755 Y34.5154
G01 X49.6575 Y34.5308
G01 X49.6403 Y34.5472
G01 X49.5885 Y34.5990
G01 X49.5800 Y34.6077
G01 X49.5638 Y34.6258
G01 X49.5100 Y34.6920
G01 X49.4955 Y34.7110
G01 X49.4819 Y34.7308
G01 X49.4420 Y34.7922
G01 X49.4295 Y34.8127
G01 X49.4181 Y34.8337
G01 X49.3848 Y34.8990
G01 X49.3747 Y34.9202
G01 X49.3656 Y34.9420
G01 X49.3392 Y35.0103
G01 X49.3310 Y35.0334
G01 X49.3274 Y35.0450
G01 X49.3050 Y35.1277
G01 X49.2993 Y35.1514
G01 X49.2948 Y35.1753
G01 X49.2834 Y35.2477
G01 X49.2803 Y35.2716
G01 X49.2784 Y35.2955
G01 X49.2746 Y35.3687
G01 X49.2740 Y35.3926
G01 X49.2740 Y35.7924
G01 X49.2746 Y35.8163
G01 X49.2784 Y35.8897
G01 X49.2804 Y35.9145
G01 X49.2837 Y35.9391
G01 X49.2953 Y36.0115
G01 X49.2997 Y36.0349
G01 X49.3053 Y36.0580
G01 X49.3244 Y36.1286
G01 X49.3310 Y36.1509
G01 X49.3387 Y36.1728
G01 X49.3649 Y36.2414
G01 X49.3743 Y36.2641
G01 X49.3848 Y36.2863
G01 X49.4181 Y36.3516
G01 X49.4298 Y36.3730
G01 X49.4425 Y36.3938
G01 X49.4824 Y36.4550
G01 X49.4961 Y36.4748
G01 X49.5108 Y36.4940
G01 X49.5570 Y36.5509
G01 X49.5725 Y36.5689
G01 X49.5888 Y36.5861
G01 X49.6406 Y36.6379
G01 X49.6578 Y36.6542
G01 X49.6667 Y36.6620
G01 X49.7422 Y36.7233
G01 X49.7617 Y36.7375
G01 X49.7717 Y36.7443
G01 X49.8329 Y36.7841
G01 X49.8540 Y36.7971
G01 X49.8648 Y36.8031
G01 X49.9412 Y36.8421
G01 X49.9622 Y36.8521
G01 X49.9874 Y36.8625
G01 X49.9735 Y36.8680
G01 X49.9513 Y36.8778
G01 X49.8645 Y36.9221
G01 X49.8540 Y36.9279
G01 X49.8336 Y36.9404
G01 X49.7721 Y36.9803
G01 X49.7519 Y36.9942
G01 X49.7324 Y37.0092
G01 X49.6755 Y37.0554
G01 X49.6575 Y37.0708
G01 X49.6403 Y37.0872
G01 X49.5800 Y37.1477
G01 X49.5718 Y37.1566
G01 X49.5560 Y37.1751
G01 X49.5100 Y37.2320
G01 X49.4955 Y37.2510
G01 X49.4819 Y37.2708
G01 X49.4420 Y37.3322
G01 X49.4357 Y37.3424
G01 X49.4237 Y37.3631
G01 X49.3796 Y37.4495
G01 X49.3700 Y37.4711
G01 X49.3656 Y37.4820
G01 X49.3392 Y37.5503
G01 X49.3310 Y37.5734
G01 X49.3240 Y37.5968
G01 X49.3050 Y37.6677
G01 X49.2993 Y37.6914
G01 X49.2969 Y37.7033
G01 X49.2834 Y37.7877
G01 X49.2803 Y37.8116
G01 X49.2784 Y37.8355
G01 X49.2741 Y37.9206
G01 X49.2740 Y38.3324
G01 X49.2746 Y38.3563
G01 X49.2792 Y38.4421
G01 X49.2818 Y38.4668
G01 X49.2953 Y38.5515
G01 X49.2997 Y38.5749
G01 X49.3053 Y38.5980
G01 X49.3244 Y38.6686
G01 X49.3310 Y38.6909
G01 X49.3387 Y38.7128
G01 X49.3694 Y38.7928
G01 X49.3794 Y38.8153
G01 X49.3848 Y38.8263
G01 X49.4181 Y38.8916
G01 X49.4298 Y38.9130
G01 X49.4425 Y38.9338
G01 X49.4891 Y39.0050
G01 X49.5033 Y39.0245
G01 X49.5108 Y39.0340
G01 X49.5646 Y39.1000
G01 X49.5725 Y39.1089
G01 X49.5888 Y39.1261
G01 X49.6406 Y39.1779
G01 X49.6578 Y39.1942
G01 X49.6667 Y39.2020
G01 X49.7422 Y39.2633
G01 X49.7617 Y39.2775
G01 X49.7717 Y39.2843
G01 X49.8329 Y39.3241
G01 X49.8540 Y39.3371
G01 X49.8648 Y39.3431
G01 X49.9412 Y39.3821
G01 X49.9622 Y39.3921
G01 X49.9874 Y39.4025
G01 X49.9735 Y39.4080
G01 X49.9513 Y39.4178
G01 X49.8751 Y39.4565
G01 X49.8540 Y39.4679
G01 X49.8336 Y39.4804
G01 X49.7619 Y39.5271
G01 X49.7519 Y39.5342
G01 X49.7324 Y39.5492
G01 X49.6755 Y39.5954
G01 X49.6575 Y39.6108
G01 X49.6403 Y39.6272
G01 X49.5800 Y39.6877
G01 X49.5718 Y39.6966
G01 X49.5560 Y39.7151
G01 X49.5100 Y39.7720
G01 X49.4955 Y39.7910
G01 X49.4810 Y39.8123
G01 X37.5504 Y39.8123
G01 X36.9343 Y39.1961
G01 X36.9342 Y37.4311
G01 X36.9312 Y37.3693
G01 X36.9290 Y37.3468
G01 X36.9199 Y37.2856
G01 X36.9155 Y37.2635
G01 X36.9004 Y37.2034
G01 X36.8939 Y37.1818
G01 X36.8730 Y37.1236
G01 X36.8644 Y37.1027
G01 X36.8429 Y37.0569
G01 X36.8327 Y37.0368
G01 X36.8216 Y37.0171
G01 X36.8014 Y36.9834
G01 X36.7893 Y36.9643
G01 X36.7763 Y36.9459
G01 X36.7529 Y36.9143
G01 X36.7390 Y36.8965
G01 X36.7242 Y36.8794
G01 X36.6901 Y36.8420
G01 X36.1821 Y36.3341
G01 X36.1658 Y36.3185
G01 X36.1367 Y36.2922
G01 X36.1196 Y36.2774
G01 X36.1018 Y36.2635
G01 X36.0611 Y36.2335
G01 X36.0423 Y36.2210
G01 X36.0327 Y36.2151
G01 X35.9893 Y36.1892
G01 X35.9693 Y36.1786
G01 X35.9134 Y36.1522
G01 X35.8926 Y36.1435
G01 X35.8344 Y36.1227
G01 X35.8128 Y36.1162
G01 X35.8019 Y36.1133
G01 X35.7638 Y36.1037
G01 X35.7417 Y36.0988
G01 X35.7195 Y36.0949
G01 X35.6807 Y36.0892
G01 X35.6583 Y36.0864
G01 X35.6470 Y36.0854
G01 X35.5853 Y36.0824
G01 X29.8786 Y36.0823
G01 X29.6589 Y35.8625
G00 Z2.0000
G00 X29.9780 Y38.2125
G01 F200.00
G01 Z0.0000
G01 F600.00
G01 X30.0277 Y38.1628
G01 X34.8538 Y38.1628
G01 X34.8538 Y39.5524
G01 X34.8548 Y39.5926
G01 X34.8580 Y39.6519
G01 X34.8619 Y39.6920
G01 X34.8646 Y39.7119
G01 X34.8736 Y39.7706
G01 X34.8773 Y39.7904
G01 X34.8815 Y39.8101
G01 X34.8956 Y39.8678
G01 X34.9064 Y39.9065
G01 X34.9190 Y39.9448
G01 X34.9392 Y40.0006
G01 X34.9467 Y40.0193
G01 X34.9546 Y40.0378
G01 X34.9798 Y40.0916
G01 X34.9886 Y40.1097
G01 X35.0076 Y40.1451
G01 X35.0379 Y40.1962
G01 X35.0594 Y40.2302
G01 X35.0708 Y40.2468
G01 X35.1060 Y40.2947
G01 X35.1308 Y40.3264
G01 X35.1437 Y40.3418
G01 X35.1971 Y40.4007
G01 X36.3310 Y41.5353
G01 X36.3454 Y41.5493
G01 X36.3893 Y41.5894
G01 X36.4044 Y41.6027
G01 X36.4355 Y41.6283
G01 X36.4831 Y41.6639
G01 X36.5160 Y41.6871
G01 X36.5328 Y41.6980
G01 X36.5837 Y41.7288
G01 X36.6187 Y41.7486
G01 X36.6366 Y41.7579
G01 X36.6902 Y41.7835
G01 X36.7269 Y41.7998
G01 X36.7456 Y41.8073
G01 X36.8015 Y41.8276
G01 X36.8205 Y41.8341
G01 X36.8590 Y41.8458
G01 X36.9166 Y41.8605
G01 X36.9559 Y41.8693
G01 X36.9956 Y41.8762
G01 X37.0544 Y41.8847
G01 X37.0744 Y41.8869
G01 X37.1145 Y41.8898
G01 X37.1739 Y41.8925
G01 X37.1940 Y41.8928
G01 X49.3077 Y41.8928
G01 X49.3195 Y41.9055
G01 X49.3560 Y41.9424
G01 X49.3188 Y41.9799
G01 X49.3041 Y41.9959
G01 X49.2898 Y42.0122
G01 X49.2760 Y42.0289
G01 X49.2168 Y42.1025
G01 X49.2041 Y42.1197
G01 X49.1918 Y42.1371
G01 X49.1799 Y42.1548
G01 X49.1287 Y42.2344
G01 X49.1177 Y42.2527
G01 X49.1073 Y42.2713
G01 X49.0974 Y42.2902
G01 X49.0548 Y42.3743
G01 X49.0460 Y42.3934
G01 X49.0377 Y42.4127
G01 X49.0034 Y42.5005
G01 X48.9958 Y42.5209
G01 X48.9888 Y42.5416
G01 X48.9823 Y42.5624
G01 X48.9573 Y42.6542
G01 X48.9520 Y42.6753
G01 X48.9472 Y42.6965
G01 X48.9429 Y42.7178
G01 X48.9392 Y42.7392
G01 X48.9278 Y42.8116
G01 X48.9247 Y42.8328
G01 X48.9222 Y42.8541
G01 X48.9203 Y42.8754
G01 X48.9189 Y42.8968
G01 X48.9151 Y42.9700
G01 X48.9142 Y42.9913
G01 X48.9140 Y43.0126
G01 X48.9140 Y43.4124
G01 X48.9142 Y43.4337
G01 X48.9151 Y43.4549
G01 X48.9203 Y43.5504
G01 X48.9224 Y43.5725
G01 X48.9250 Y43.5945
G01 X48.9283 Y43.6165
G01 X48.9436 Y43.7098
G01 X48.9478 Y43.7306
G01 X48.9525 Y43.7512
G01 X48.9578 Y43.7718
G01 X48.9825 Y43.8623
G01 X48.9886 Y43.8821
G01 X48.9952 Y43.9017
G01 X49.0024 Y43.9211
G01 X49.0285 Y43.9897
G01 X49.0366 Y44.0100
G01 X49.0452 Y44.0302
G01 X49.0544 Y44.0501
G01 X49.0641 Y44.0698
G01 X49.0974 Y44.1351
G01 X49.1075 Y44.1543
G01 X49.1181 Y44.1732
G01 X49.1293 Y44.1919
G01 X49.1409 Y44.2103
G01 X49.1927 Y44.2893
G01 X49.2052 Y44.3069
G01 X49.2181 Y44.3241
G01 X49.2314 Y44.3410
G01 X49.2912 Y44.4141
G01 X49.3051 Y44.4300
G01 X49.3195 Y44.4455
G01 X49.3560 Y44.4824
G01 X49.3188 Y44.5199
G01 X49.3041 Y44.5359
G01 X49.2898 Y44.5522
G01 X49.2760 Y44.5689
G01 X49.2168 Y44.6425
G01 X49.2041 Y44.6597
G01 X49.1918 Y44.6771
G01 X49.1799 Y44.6948
G01 X49.1287 Y44.7744
G01 X49.1177 Y44.7927
G01 X49.1073 Y44.8113
G01 X49.0974 Y44.8302
G01 X49.0548 Y44.9143
G01 X49.0460 Y44.9334
G01 X49.0377 Y44.9527
G01 X49.0034 Y45.0405
G01 X48.9958 Y45.0609
G01 X48.9888 Y45.0816
G01 X48.9823 Y45.1024
G01 X48.9764 Y45.1233
G01 X48.9573 Y45.1942
G01 X48.9520 Y45.2153
G01 X48.9472 Y45.2365
G01 X48.9429 Y45.2578
G01 X48.9392 Y45.2792
G01 X48.9278 Y45.3516
G01 X48.9247 Y45.3728
G01 X48.9222 Y45.3941
G01 X48.9203 Y45.4154
G01 X48.9189 Y45.4368
G01 X48.9151 Y45.5100
G01 X48.9142 Y45.5313
G01 X48.9140 Y45.5526
G01 X48.9140 Y45.9524
G01 X48.9142 Y45.9737
G01 X48.9151 Y45.9949
G01 X48.9203 Y46.0904
G01 X48.9224 Y46.1125
G01 X48.9250 Y46.1345
G01 X48.9283 Y46.1565
G01 X48.9436 Y46.2498
G01 X48.9478 Y46.2706
G01 X48.9525 Y46.2912
G01 X48.9578 Y46.3118
G01 X48.9825 Y46.4023
G01 X48.9886 Y46.4221
G01 X48.9952 Y46.4417
G01 X49.0285 Y46.5297
G01 X49.0366 Y46.5500
G01 X49.0452 Y46.5702
G01 X49.0544 Y46.5901
G01 X49.0641 Y46.6098
G01 X49.1075 Y46.6943
G01 X49.1181 Y46.7132
G01 X49.1293 Y46.7319
G01 X49.1409 Y46.7503
G01 X49.1927 Y46.8293
G01 X49.2052 Y46.8469
G01 X49.2181 Y46.8641
G01 X49.2445 Y46.8970
G01 X48.8131 Y46.4660
G01 X48.7693 Y46.4259
G01 X48.7388 Y46.3996
G01 X48.7070 Y46.3748
G01 X48.6592 Y46.3396
G01 X48.6426 Y46.3282
G01 X48.6257 Y46.3173
G01 X48.5749 Y46.2865
G01 X48.5575 Y46.2764
G01 X48.5220 Y46.2574
G01 X48.4501 Y46.2234
G01 X48.4316 Y46.2155
G01 X48.3941 Y46.2010
G01 X48.3380 Y46.1812
G01 X48.3188 Y46.1751
G01 X48.2801 Y46.1644
G01 X48.2224 Y46.1502
G01 X48.1829 Y46.1423
G01 X48.1630 Y46.1391
G01 X48.1042 Y46.1307
G01 X48.0842 Y46.1284
G01 X48.0441 Y46.1255
G01 X47.9847 Y46.1228
G01 X47.9646 Y46.1226
G01 X39.2022 Y46.1226
G01 X39.1752 Y46.0993
G01 X39.1595 Y46.0868
G01 X39.1272 Y46.0628
G01 X39.0937 Y46.0404
G01 X39.0592 Y46.0197
G01 X39.0415 Y46.0100
G01 X39.0056 Y45.9919
G01 X38.9688 Y45.9756
G01 X38.9312 Y45.9611
G01 X38.9122 Y45.9546
G01 X38.8737 Y45.9429
G01 X38.8347 Y45.9331
G01 X38.7952 Y45.9253
G01 X38.7554 Y45.9194
G01 X38.7153 Y45.9154
G01 X38.6751 Y45.9135
G01 X38.6550 Y45.9132
G01 X38.4410 Y45.9132
G01 X38.4469 Y45.8828
G01 X38.4501 Y45.8629
G01 X38.4550 Y45.8230
G01 X38.4580 Y45.7828
G01 X38.4590 Y45.7426
G01 X38.4590 Y44.5234
G01 X38.4580 Y44.4832
G01 X38.4550 Y44.4430
G01 X38.4528 Y44.4230
G01 X38.4469 Y44.3832
G01 X38.4391 Y44.3437
G01 X38.4293 Y44.3047
G01 X38.4176 Y44.2662
G01 X38.4040 Y44.2283
G01 X38.3886 Y44.1911
G01 X38.3803 Y44.1728
G01 X38.3622 Y44.1369
G01 X38.3423 Y44.1018
G01 X38.3208 Y44.0678
G01 X38.2976 Y44.0349
G01 X38.2854 Y44.0189
G01 X38.2599 Y43.9878
G01 X38.2466 Y43.9727
G01 X38.2188 Y43.9436
G01 X38.1897 Y43.9158
G01 X38.1592 Y43.8895
G01 X38.1435 Y43.8770
G01 X38.1112 Y43.8530
G01 X38.0946 Y43.8416
G01 X38.0606 Y43.8201
G01 X38.0255 Y43.8002
G01 X37.9896 Y43.7821
G01 X37.9528 Y43.7658
G01 X37.9152 Y43.7513
G01 X37.8770 Y43.7387
G01 X37.8577 Y43.7331
G01 X37.8187 Y43.7233
G01 X37.7792 Y43.7155
G01 X37.7394 Y43.7096
G01 X37.6993 Y43.7056
G01 X37.6792 Y43.7044
G01 X37.6390 Y43.7034
G01 X37.4271 Y43.7034
G01 X32.3431 Y38.6197
G01 X32.3139 Y38.5919
G01 X32.2697 Y38.5522
G01 X32.2544 Y38.5392
G01 X32.2226 Y38.5145
G01 X32.1748 Y38.4793
G01 X32.1413 Y38.4569
G01 X32.1242 Y38.4464
G01 X32.0731 Y38.4161
G01 X32.0555 Y38.4064
G01 X32.0376 Y38.3971
G01 X31.9840 Y38.3715
G01 X31.9472 Y38.3552
G01 X31.9285 Y38.3477
G01 X31.8536 Y38.3209
G01 X31.8151 Y38.3092
G01 X31.7957 Y38.3041
G01 X31.7380 Y38.2899
G01 X31.7183 Y38.2857
G01 X31.6786 Y38.2788
G01 X31.6199 Y38.2704
G01 X31.5999 Y38.2681
G01 X31.5597 Y38.2652
G01 X31.5004 Y38.2625
G01 X31.4803 Y38.2623
G01 X30.0277 Y38.2623
G01 X29.9780 Y38.2125
G00 Z2.0000
G00 X32.2931 Y38.3428
G01 F200.00
G01 Z0.0000
G01 F600.00
G01 X34.6738 Y38.3428
G01 X34.6738 Y39.5524
G01 X34.6741 Y39.5769
G01 X34.6751 Y39.6014
G01 X34.6785 Y39.6652
G01 X34.6806 Y39.6896
G01 X34.6833 Y39.7140
G01 X34.6866 Y39.7383
G01 X34.6963 Y39.8014
G01 X34.7007 Y39.8255
G01 X34.7058 Y39.8495
G01 X34.7210 Y39.9115
G01 X34.7273 Y39.9352
G01 X34.7341 Y39.9588
G01 X34.7415 Y39.9822
G01 X34.7495 Y40.0054
G01 X34.7713 Y40.0654
G01 X34.7804 Y40.0882
G01 X34.7901 Y40.1107
G01 X34.8003 Y40.1330
G01 X34.8278 Y40.1906
G01 X34.8391 Y40.2124
G01 X34.8510 Y40.2339
G01 X34.8835 Y40.2887
G01 X34.8964 Y40.3096
G01 X34.9098 Y40.3302
G01 X34.9236 Y40.3504
G01 X34.9380 Y40.3703
G01 X34.9763 Y40.4214
G01 X34.9916 Y40.4406
G01 X35.0074 Y40.4594
G01 X35.0500 Y40.5068
G01 X35.0667 Y40.5248
G01 X35.0839 Y40.5424
G01 X36.2037 Y41.6625
G01 X36.2213 Y41.6797
G01 X36.2393 Y41.6964
G01 X36.2868 Y41.7390
G01 X36.3056 Y41.7548
G01 X36.3247 Y41.7702
G01 X36.3443 Y41.7850
G01 X36.3957 Y41.8228
G01 X36.4159 Y41.8367
G01 X36.4365 Y41.8501
G01 X36.4911 Y41.8832
G01 X36.5123 Y41.8955
G01 X36.5338 Y41.9074
G01 X36.5556 Y41.9187
G01 X36.5777 Y41.9294
G01 X36.6355 Y41.9565
G01 X36.6581 Y41.9661
G01 X36.6808 Y41.9753
G01 X36.7039 Y41.9838
G01 X36.7641 Y42.0050
G01 X36.7875 Y42.0124
G01 X36.8110 Y42.0193
G01 X36.8348 Y42.0255
G01 X36.8968 Y42.0408
G01 X36.9208 Y42.0458
G01 X36.9449 Y42.0503
G01 X36.9691 Y42.0542
G01 X37.0323 Y42.0633
G01 X37.0567 Y42.0660
G01 X37.0812 Y42.0681
G01 X37.1057 Y42.0696
G01 X37.1694 Y42.0725
G01 X37.1940 Y42.0728
G01 X49.0186 Y42.0728
G01 X48.9751 Y42.1404
G01 X48.9618 Y42.1627
G01 X48.9491 Y42.1854
G01 X48.9370 Y42.2085
G01 X48.8924 Y42.2967
G01 X48.8816 Y42.3200
G01 X48.8715 Y42.3435
G01 X48.8355 Y42.4356
G01 X48.8263 Y42.4605
G01 X48.8177 Y42.4857
G01 X48.8098 Y42.5110
G01 X48.8025 Y42.5366
G01 X48.7835 Y42.6075
G01 X48.7769 Y42.6332
G01 X48.7711 Y42.6590
G01 X48.7659 Y42.6850
G01 X48.7614 Y42.7111
G01 X48.7500 Y42.7835
G01 X48.7463 Y42.8094
G01 X48.7432 Y42.8353
G01 X48.7408 Y42.8614
G01 X48.7391 Y42.8874
G01 X48.7353 Y42.9606
G01 X48.7343 Y42.9866
G01 X48.7340 Y43.0126
G01 X48.7340 Y43.4124
G01 X48.7343 Y43.4383
G01 X48.7353 Y43.4642
G01 X48.7391 Y43.5376
G01 X48.7409 Y43.5646
G01 X48.7434 Y43.5916
G01 X48.7466 Y43.6184
G01 X48.7506 Y43.6452
G01 X48.7667 Y43.7430
G01 X48.7718 Y43.7684
G01 X48.7776 Y43.7936
G01 X48.8030 Y43.8893
G01 X48.8099 Y43.9136
G01 X48.8174 Y43.9377
G01 X48.8255 Y43.9616
G01 X48.8342 Y43.9852
G01 X48.8603 Y44.0538
G01 X48.8702 Y44.0787
G01 X48.8807 Y44.1033
G01 X48.8919 Y44.1275
G01 X48.9037 Y44.1515
G01 X48.9370 Y44.2168
G01 X48.9494 Y44.2403
G01 X48.9623 Y44.2634
G01 X48.9759 Y44.2861
G01 X48.9901 Y44.3085
G01 X49.0299 Y44.3697
G01 X49.0445 Y44.3915
G01 X49.0597 Y44.4129
G01 X49.0754 Y44.4339
G01 X49.1144 Y44.4824
G01 X49.0739 Y44.5331
G01 X49.0584 Y44.5540
G01 X49.0434 Y44.5752
G01 X49.0289 Y44.5969
G01 X48.9751 Y44.6804
G01 X48.9618 Y44.7027
G01 X48.9491 Y44.7254
G01 X48.9370 Y44.7485
G01 X48.8924 Y44.8367
G01 X48.8816 Y44.8600
G01 X48.8715 Y44.8835
G01 X48.8620 Y44.9073
G01 X48.8355 Y44.9756
G01 X48.8263 Y45.0005
G01 X48.8177 Y45.0257
G01 X48.8098 Y45.0510
G01 X48.8025 Y45.0766
G01 X48.7835 Y45.1475
G01 X48.7769 Y45.1732
G01 X48.7711 Y45.1990
G01 X48.7659 Y45.2250
G01 X48.7614 Y45.2511
G01 X48.7500 Y45.3235
G01 X48.7463 Y45.3494
G01 X48.7432 Y45.3753
G01 X48.7408 Y45.4014
G01 X48.7391 Y45.4274
G01 X48.7343 Y45.5266
G01 X48.7340 Y45.5526
G01 X48.7340 Y45.9524
G01 X48.7343 Y45.9783
G01 X48.7391 Y46.0776
G01 X48.7409 Y46.1046
G01 X48.7434 Y46.1316
G01 X48.7466 Y46.1584
G01 X48.7504 Y46.1839
G01 X48.7220 Y46.1652
G01 X48.7011 Y46.1523
G01 X48.6462 Y46.1198
G01 X48.6247 Y46.1079
G01 X48.6029 Y46.0966
G01 X48.5809 Y46.0859
G01 X48.5231 Y46.0588
G01 X48.5005 Y46.0492
G01 X48.4777 Y46.0401
G01 X48.4547 Y46.0315
G01 X48.3945 Y46.0103
G01 X48.3711 Y46.0029
G01 X48.3475 Y45.9960
G01 X48.2857 Y45.9802
G01 X48.2618 Y45.9746
G01 X48.2378 Y45.9695
G01 X48.2137 Y45.9650
G01 X48.1506 Y45.9553
G01 X48.1263 Y45.9520
G01 X48.1019 Y45.9493
G01 X48.0774 Y45.9472
G01 X48.0137 Y45.9438
G01 X47.9891 Y45.9429
G01 X47.9646 Y45.9426
G01 X39.2672 Y45.9426
G01 X39.2507 Y45.9300
G01 X39.2308 Y45.9156
G01 X39.2106 Y45.9017
G01 X39.1900 Y45.8884
G01 X39.1691 Y45.8755
G01 X39.1479 Y45.8631
G01 X39.1264 Y45.8513
G01 X39.1046 Y45.8400
G01 X39.0825 Y45.8292
G01 X39.0602 Y45.8190
G01 X39.0377 Y45.8093
G01 X39.0149 Y45.8002
G01 X38.9919 Y45.7917
G01 X38.9687 Y45.7837
G01 X38.9453 Y45.7763
G01 X38.9217 Y45.7694
G01 X38.8980 Y45.7632
G01 X38.8741 Y45.7575
G01 X38.8501 Y45.7524
G01 X38.8259 Y45.7479
G01 X38.8017 Y45.7440
G01 X38.7774 Y45.7407
G01 X38.7530 Y45.7380
G01 X38.7286 Y45.7359
G01 X38.7041 Y45.7344
G01 X38.6795 Y45.7335
G01 X38.6390 Y45.7332
G01 X38.6390 Y44.5234
G01 X38.6387 Y44.4989
G01 X38.6378 Y44.4743
G01 X38.6363 Y44.4498
G01 X38.6342 Y44.4254
G01 X38.6315 Y44.4010
G01 X38.6282 Y44.3767
G01 X38.6243 Y44.3524
G01 X38.6198 Y44.3283
G01 X38.6147 Y44.3043
G01 X38.6090 Y44.2804
G01 X38.6028 Y44.2567
G01 X38.5959 Y44.2331
G01 X38.5885 Y44.2097
G01 X38.5805 Y44.1865
G01 X38.5720 Y44.1635
G01 X38.5629 Y44.1407
G01 X38.5532 Y44.1182
G01 X38.5430 Y44.0959
G01 X38.5322 Y44.0738
G01 X38.5209 Y44.0520
G01 X38.5091 Y44.0305
G01 X38.4967 Y44.0093
G01 X38.4838 Y43.9884
G01 X38.4705 Y43.9678
G01 X38.4566 Y43.9476
G01 X38.4422 Y43.9277
G01 X38.4273 Y43.9082
G01 X38.4120 Y43.8890
G01 X38.3962 Y43.8702
G01 X38.3799 Y43.8519
G01 X38.3632 Y43.8339
G01 X38.3461 Y43.8163
G01 X38.3285 Y43.7992
G01 X38.3105 Y43.7825
G01 X38.2922 Y43.7662
G01 X38.2734 Y43.7504
G01 X38.2542 Y43.7351
G01 X38.2347 Y43.7202
G01 X38.2148 Y43.7058
G01 X38.1946 Y43.6919
G01 X38.1740 Y43.6786
G01 X38.1531 Y43.6657
G01 X38.1319 Y43.6533
G01 X38.1104 Y43.6415
G01 X38.0886 Y43.6302
G01 X38.0665 Y43.6194
G01 X38.0442 Y43.6092
G01 X38.0217 Y43.5995
G01 X37.9989 Y43.5904
G01 X37.9759 Y43.5819
G01 X37.9527 Y43.5739
G01 X37.9293 Y43.5665
G01 X37.9057 Y43.5596
G01 X37.8820 Y43.5534
G01 X37.8581 Y43.5477
G01 X37.8341 Y43.5426
G01 X37.8100 Y43.5381
G01 X37.7857 Y43.5342
G01 X37.7614 Y43.5309
G01 X37.7370 Y43.5282
G01 X37.7126 Y43.5261
G01 X37.6881 Y43.5246
G01 X37.6635 Y43.5237
G01 X37.6390 Y43.5234
G01 X37.5016 Y43.5234
G01 X32.4704 Y38.4924
G01 X32.4528 Y38.4752
G01 X32.4348 Y38.4585
G01 X32.3873 Y38.4159
G01 X32.3685 Y38.4001
G01 X32.3494 Y38.3848
G01 X32.2931 Y38.3428
G00 Z2.0000
G00 X32.7553 Y38.5228
G01 F200.00
G01 Z0.0000
G01 F600.00
G01 X34.4938 Y38.5228
G01 X34.4938 Y39.5524
G01 X34.4942 Y39.5813
G01 X34.4972 Y39.6495
G01 X34.4990 Y39.6784
G01 X34.5015 Y39.7072
G01 X34.5046 Y39.7360
G01 X34.5085 Y39.7647
G01 X34.5189 Y39.8322
G01 X34.5242 Y39.8606
G01 X34.5302 Y39.8889
G01 X34.5464 Y39.9552
G01 X34.5538 Y39.9832
G01 X34.5619 Y40.0110
G01 X34.5706 Y40.0386
G01 X34.5800 Y40.0660
G01 X34.6034 Y40.1301
G01 X34.6141 Y40.1570
G01 X34.6255 Y40.1836
G01 X34.6544 Y40.2455
G01 X34.6671 Y40.2715
G01 X34.6804 Y40.2972
G01 X34.6943 Y40.3226
G01 X34.7089 Y40.3476
G01 X34.7443 Y40.4059
G01 X34.7601 Y40.4302
G01 X34.7765 Y40.4541
G01 X34.7934 Y40.4775
G01 X34.8344 Y40.5321
G01 X34.8524 Y40.5547
G01 X34.8711 Y40.5769
G01 X34.9166 Y40.6277
G01 X34.9363 Y40.6489
G01 X34.9566 Y40.6696
G01 X36.0765 Y41.7898
G01 X36.0972 Y41.8100
G01 X36.1184 Y41.8297
G01 X36.1692 Y41.8753
G01 X36.1914 Y41.8940
G01 X36.2140 Y41.9121
G01 X36.2370 Y41.9296
G01 X36.2920 Y41.9700
G01 X36.3159 Y41.9864
G01 X36.3402 Y42.0022
G01 X36.3986 Y42.0376
G01 X36.4236 Y42.0521
G01 X36.4490 Y42.0661
G01 X36.4747 Y42.0795
G01 X36.5007 Y42.0922
G01 X36.5625 Y42.1210
G01 X36.5892 Y42.1324
G01 X36.6161 Y42.1432
G01 X36.6432 Y42.1533
G01 X36.7076 Y42.1759
G01 X36.7352 Y42.1847
G01 X36.7630 Y42.1928
G01 X36.7910 Y42.2001
G01 X36.8573 Y42.2164
G01 X36.8856 Y42.2224
G01 X36.9141 Y42.2277
G01 X36.9427 Y42.2323
G01 X37.0103 Y42.2420
G01 X37.0391 Y42.2451
G01 X37.0679 Y42.2476
G01 X37.0968 Y42.2494
G01 X37.1650 Y42.2524
G01 X37.1940 Y42.2528
G01 X48.7146 Y42.2528
G01 X48.7053 Y42.2743
G01 X48.6941 Y42.3024
G01 X48.6676 Y42.3707
G01 X48.6567 Y42.4001
G01 X48.6466 Y42.4298
G01 X48.6373 Y42.4597
G01 X48.6287 Y42.4899
G01 X48.6097 Y42.5607
G01 X48.6019 Y42.5910
G01 X48.5950 Y42.6215
G01 X48.5889 Y42.6522
G01 X48.5836 Y42.6830
G01 X48.5722 Y42.7554
G01 X48.5678 Y42.7860
G01 X48.5642 Y42.8166
G01 X48.5614 Y42.8473
G01 X48.5594 Y42.8781
G01 X48.5556 Y42.9512
G01 X48.5544 Y42.9819
G01 X48.5540 Y43.0126
G01 X48.5540 Y43.4124
G01 X48.5544 Y43.4430
G01 X48.5556 Y43.4736
G01 X48.5594 Y43.5470
G01 X48.5614 Y43.5788
G01 X48.5644 Y43.6106
G01 X48.5682 Y43.6423
G01 X48.5729 Y43.6738
G01 X48.5845 Y43.7462
G01 X48.5898 Y43.7763
G01 X48.5958 Y43.8062
G01 X48.6026 Y43.8360
G01 X48.6102 Y43.8656
G01 X48.6292 Y43.9362
G01 X48.6374 Y43.9648
G01 X48.6462 Y43.9933
G01 X48.6557 Y44.0215
G01 X48.6660 Y44.0494
G01 X48.6922 Y44.1180
G01 X48.7038 Y44.1473
G01 X48.7162 Y44.1763
G01 X48.7294 Y44.2050
G01 X48.7434 Y44.2333
G01 X48.7766 Y44.2986
G01 X48.7912 Y44.3262
G01 X48.8065 Y44.3535
G01 X48.8225 Y44.3803
G01 X48.8392 Y44.4068
G01 X48.8888 Y44.4825
G01 X48.8380 Y44.5604
G01 X48.8216 Y44.5864
G01 X48.8059 Y44.6128
G01 X48.7909 Y44.6395
G01 X48.7766 Y44.6667
G01 X48.7434 Y44.7320
G01 X48.7300 Y44.7591
G01 X48.7173 Y44.7866
G01 X48.7053 Y44.8143
G01 X48.6941 Y44.8424
G01 X48.6676 Y44.9107
G01 X48.6567 Y44.9401
G01 X48.6466 Y44.9698
G01 X48.6373 Y44.9997
G01 X48.6287 Y45.0299
G01 X48.6097 Y45.1007
G01 X48.6019 Y45.1310
G01 X48.5950 Y45.1615
G01 X48.5889 Y45.1922
G01 X48.5836 Y45.2230
G01 X48.5722 Y45.2954
G01 X48.5678 Y45.3260
G01 X48.5642 Y45.3566
G01 X48.5614 Y45.3873
G01 X48.5594 Y45.4181
G01 X48.5556 Y45.4912
G01 X48.5544 Y45.5219
G01 X48.5540 Y45.5526
G01 X48.5540 Y45.8767
G01 X48.5153 Y45.8620
G01 X48.4784 Y45.8488
G01 X48.4510 Y45.8394
G01 X48.4234 Y45.8306
G01 X48.3955 Y45.8225
G01 X48.3294 Y45.8056
G01 X48.3013 Y45.7989
G01 X48.2729 Y45.7929
G01 X48.2444 Y45.7876
G01 X48.2158 Y45.7830
G01 X48.1483 Y45.7734
G01 X48.1195 Y45.7702
G01 X48.0906 Y45.7677
G01 X48.0617 Y45.7659
G01 X47.9936 Y45.7629
G01 X47.9646 Y45.7626
G01 X39.3258 Y45.7626
G01 X39.3106 Y45.7521
G01 X39.2863 Y45.7363
G01 X39.2616 Y45.7211
G01 X39.2366 Y45.7065
G01 X39.2112 Y45.6925
G01 X39.1855 Y45.6792
G01 X39.1595 Y45.6665
G01 X39.1332 Y45.6544
G01 X39.1066 Y45.6430
G01 X39.0797 Y45.6323
G01 X39.0525 Y45.6222
G01 X39.0251 Y45.6128
G01 X38.9975 Y45.6040
G01 X38.9697 Y45.5960
G01 X38.9417 Y45.5886
G01 X38.9135 Y45.5819
G01 X38.8852 Y45.5759
G01 X38.8567 Y45.5706
G01 X38.8190 Y45.5647
G01 X38.8190 Y44.5234
G01 X38.8186 Y44.4944
G01 X38.8176 Y44.4655
G01 X38.8158 Y44.4366
G01 X38.8133 Y44.4077
G01 X38.8101 Y44.3790
G01 X38.8062 Y44.3503
G01 X38.8016 Y44.3217
G01 X38.7963 Y44.2932
G01 X38.7903 Y44.2649
G01 X38.7836 Y44.2367
G01 X38.7762 Y44.2087
G01 X38.7682 Y44.1809
G01 X38.7594 Y44.1533
G01 X38.7500 Y44.1259
G01 X38.7399 Y44.0987
G01 X38.7292 Y44.0718
G01 X38.7178 Y44.0452
G01 X38.7057 Y44.0189
G01 X38.6930 Y43.9929
G01 X38.6797 Y43.9672
G01 X38.6657 Y43.9418
G01 X38.6511 Y43.9168
G01 X38.6359 Y43.8921
G01 X38.6201 Y43.8678
G01 X38.6037 Y43.8440
G01 X38.5868 Y43.8205
G01 X38.5692 Y43.7974
G01 X38.5511 Y43.7748
G01 X38.5325 Y43.7527
G01 X38.5133 Y43.7310
G01 X38.4936 Y43.7098
G01 X38.4734 Y43.6890
G01 X38.4526 Y43.6688
G01 X38.4314 Y43.6491
G01 X38.4097 Y43.6299
G01 X38.3876 Y43.6113
G01 X38.3650 Y43.5932
G01 X38.3419 Y43.5756
G01 X38.3184 Y43.5587
G01 X38.2946 Y43.5423
