(G-CODE GENERATED BY FLATCAM v8.994 - www.flatcam.org - Version Date: 2020/11/7)

(Name: GearClockControl - BoardOutline.gbr_cutout_cnc)
(Type: G-code from Geometry)
(Units: MM)

(Created on Tuesday, 15 December 2020 at 19:32)

(This preprocessor is the default preprocessor used by FlatCAM.)
(It is made to work with MACH3 compatible motion controllers.)

(TOOL DIAMETER: 1.5 mm)
(Feedrate_XY: 120.0 mm/min)
(Feedrate_Z: 60.0 mm/min)
(Feedrate rapids 1500.0 mm/min)

(Z_Cut: -1.8 mm)
(DepthPerCut: 0.6 mm <=>3 passes)
(Z_Move: 2.0 mm)
(Z Start: None mm)
(Z End: 15.0 mm)
(X,Y End: None mm)
(Steps per circle: 64)
(Preprocessor Geometry: default)

(X range:   20.2716 ...  112.8260  mm)
(Y range:   -0.8501 ...   67.3549  mm)

(Spindle Speed: 0.0 RPM)
G21
G90
G94

G01 F120.00

M5
G00 Z15.0000
G00 X0.0000 Y0.0000
T1
M6    
(MSG, Change to Tool Dia = 1.5000)
M0
G00 Z15.0000

M03
G01 F120.00
G00 X20.2716 Y31.1024
G01 F60.00
G01 Z-0.6000
G01 F120.00
G01 X20.2716 Y-0.0001
G01 X20.2756 Y-0.0834
G01 X20.2879 Y-0.1659
G01 X20.3082 Y-0.2468
G01 X20.3363 Y-0.3254
G01 X20.3719 Y-0.4008
G01 X20.4148 Y-0.4723
G01 X20.4645 Y-0.5393
G01 X20.5205 Y-0.6011
G01 X20.5823 Y-0.6571
G01 X20.6493 Y-0.7068
G01 X20.7209 Y-0.7497
G01 X20.7963 Y-0.7854
G01 X20.8748 Y-0.8135
G01 X20.9557 Y-0.8337
G01 X21.0382 Y-0.8460
G01 X21.1216 Y-0.8501
G01 X64.3988 Y-0.8501
G00 X64.3988 Y-0.8501
G01 F60.00
G01 Z-1.2000
G01 F120.00
G01 X21.1216 Y-0.8501
G01 X21.0382 Y-0.8460
G01 X20.9557 Y-0.8337
G01 X20.8748 Y-0.8135
G01 X20.7963 Y-0.7854
G01 X20.7209 Y-0.7497
G01 X20.6493 Y-0.7068
G01 X20.5823 Y-0.6571
G01 X20.5205 Y-0.6011
G01 X20.4645 Y-0.5393
G01 X20.4148 Y-0.4723
G01 X20.3719 Y-0.4008
G01 X20.3363 Y-0.3254
G01 X20.3082 Y-0.2468
G01 X20.2879 Y-0.1659
G01 X20.2756 Y-0.0834
G01 X20.2716 Y-0.0001
G01 X20.2716 Y31.1024
G00 X20.2716 Y31.1024
G01 F60.00
G01 Z-1.8000
G01 F120.00
G01 X20.2716 Y-0.0001
G01 X20.2756 Y-0.0834
G01 X20.2879 Y-0.1659
G01 X20.3082 Y-0.2468
G01 X20.3363 Y-0.3254
G01 X20.3719 Y-0.4008
G01 X20.4148 Y-0.4723
G01 X20.4645 Y-0.5393
G01 X20.5205 Y-0.6011
G01 X20.5823 Y-0.6571
G01 X20.6493 Y-0.7068
G01 X20.7209 Y-0.7497
G01 X20.7963 Y-0.7854
G01 X20.8748 Y-0.8135
G01 X20.9557 Y-0.8337
G01 X21.0382 Y-0.8460
G01 X21.1216 Y-0.8501
G01 X64.3988 Y-0.8501
G00 Z2.0000
G00 X20.2716 Y35.6024
G01 F60.00
G01 Z-0.6000
G01 F120.00
G01 X20.2716 Y66.5049
G01 X20.2756 Y66.5882
G01 X20.2879 Y66.6707
G01 X20.3082 Y66.7516
G01 X20.3363 Y66.8302
G01 X20.3719 Y66.9056
G01 X20.4148 Y66.9771
G01 X20.4645 Y67.0441
G01 X20.5205 Y67.1059
G01 X20.5823 Y67.1620
G01 X20.6493 Y67.2116
G01 X20.7209 Y67.2545
G01 X20.7963 Y67.2902
G01 X20.8748 Y67.3183
G01 X20.9557 Y67.3386
G01 X21.0382 Y67.3508
G01 X21.1216 Y67.3549
G01 X64.3988 Y67.3549
G00 X64.3988 Y67.3549
G01 F60.00
G01 Z-1.2000
G01 F120.00
G01 X21.1216 Y67.3549
G01 X21.0382 Y67.3508
G01 X20.9557 Y67.3386
G01 X20.8748 Y67.3183
G01 X20.7963 Y67.2902
G01 X20.7209 Y67.2545
G01 X20.6493 Y67.2116
G01 X20.5823 Y67.1620
G01 X20.5205 Y67.1059
G01 X20.4645 Y67.0441
G01 X20.4148 Y66.9771
G01 X20.3719 Y66.9056
G01 X20.3363 Y66.8302
G01 X20.3082 Y66.7516
G01 X20.2879 Y66.6707
G01 X20.2756 Y66.5882
G01 X20.2716 Y66.5049
G01 X20.2716 Y35.6024
G00 X20.2716 Y35.6024
G01 F60.00
G01 Z-1.8000
G01 F120.00
G01 X20.2716 Y66.5049
G01 X20.2756 Y66.5882
G01 X20.2879 Y66.6707
G01 X20.3082 Y66.7516
G01 X20.3363 Y66.8302
G01 X20.3719 Y66.9056
G01 X20.4148 Y66.9771
G01 X20.4645 Y67.0441
G01 X20.5205 Y67.1059
G01 X20.5823 Y67.1620
G01 X20.6493 Y67.2116
G01 X20.7209 Y67.2545
G01 X20.7963 Y67.2902
G01 X20.8748 Y67.3183
G01 X20.9557 Y67.3386
G01 X21.0382 Y67.3508
G01 X21.1216 Y67.3549
G01 X64.3988 Y67.3549
G00 Z2.0000
G00 X68.8988 Y67.3549
G01 F60.00
G01 Z-0.6000
G01 F120.00
G01 X111.9760 Y67.3549
G01 X112.0593 Y67.3508
G01 X112.1418 Y67.3386
G01 X112.2227 Y67.3183
G01 X112.3013 Y67.2902
G01 X112.3767 Y67.2545
G01 X112.4482 Y67.2116
G01 X112.5152 Y67.1620
G01 X112.5770 Y67.1059
G01 X112.6330 Y67.0441
G01 X112.6827 Y66.9771
G01 X112.7256 Y66.9056
G01 X112.7613 Y66.8302
G01 X112.7894 Y66.7516
G01 X112.8096 Y66.6707
G01 X112.8219 Y66.5882
G01 X112.8260 Y66.5049
G01 X112.8260 Y35.6024
G00 X112.8260 Y35.6024
G01 F60.00
G01 Z-1.2000
G01 F120.00
G01 X112.8260 Y66.5049
G01 X112.8219 Y66.5882
G01 X112.8096 Y66.6707
G01 X112.7894 Y66.7516
G01 X112.7613 Y66.8302
G01 X112.7256 Y66.9056
G01 X112.6827 Y66.9771
G01 X112.6330 Y67.0441
G01 X112.5770 Y67.1059
G01 X112.5152 Y67.1620
G01 X112.4482 Y67.2116
G01 X112.3767 Y67.2545
G01 X112.3013 Y67.2902
G01 X112.2227 Y67.3183
G01 X112.1418 Y67.3386
G01 X112.0593 Y67.3508
G01 X111.9760 Y67.3549
G01 X68.8988 Y67.3549
G00 X68.8988 Y67.3549
G01 F60.00
G01 Z-1.8000
G01 F120.00
G01 X111.9760 Y67.3549
G01 X112.0593 Y67.3508
G01 X112.1418 Y67.3386
G01 X112.2227 Y67.3183
G01 X112.3013 Y67.2902
G01 X112.3767 Y67.2545
G01 X112.4482 Y67.2116
G01 X112.5152 Y67.1620
G01 X112.5770 Y67.1059
G01 X112.6330 Y67.0441
G01 X112.6827 Y66.9771
G01 X112.7256 Y66.9056
G01 X112.7613 Y66.8302
G01 X112.7894 Y66.7516
G01 X112.8096 Y66.6707
G01 X112.8219 Y66.5882
G01 X112.8260 Y66.5049
G01 X112.8260 Y35.6024
G00 Z2.0000
G00 X112.8260 Y31.1024
G01 F60.00
G01 Z-0.6000
G01 F120.00
G01 X112.8260 Y-0.0001
G01 X112.8219 Y-0.0834
G01 X112.8096 Y-0.1659
G01 X112.7894 Y-0.2468
G01 X112.7613 Y-0.3254
G01 X112.7256 Y-0.4008
G01 X112.6827 Y-0.4723
G01 X112.6330 Y-0.5393
G01 X112.5770 Y-0.6011
G01 X112.5152 Y-0.6571
G01 X112.4482 Y-0.7068
G01 X112.3767 Y-0.7497
G01 X112.3013 Y-0.7854
G01 X112.2227 Y-0.8135
G01 X112.1418 Y-0.8337
G01 X112.0593 Y-0.8460
G01 X111.9760 Y-0.8501
G01 X68.8988 Y-0.8501
G00 X68.8988 Y-0.8501
G01 F60.00
G01 Z-1.2000
G01 F120.00
G01 X111.9760 Y-0.8501
G01 X112.0593 Y-0.8460
G01 X112.1418 Y-0.8337
G01 X112.2227 Y-0.8135
G01 X112.3013 Y-0.7854
G01 X112.3767 Y-0.7497
G01 X112.4482 Y-0.7068
G01 X112.5152 Y-0.6571
G01 X112.5770 Y-0.6011
G01 X112.6330 Y-0.5393
G01 X112.6827 Y-0.4723
G01 X112.7256 Y-0.4008
G01 X112.7613 Y-0.3254
G01 X112.7894 Y-0.2468
G01 X112.8096 Y-0.1659
G01 X112.8219 Y-0.0834
G01 X112.8260 Y-0.0001
G01 X112.8260 Y31.1024
G00 X112.8260 Y31.1024
G01 F60.00
G01 Z-1.8000
G01 F120.00
G01 X112.8260 Y-0.0001
G01 X112.8219 Y-0.0834
G01 X112.8096 Y-0.1659
G01 X112.7894 Y-0.2468
G01 X112.7613 Y-0.3254
G01 X112.7256 Y-0.4008
G01 X112.6827 Y-0.4723
G01 X112.6330 Y-0.5393
G01 X112.5770 Y-0.6011
G01 X112.5152 Y-0.6571
G01 X112.4482 Y-0.7068
G01 X112.3767 Y-0.7497
G01 X112.3013 Y-0.7854
G01 X112.2227 Y-0.8135
G01 X112.1418 Y-0.8337
G01 X112.0593 Y-0.8460
G01 X111.9760 Y-0.8501
G01 X68.8988 Y-0.8501
G00 Z2.0000
M05
G00 Z2.0000
G00 Z15.00


