(G-CODE GENERATED BY FLATCAM v8.994 - www.flatcam.org - Version Date: 2020/11/7)

(Name: GearClockControl - Top Copper.gbr_iso_combined_cnc)
(Type: G-code from Geometry)
(Units: MM)

(Created on Tuesday, 15 December 2020 at 17:13)

(This preprocessor is the default preprocessor used by FlatCAM.)
(It is made to work with MACH3 compatible motion controllers.)

(TOOL DIAMETER: 0.2 mm)
(Feedrate_XY: 600.0 mm/min)
(Feedrate_Z: 200.0 mm/min)
(Feedrate rapids 1500.0 mm/min)

(Z_Cut: 0.0 mm)
(Z_Move: 2.0 mm)
(Z Start: None mm)
(Z End: 15.0 mm)
(X,Y End: None mm)
(Steps per circle: 64)
(Preprocessor Geometry: default)

(X range:   19.4016 ...  113.6960  mm)
(Y range:   -1.7201 ...   68.2249  mm)

(Spindle Speed: 0.0 RPM)
G21
G90
G94

G01 F600.00

M5
G00 Z15.0000
G00 X0.0000 Y0.0000
T1
M6    
(MSG, Change to Tool Dia = 0.2000)
M0
G00 Z15.0000

M03
G01 F600.00
G00 X21.5265 Y0.4049
G01 F200.00
G01 Z0.0000
G01 F600.00
G01 X111.5710 Y0.4049
G01 X111.5710 Y66.0999
G01 X21.5265 Y66.0999
G01 X21.5265 Y0.4049
G00 Z2.0000
G00 X21.7065 Y0.5849
G01 F200.00
G01 Z0.0000
G01 F600.00
G01 X111.3910 Y0.5849
G01 X111.3910 Y65.9199
G01 X21.7065 Y65.9199
G01 X21.7065 Y0.5849
G00 Z2.0000
G00 X21.8865 Y0.7649
G01 F200.00
G01 Z0.0000
G01 F600.00
G01 X111.2110 Y0.7649
G01 X111.2110 Y65.7399
G01 X21.8865 Y65.7399
G01 X21.8865 Y0.7649
G00 Z2.0000
G00 X22.0665 Y0.9449
G01 F200.00
G01 Z0.0000
G01 F600.00
G01 X111.0310 Y0.9449
G01 X111.0310 Y65.5599
G01 X22.0665 Y65.5599
G01 X22.0665 Y0.9449
G00 Z2.0000
G00 X22.2465 Y1.1249
G01 F200.00
G01 Z0.0000
G01 F600.00
G01 X110.8510 Y1.1249
G01 X110.8510 Y65.3799
G01 X22.2465 Y65.3799
G01 X22.2465 Y1.1249
G00 Z2.0000
G00 X26.6670 Y9.8611
G01 F200.00
G01 Z0.0000
G01 F600.00
G01 X27.2527 Y9.2753
G01 X27.2703 Y9.2582
G01 X27.2883 Y9.2415
G01 X27.3066 Y9.2252
G01 X27.3254 Y9.2094
G01 X27.3446 Y9.1941
G01 X27.3641 Y9.1792
G01 X27.3840 Y9.1649
G01 X27.4042 Y9.1510
G01 X27.4248 Y9.1376
G01 X27.4457 Y9.1247
G01 X27.4669 Y9.1124
G01 X27.4884 Y9.1005
G01 X27.5102 Y9.0892
G01 X27.5323 Y9.0785
G01 X27.5546 Y9.0682
G01 X27.5771 Y9.0586
G01 X27.5999 Y9.0495
G01 X27.6229 Y9.0409
G01 X27.6461 Y9.0329
G01 X27.6695 Y9.0255
G01 X27.6931 Y9.0187
G01 X27.7168 Y9.0124
G01 X27.7407 Y9.0068
G01 X27.7647 Y9.0017
G01 X27.7889 Y8.9972
G01 X27.8131 Y8.9933
G01 X27.8374 Y8.9900
G01 X27.8618 Y8.9873
G01 X27.8862 Y8.9852
G01 X27.9107 Y8.9837
G01 X27.9353 Y8.9828
G01 X27.9598 Y8.9825
G01 X28.7884 Y8.9825
G01 X28.8129 Y8.9828
G01 X28.8374 Y8.9837
G01 X28.8619 Y8.9852
G01 X28.8864 Y8.9873
G01 X28.9108 Y8.9900
G01 X28.9351 Y8.9933
G01 X28.9593 Y8.9972
G01 X28.9834 Y9.0017
G01 X29.0075 Y9.0068
G01 X29.0313 Y9.0124
G01 X29.0551 Y9.0187
G01 X29.0786 Y9.0255
G01 X29.1020 Y9.0329
G01 X29.1252 Y9.0409
G01 X29.1483 Y9.0495
G01 X29.1710 Y9.0586
G01 X29.1936 Y9.0682
G01 X29.2159 Y9.0785
G01 X29.2380 Y9.0892
G01 X29.2598 Y9.1005
G01 X29.2813 Y9.1124
G01 X29.3025 Y9.1247
G01 X29.3234 Y9.1376
G01 X29.3439 Y9.1510
G01 X29.3642 Y9.1649
G01 X29.3841 Y9.1792
G01 X29.4036 Y9.1941
G01 X29.4228 Y9.2094
G01 X29.4415 Y9.2252
G01 X29.4599 Y9.2415
G01 X29.4779 Y9.2582
G01 X29.4955 Y9.2753
G01 X30.0812 Y9.8611
G01 X30.0983 Y9.8786
G01 X30.1150 Y9.8966
G01 X30.1313 Y9.9150
G01 X30.1471 Y9.9338
G01 X30.1624 Y9.9529
G01 X30.1773 Y9.9725
G01 X30.1917 Y9.9924
G01 X30.2056 Y10.0126
G01 X30.2189 Y10.0332
G01 X30.2318 Y10.0541
G01 X30.2442 Y10.0753
G01 X30.2560 Y10.0968
G01 X30.2673 Y10.1186
G01 X30.2781 Y10.1406
G01 X30.2883 Y10.1629
G01 X30.2980 Y10.1855
G01 X30.3071 Y10.2083
G01 X30.3156 Y10.2313
G01 X30.3236 Y10.2545
G01 X30.3310 Y10.2779
G01 X30.3379 Y10.3015
G01 X30.3441 Y10.3252
G01 X30.3498 Y10.3491
G01 X30.3549 Y10.3731
G01 X30.3594 Y10.3972
G01 X30.3633 Y10.4214
G01 X30.3666 Y10.4458
G01 X30.3693 Y10.4702
G01 X30.3714 Y10.4946
G01 X30.3729 Y10.5191
G01 X30.3738 Y10.5436
G01 X30.3741 Y10.5682
G01 X30.3741 Y11.3967
G01 X30.3738 Y11.4213
G01 X30.3729 Y11.4458
G01 X30.3714 Y11.4703
G01 X30.3693 Y11.4947
G01 X30.3666 Y11.5191
G01 X30.3633 Y11.5435
G01 X30.3594 Y11.5677
G01 X30.3549 Y11.5918
G01 X30.3498 Y11.6158
G01 X30.3441 Y11.6397
G01 X30.3379 Y11.6634
G01 X30.3310 Y11.6870
G01 X30.3236 Y11.7104
G01 X30.3156 Y11.7336
G01 X30.3071 Y11.7566
G01 X30.2980 Y11.7794
G01 X30.2883 Y11.8020
G01 X30.2781 Y11.8243
G01 X30.2673 Y11.8463
G01 X30.2560 Y11.8681
G01 X30.2442 Y11.8896
G01 X30.2318 Y11.9108
G01 X30.2189 Y11.9317
G01 X30.2056 Y11.9523
G01 X30.1917 Y11.9725
G01 X30.1773 Y11.9924
G01 X30.1624 Y12.0120
G01 X30.1471 Y12.0311
G01 X30.1313 Y12.0499
G01 X30.1150 Y12.0683
G01 X30.0983 Y12.0863
G01 X30.0812 Y12.1038
G01 X29.9326 Y12.2525
G01 X30.0812 Y12.4011
G01 X30.0983 Y12.4186
G01 X30.1150 Y12.4366
G01 X30.1313 Y12.4550
G01 X30.1471 Y12.4738
G01 X30.1624 Y12.4929
G01 X30.1773 Y12.5125
G01 X30.1917 Y12.5324
G01 X30.2056 Y12.5526
G01 X30.2189 Y12.5732
G01 X30.2318 Y12.5941
G01 X30.2442 Y12.6153
G01 X30.2560 Y12.6368
G01 X30.2673 Y12.6586
G01 X30.2781 Y12.6806
G01 X30.2883 Y12.7029
G01 X30.2980 Y12.7255
G01 X30.3071 Y12.7483
G01 X30.3156 Y12.7713
G01 X30.3236 Y12.7945
G01 X30.3310 Y12.8179
G01 X30.3379 Y12.8415
G01 X30.3441 Y12.8652
G01 X30.3498 Y12.8891
G01 X30.3549 Y12.9131
G01 X30.3594 Y12.9372
G01 X30.3633 Y12.9614
G01 X30.3666 Y12.9858
G01 X30.3693 Y13.0102
G01 X30.3714 Y13.0346
G01 X30.3729 Y13.0591
G01 X30.3738 Y13.0836
G01 X30.3741 Y13.1082
G01 X30.3741 Y13.9367
G01 X30.3738 Y13.9613
G01 X30.3729 Y13.9858
G01 X30.3714 Y14.0103
G01 X30.3693 Y14.0347
G01 X30.3666 Y14.0591
G01 X30.3633 Y14.0835
G01 X30.3594 Y14.1077
G01 X30.3549 Y14.1318
G01 X30.3498 Y14.1558
G01 X30.3441 Y14.1797
G01 X30.3379 Y14.2034
G01 X30.3310 Y14.2270
G01 X30.3236 Y14.2504
G01 X30.3156 Y14.2736
G01 X30.3071 Y14.2966
G01 X30.2980 Y14.3194
G01 X30.2883 Y14.3420
G01 X30.2781 Y14.3643
G01 X30.2673 Y14.3863
G01 X30.2560 Y14.4081
G01 X30.2442 Y14.4296
G01 X30.2318 Y14.4508
G01 X30.2189 Y14.4717
G01 X30.2056 Y14.4923
G01 X30.1917 Y14.5125
G01 X30.1773 Y14.5324
G01 X30.1624 Y14.5520
G01 X30.1471 Y14.5711
G01 X30.1313 Y14.5899
G01 X30.1150 Y14.6083
G01 X30.0983 Y14.6263
G01 X30.0812 Y14.6438
G01 X29.9326 Y14.7925
G01 X30.0812 Y14.9411
G01 X30.0983 Y14.9586
G01 X30.1150 Y14.9766
G01 X30.1313 Y14.9950
G01 X30.1471 Y15.0138
G01 X30.1624 Y15.0329
G01 X30.1773 Y15.0525
G01 X30.1917 Y15.0724
G01 X30.2056 Y15.0926
G01 X30.2189 Y15.1132
G01 X30.2318 Y15.1341
G01 X30.2442 Y15.1553
G01 X30.2560 Y15.1768
G01 X30.2673 Y15.1986
G01 X30.2781 Y15.2206
G01 X30.2883 Y15.2429
G01 X30.2980 Y15.2655
G01 X30.3071 Y15.2883
G01 X30.3156 Y15.3113
G01 X30.3236 Y15.3345
G01 X30.3310 Y15.3579
G01 X30.3379 Y15.3815
G01 X30.3441 Y15.4052
G01 X30.3498 Y15.4291
G01 X30.3549 Y15.4531
G01 X30.3594 Y15.4772
G01 X30.3633 Y15.5014
G01 X30.3666 Y15.5258
G01 X30.3693 Y15.5502
G01 X30.3714 Y15.5746
G01 X30.3729 Y15.5991
G01 X30.3738 Y15.6236
G01 X30.3741 Y15.6482
G01 X30.3741 Y16.4767
G01 X30.3738 Y16.5013
G01 X30.3729 Y16.5258
G01 X30.3714 Y16.5503
G01 X30.3693 Y16.5747
G01 X30.3666 Y16.5991
G01 X30.3633 Y16.6235
G01 X30.3594 Y16.6477
G01 X30.3549 Y16.6718
G01 X30.3498 Y16.6958
G01 X30.3441 Y16.7197
G01 X30.3379 Y16.7434
G01 X30.3310 Y16.7670
G01 X30.3236 Y16.7904
G01 X30.3156 Y16.8136
G01 X30.3071 Y16.8366
G01 X30.2980 Y16.8594
G01 X30.2883 Y16.8820
G01 X30.2781 Y16.9043
G01 X30.2673 Y16.9263
G01 X30.2560 Y16.9481
G01 X30.2442 Y16.9696
G01 X30.2318 Y16.9908
G01 X30.2189 Y17.0117
G01 X30.2005 Y17.0396
G01 X30.2189 Y17.0675
G01 X30.2318 Y17.0884
G01 X30.2442 Y17.1096
G01 X30.2560 Y17.1311
G01 X30.2673 Y17.1528
G01 X30.2781 Y17.1749
G01 X30.2883 Y17.1972
G01 X30.2980 Y17.2198
G01 X30.3071 Y17.2426
G01 X30.3156 Y17.2656
G01 X30.3236 Y17.2888
G01 X30.3310 Y17.3122
G01 X30.3379 Y17.3357
G01 X30.3441 Y17.3595
G01 X30.3498 Y17.3834
G01 X30.3549 Y17.4074
G01 X30.3594 Y17.4315
G01 X30.3633 Y17.4557
G01 X30.3666 Y17.4800
G01 X30.3693 Y17.5044
G01 X30.3714 Y17.5289
G01 X30.3729 Y17.5534
G01 X30.3738 Y17.5779
G01 X30.3741 Y17.6025
G01 X30.3741 Y19.6024
G01 X30.3738 Y19.6270
G01 X30.3729 Y19.6515
G01 X30.3714 Y19.6760
G01 X30.3693 Y19.7005
G01 X30.3666 Y19.7249
G01 X30.3633 Y19.7492
G01 X30.3594 Y19.7734
G01 X30.3549 Y19.7975
G01 X30.3498 Y19.8215
G01 X30.3441 Y19.8454
G01 X30.3379 Y19.8692
G01 X30.3310 Y19.8927
G01 X30.3236 Y19.9161
G01 X30.3156 Y19.9393
G01 X30.3071 Y19.9623
G01 X30.2980 Y19.9851
G01 X30.2883 Y20.0077
G01 X30.2781 Y20.0300
G01 X30.2673 Y20.0521
G01 X30.2560 Y20.0738
G01 X30.2442 Y20.0953
G01 X30.2318 Y20.1166
G01 X30.2189 Y20.1374
G01 X30.2056 Y20.1580
G01 X30.1917 Y20.1783
G01 X30.1773 Y20.1981
G01 X30.1624 Y20.2177
G01 X30.1471 Y20.2368
G01 X30.1313 Y20.2556
G01 X30.1150 Y20.2740
G01 X30.0983 Y20.2920
G01 X30.0812 Y20.3096
G01 X30.0636 Y20.3267
G01 X30.0456 Y20.3434
G01 X30.0273 Y20.3597
G01 X30.0085 Y20.3755
G01 X29.9893 Y20.3908
G01 X29.9698 Y20.4057
G01 X29.9499 Y20.4200
G01 X29.9297 Y20.4339
G01 X29.9091 Y20.4473
G01 X29.8882 Y20.4602
G01 X29.8670 Y20.4725
G01 X29.8455 Y20.4844
G01 X29.8237 Y20.4957
G01 X29.8016 Y20.5064
G01 X29.7793 Y20.5167
G01 X29.7568 Y20.5263
G01 X29.7340 Y20.5354
G01 X29.7110 Y20.5440
G01 X29.6878 Y20.5520
G01 X29.6644 Y20.5594
G01 X29.6408 Y20.5662
G01 X29.6171 Y20.5725
G01 X29.5932 Y20.5781
G01 X29.5692 Y20.5832
G01 X29.5450 Y20.5877
G01 X29.5208 Y20.5916
G01 X29.4965 Y20.5949
G01 X29.4721 Y20.5976
G01 X29.4476 Y20.5997
G01 X29.4231 Y20.6012
G01 X29.3986 Y20.6021
G01 X29.3741 Y20.6024
G01 X27.3741 Y20.6024
G01 X27.3495 Y20.6021
G01 X27.3250 Y20.6012
G01 X27.3005 Y20.5997
G01 X27.2761 Y20.5976
G01 X27.2517 Y20.5949
G01 X27.2274 Y20.5916
G01 X27.2031 Y20.5877
G01 X27.1790 Y20.5832
G01 X27.1550 Y20.5781
G01 X27.1311 Y20.5725
G01 X27.1074 Y20.5662
G01 X27.0838 Y20.5594
G01 X27.0604 Y20.5520
G01 X27.0372 Y20.5440
G01 X27.0142 Y20.5354
G01 X26.9914 Y20.5263
G01 X26.9688 Y20.5167
G01 X26.9465 Y20.5064
G01 X26.9245 Y20.4957
G01 X26.9027 Y20.4844
G01 X26.8812 Y20.4725
G01 X26.8600 Y20.4602
G01 X26.8391 Y20.4473
G01 X26.8185 Y20.4339
G01 X26.7983 Y20.4200
G01 X26.7784 Y20.4057
G01 X26.7589 Y20.3908
G01 X26.7397 Y20.3755
G01 X26.7209 Y20.3597
G01 X26.7025 Y20.3434
G01 X26.6846 Y20.3267
G01 X26.6670 Y20.3096
G01 X26.6498 Y20.2920
G01 X26.6331 Y20.2740
G01 X26.6169 Y20.2556
G01 X26.6011 Y20.2368
G01 X26.5857 Y20.2177
G01 X26.5709 Y20.1981
G01 X26.5565 Y20.1783
G01 X26.5426 Y20.1580
G01 X26.5292 Y20.1374
G01 X26.5164 Y20.1166
G01 X26.5040 Y20.0953
G01 X26.4922 Y20.0738
G01 X26.4809 Y20.0521
G01 X26.4701 Y20.0300
G01 X26.4599 Y20.0077
G01 X26.4502 Y19.9851
G01 X26.4411 Y19.9623
G01 X26.4325 Y19.9393
G01 X26.4246 Y19.9161
G01 X26.4172 Y19.8927
G01 X26.4103 Y19.8692
G01 X26.4041 Y19.8454
G01 X26.3984 Y19.8215
G01 X26.3933 Y19.7975
G01 X26.3888 Y19.7734
G01 X26.3849 Y19.7492
G01 X26.3816 Y19.7249
G01 X26.3789 Y19.7005
G01 X26.3768 Y19.6760
G01 X26.3753 Y19.6515
G01 X26.3744 Y19.6270
G01 X26.3741 Y19.6024
G01 X26.3741 Y17.6025
G01 X26.3744 Y17.5779
G01 X26.3753 Y17.5534
G01 X26.3768 Y17.5289
G01 X26.3789 Y17.5044
G01 X26.3816 Y17.4800
G01 X26.3849 Y17.4557
G01 X26.3888 Y17.4315
G01 X26.3933 Y17.4074
G01 X26.3984 Y17.3834
G01 X26.4041 Y17.3595
G01 X26.4103 Y17.3357
G01 X26.4172 Y17.3122
G01 X26.4246 Y17.2888
G01 X26.4325 Y17.2656
G01 X26.4411 Y17.2426
G01 X26.4502 Y17.2198
G01 X26.4599 Y17.1972
G01 X26.4701 Y17.1749
G01 X26.4809 Y17.1528
G01 X26.4922 Y17.1311
G01 X26.5040 Y17.1096
G01 X26.5164 Y17.0884
G01 X26.5292 Y17.0675
G01 X26.5476 Y17.0396
G01 X26.5292 Y17.0117
G01 X26.5164 Y16.9908
G01 X26.5040 Y16.9696
G01 X26.4922 Y16.9481
G01 X26.4809 Y16.9263
G01 X26.4701 Y16.9043
G01 X26.4599 Y16.8820
G01 X26.4502 Y16.8594
G01 X26.4411 Y16.8366
G01 X26.4325 Y16.8136
G01 X26.4246 Y16.7904
G01 X26.4172 Y16.7670
G01 X26.4103 Y16.7434
G01 X26.4041 Y16.7197
G01 X26.3984 Y16.6958
G01 X26.3933 Y16.6718
G01 X26.3888 Y16.6477
G01 X26.3849 Y16.6235
G01 X26.3816 Y16.5991
G01 X26.3789 Y16.5747
G01 X26.3768 Y16.5503
G01 X26.3753 Y16.5258
G01 X26.3744 Y16.5013
G01 X26.3741 Y16.4767
G01 X26.3741 Y15.6482
G01 X26.3744 Y15.6236
G01 X26.3753 Y15.5991
G01 X26.3768 Y15.5746
G01 X26.3789 Y15.5502
G01 X26.3816 Y15.5258
G01 X26.3849 Y15.5014
G01 X26.3888 Y15.4772
G01 X26.3933 Y15.4531
G01 X26.3984 Y15.4291
G01 X26.4041 Y15.4052
G01 X26.4103 Y15.3815
G01 X26.4172 Y15.3579
G01 X26.4246 Y15.3345
G01 X26.4325 Y15.3113
G01 X26.4411 Y15.2883
G01 X26.4502 Y15.2655
G01 X26.4599 Y15.2429
G01 X26.4701 Y15.2206
G01 X26.4809 Y15.1986
G01 X26.4922 Y15.1768
G01 X26.5040 Y15.1553
G01 X26.5164 Y15.1341
G01 X26.5292 Y15.1132
G01 X26.5426 Y15.0926
G01 X26.5565 Y15.0724
G01 X26.5709 Y15.0525
G01 X26.5857 Y15.0329
G01 X26.6011 Y15.0138
G01 X26.6169 Y14.9950
G01 X26.6331 Y14.9766
G01 X26.6498 Y14.9586
G01 X26.6670 Y14.9411
G01 X26.8156 Y14.7925
G01 X26.6670 Y14.6438
G01 X26.6498 Y14.6263
G01 X26.6331 Y14.6083
G01 X26.6169 Y14.5899
G01 X26.6011 Y14.5711
G01 X26.5857 Y14.5520
G01 X26.5709 Y14.5324
G01 X26.5565 Y14.5125
G01 X26.5426 Y14.4923
G01 X26.5292 Y14.4717
G01 X26.5164 Y14.4508
G01 X26.5040 Y14.4296
G01 X26.4922 Y14.4081
G01 X26.4809 Y14.3863
G01 X26.4701 Y14.3643
G01 X26.4599 Y14.3420
G01 X26.4502 Y14.3194
G01 X26.4411 Y14.2966
G01 X26.4325 Y14.2736
G01 X26.4246 Y14.2504
G01 X26.4172 Y14.2270
G01 X26.4103 Y14.2034
G01 X26.4041 Y14.1797
G01 X26.3984 Y14.1558
G01 X26.3933 Y14.1318
G01 X26.3888 Y14.1077
G01 X26.3849 Y14.0835
G01 X26.3816 Y14.0591
G01 X26.3789 Y14.0347
G01 X26.3768 Y14.0103
G01 X26.3753 Y13.9858
G01 X26.3744 Y13.9613
G01 X26.3741 Y13.9367
G01 X26.3741 Y13.1082
G01 X26.3744 Y13.0836
G01 X26.3753 Y13.0591
G01 X26.3768 Y13.0346
G01 X26.3789 Y13.0102
G01 X26.3816 Y12.9858
G01 X26.3849 Y12.9614
G01 X26.3888 Y12.9372
G01 X26.3933 Y12.9131
G01 X26.3984 Y12.8891
G01 X26.4041 Y12.8652
G01 X26.4103 Y12.8415
G01 X26.4172 Y12.8179
G01 X26.4246 Y12.7945
G01 X26.4325 Y12.7713
G01 X26.4411 Y12.7483
G01 X26.4502 Y12.7255
G01 X26.4599 Y12.7029
G01 X26.4701 Y12.6806
G01 X26.4809 Y12.6586
G01 X26.4922 Y12.6368
G01 X26.5040 Y12.6153
G01 X26.5164 Y12.5941
G01 X26.5292 Y12.5732
G01 X26.5426 Y12.5526
G01 X26.5565 Y12.5324
G01 X26.5709 Y12.5125
G01 X26.5857 Y12.4929
G01 X26.6011 Y12.4738
G01 X26.6169 Y12.4550
G01 X26.6331 Y12.4366
G01 X26.6498 Y12.4186
G01 X26.6670 Y12.4011
G01 X26.8156 Y12.2525
G01 X26.6670 Y12.1038
G01 X26.6498 Y12.0863
G01 X26.6331 Y12.0683
G01 X26.6169 Y12.0499
G01 X26.6011 Y12.0311
G01 X26.5857 Y12.0120
G01 X26.5709 Y11.9924
G01 X26.5565 Y11.9725
G01 X26.5426 Y11.9523
G01 X26.5292 Y11.9317
G01 X26.5164 Y11.9108
G01 X26.5040 Y11.8896
G01 X26.4922 Y11.8681
G01 X26.4809 Y11.8463
G01 X26.4701 Y11.8243
G01 X26.4599 Y11.8020
G01 X26.4502 Y11.7794
G01 X26.4411 Y11.7566
G01 X26.4325 Y11.7336
G01 X26.4246 Y11.7104
G01 X26.4172 Y11.6870
G01 X26.4103 Y11.6634
G01 X26.4041 Y11.6397
G01 X26.3984 Y11.6158
G01 X26.3933 Y11.5918
G01 X26.3888 Y11.5677
G01 X26.3849 Y11.5435
G01 X26.3816 Y11.5191
G01 X26.3789 Y11.4947
G01 X26.3768 Y11.4703
G01 X26.3753 Y11.4458
G01 X26.3744 Y11.4213
G01 X26.3741 Y11.3967
G01 X26.3741 Y10.5682
G01 X26.3744 Y10.5436
G01 X26.3753 Y10.5191
G01 X26.3768 Y10.4946
G01 X26.3789 Y10.4702
G01 X26.3816 Y10.4458
G01 X26.3849 Y10.4214
G01 X26.3888 Y10.3972
G01 X26.3933 Y10.3731
G01 X26.3984 Y10.3491
G01 X26.4041 Y10.3252
G01 X26.4103 Y10.3015
G01 X26.4172 Y10.2779
G01 X26.4246 Y10.2545
G01 X26.4325 Y10.2313
G01 X26.4411 Y10.2083
G01 X26.4502 Y10.1855
G01 X26.4599 Y10.1629
G01 X26.4701 Y10.1406
G01 X26.4809 Y10.1186
G01 X26.4922 Y10.0968
G01 X26.5040 Y10.0753
G01 X26.5164 Y10.0541
G01 X26.5292 Y10.0332
G01 X26.5426 Y10.0126
G01 X26.5565 Y9.9924
G01 X26.5709 Y9.9725
G01 X26.5857 Y9.9529
G01 X26.6011 Y9.9338
G01 X26.6169 Y9.9150
G01 X26.6331 Y9.8966
G01 X26.6498 Y9.8786
G01 X26.6670 Y9.8611
G00 Z2.0000
G00 X26.7943 Y9.9884
G01 F200.00
G01 Z0.0000
G01 F600.00
G01 X27.3800 Y9.4026
G01 X27.4091 Y9.3749
G01 X27.4396 Y9.3486
G01 X27.4713 Y9.3238
G01 X27.5042 Y9.3007
G01 X27.5211 Y9.2897
G01 X27.5556 Y9.2690
G01 X27.5911 Y9.2500
G01 X27.6275 Y9.2328
G01 X27.6647 Y9.2174
G01 X27.6836 Y9.2104
G01 X27.7218 Y9.1978
G01 X27.7411 Y9.1922
G01 X27.7802 Y9.1824
G01 X27.7998 Y9.1782
G01 X27.8395 Y9.1713
G01 X27.8794 Y9.1664
G01 X27.9196 Y9.1634
G01 X27.9598 Y9.1625
G01 X28.7884 Y9.1625
G01 X28.8286 Y9.1634
G01 X28.8687 Y9.1664
G01 X28.9087 Y9.1713
G01 X28.9285 Y9.1745
G01 X28.9483 Y9.1782
G01 X28.9876 Y9.1870
G01 X29.0264 Y9.1978
G01 X29.0646 Y9.2104
G01 X29.1022 Y9.2249
G01 X29.1207 Y9.2328
G01 X29.1570 Y9.2500
G01 X29.1749 Y9.2593
G01 X29.2099 Y9.2791
G01 X29.2439 Y9.3007
G01 X29.2768 Y9.3238
G01 X29.2928 Y9.3360
G01 X29.3086 Y9.3486
G01 X29.3390 Y9.3749
G01 X29.3682 Y9.4026
G01 X29.9539 Y9.9884
G01 X29.9817 Y10.0175
G01 X29.9950 Y10.0326
G01 X30.0205 Y10.0637
G01 X30.0445 Y10.0960
G01 X30.0669 Y10.1295
G01 X30.0876 Y10.1640
G01 X30.0973 Y10.1816
G01 X30.1154 Y10.2176
G01 X30.1317 Y10.2544
G01 X30.1461 Y10.2919
G01 X30.1588 Y10.3301
G01 X30.1644 Y10.3495
G01 X30.1742 Y10.3885
G01 X30.1783 Y10.4082
G01 X30.1852 Y10.4479
G01 X30.1879 Y10.4678
G01 X30.1919 Y10.5079
G01 X30.1931 Y10.5279
G01 X30.1941 Y10.5682
G01 X30.1938 Y11.4168
G01 X30.1931 Y11.4370
G01 X30.1901 Y11.4771
G01 X30.1852 Y11.5170
G01 X30.1783 Y11.5567
G01 X30.1695 Y11.5960
G01 X30.1588 Y11.6348
G01 X30.1461 Y11.6730
G01 X30.1317 Y11.7105
G01 X30.1154 Y11.7473
G01 X30.0973 Y11.7833
G01 X30.0774 Y11.8183
G01 X30.0559 Y11.8523
G01 X30.0327 Y11.8852
G01 X30.0079 Y11.9169
G01 X29.9950 Y11.9323
G01 X29.9680 Y11.9621
G01 X29.6780 Y12.2525
G01 X29.9680 Y12.5428
G01 X29.9950 Y12.5726
G01 X30.0205 Y12.6037
G01 X30.0445 Y12.6360
G01 X30.0669 Y12.6695
G01 X30.0876 Y12.7040
G01 X30.0973 Y12.7216
G01 X30.1154 Y12.7576
G01 X30.1317 Y12.7944
G01 X30.1461 Y12.8319
G01 X30.1588 Y12.8701
G01 X30.1695 Y12.9089
G01 X30.1742 Y12.9285
G01 X30.1783 Y12.9482
G01 X30.1852 Y12.9879
G01 X30.1901 Y13.0278
G01 X30.1919 Y13.0479
G01 X30.1938 Y13.0881
G01 X30.1941 Y13.9367
G01 X30.1931 Y13.9770
G01 X30.1901 Y14.0171
G01 X30.1879 Y14.0371
G01 X30.1820 Y14.0769
G01 X30.1742 Y14.1164
G01 X30.1644 Y14.1554
G01 X30.1588 Y14.1748
G01 X30.1461 Y14.2130
G01 X30.1391 Y14.2318
G01 X30.1237 Y14.2690
G01 X30.1065 Y14.3054
G01 X30.0876 Y14.3409
G01 X30.0669 Y14.3754
G01 X30.0559 Y14.3923
G01 X30.0445 Y14.4089
G01 X30.0205 Y14.4412
G01 X29.9950 Y14.4723
G01 X29.9680 Y14.5021
G01 X29.6780 Y14.7925
G01 X29.9680 Y15.0828
G01 X29.9817 Y15.0975
G01 X30.0079 Y15.1280
G01 X30.0327 Y15.1597
G01 X30.0559 Y15.1926
G01 X30.0669 Y15.2095
G01 X30.0876 Y15.2440
G01 X30.1065 Y15.2795
G01 X30.1237 Y15.3159
G01 X30.1391 Y15.3531
G01 X30.1461 Y15.3719
G01 X30.1588 Y15.4101
G01 X30.1695 Y15.4489
G01 X30.1742 Y15.4685
G01 X30.1783 Y15.4882
G01 X30.1852 Y15.5279
G01 X30.1901 Y15.5678
G01 X30.1931 Y15.6079
G01 X30.1941 Y15.6482
G01 X30.1941 Y16.4767
G01 X30.1931 Y16.5170
G01 X30.1919 Y16.5370
G01 X30.1879 Y16.5771
G01 X30.1852 Y16.5970
G01 X30.1783 Y16.6367
G01 X30.1742 Y16.6564
G01 X30.1695 Y16.6760
G01 X30.1588 Y16.7148
G01 X30.1461 Y16.7530
G01 X30.1391 Y16.7718
G01 X30.1317 Y16.7905
G01 X30.1154 Y16.8273
G01 X30.1065 Y16.8454
G01 X30.0876 Y16.8809
G01 X30.0669 Y16.9154
G01 X30.0559 Y16.9323
G01 X30.0445 Y16.9489
G01 X30.0205 Y16.9812
G01 X29.9950 Y17.0123
G01 X29.9703 Y17.0396
G01 X29.9950 Y17.0669
G01 X30.0205 Y17.0980
G01 X30.0327 Y17.1140
G01 X30.0559 Y17.1469
G01 X30.0774 Y17.1809
G01 X30.0973 Y17.2159
G01 X30.1154 Y17.2519
G01 X30.1237 Y17.2702
G01 X30.1317 Y17.2887
G01 X30.1461 Y17.3262
G01 X30.1588 Y17.3644
G01 X30.1695 Y17.4032
G01 X30.1783 Y17.4425
G01 X30.1852 Y17.4821
G01 X30.1879 Y17.5021
G01 X30.1919 Y17.5421
G01 X30.1931 Y17.5622
G01 X30.1941 Y17.6025
G01 X30.1941 Y19.6024
G01 X30.1931 Y19.6427
G01 X30.1919 Y19.6628
G01 X30.1879 Y19.7028
G01 X30.1820 Y19.7426
G01 X30.1783 Y19.7624
G01 X30.1695 Y19.8017
G01 X30.1644 Y19.8212
G01 X30.1527 Y19.8597
G01 X30.1461 Y19.8787
G01 X30.1317 Y19.9162
G01 X30.1154 Y19.9530
G01 X30.0973 Y19.9890
G01 X30.0876 Y20.0066
G01 X30.0774 Y20.0240
G01 X30.0559 Y20.0580
G01 X30.0327 Y20.0909
G01 X30.0205 Y20.1069
G01 X29.9950 Y20.1380
G01 X29.9817 Y20.1531
G01 X29.9539 Y20.1823
G01 X29.9248 Y20.2100
G01 X29.8943 Y20.2363
G01 X29.8786 Y20.2489
G01 X29.8462 Y20.2729
G01 X29.8296 Y20.2843
G01 X29.8128 Y20.2952
G01 X29.7783 Y20.3159
G01 X29.7428 Y20.3349
G01 X29.7064 Y20.3521
G01 X29.6879 Y20.3600
G01 X29.6503 Y20.3745
G01 X29.6121 Y20.3871
G01 X29.5928 Y20.3927
G01 X29.5537 Y20.4025
G01 X29.5143 Y20.4104
G01 X29.4944 Y20.4136
G01 X29.4745 Y20.4163
G01 X29.4344 Y20.4202
G01 X29.3942 Y20.4222
G01 X29.3741 Y20.4224
G01 X27.3741 Y20.4224
G01 X27.3339 Y20.4215
G01 X27.2937 Y20.4185
G01 X27.2538 Y20.4136
G01 X27.2141 Y20.4067
G01 X27.1748 Y20.3979
G01 X27.1554 Y20.3927
G01 X27.1169 Y20.3811
G01 X27.0790 Y20.3675
G01 X27.0603 Y20.3600
G01 X27.0418 Y20.3521
G01 X27.0054 Y20.3349
G01 X26.9699 Y20.3159
G01 X26.9525 Y20.3058
G01 X26.9354 Y20.2952
G01 X26.9019 Y20.2729
G01 X26.8856 Y20.2611
G01 X26.8539 Y20.2363
G01 X26.8385 Y20.2234
G01 X26.8087 Y20.1963
G01 X26.7943 Y20.1823
G01 X26.7665 Y20.1531
G01 X26.7402 Y20.1226
G01 X26.7155 Y20.0909
G01 X26.7037 Y20.0746
G01 X26.6813 Y20.0411
G01 X26.6708 Y20.0240
G01 X26.6606 Y20.0066
G01 X26.6416 Y19.9711
G01 X26.6244 Y19.9347
G01 X26.6090 Y19.8976
G01 X26.6020 Y19.8787
G01 X26.5955 Y19.8597
G01 X26.5838 Y19.8212
G01 X26.5740 Y19.7821
G01 X26.5698 Y19.7624
G01 X26.5630 Y19.7228
G01 X26.5603 Y19.7028
G01 X26.5563 Y19.6628
G01 X26.5543 Y19.6226
G01 X26.5541 Y19.6024
G01 X26.5541 Y17.6025
G01 X26.5551 Y17.5622
G01 X26.5563 Y17.5421
G01 X26.5603 Y17.5021
G01 X26.5662 Y17.4623
G01 X26.5740 Y17.4228
G01 X26.5787 Y17.4032
G01 X26.5838 Y17.3838
G01 X26.5955 Y17.3452
G01 X26.6090 Y17.3073
G01 X26.6244 Y17.2702
G01 X26.6416 Y17.2338
G01 X26.6606 Y17.1983
G01 X26.6813 Y17.1638
G01 X26.6923 Y17.1469
G01 X26.7037 Y17.1303
G01 X26.7276 Y17.0980
G01 X26.7532 Y17.0669
G01 X26.7778 Y17.0396
G01 X26.7532 Y17.0123
G01 X26.7276 Y16.9812
G01 X26.7037 Y16.9489
G01 X26.6923 Y16.9323
G01 X26.6813 Y16.9154
G01 X26.6606 Y16.8809
G01 X26.6416 Y16.8454
G01 X26.6328 Y16.8273
G01 X26.6244 Y16.8090
G01 X26.6090 Y16.7718
G01 X26.6020 Y16.7530
G01 X26.5894 Y16.7148
G01 X26.5787 Y16.6760
G01 X26.5740 Y16.6564
G01 X26.5662 Y16.6169
G01 X26.5630 Y16.5970
G01 X26.5603 Y16.5771
G01 X26.5563 Y16.5370
G01 X26.5551 Y16.5170
G01 X26.5541 Y16.4767
G01 X26.5541 Y15.6482
G01 X26.5551 Y15.6079
G01 X26.5580 Y15.5678
G01 X26.5603 Y15.5478
G01 X26.5662 Y15.5080
G01 X26.5740 Y15.4685
G01 X26.5838 Y15.4295
G01 X26.5894 Y15.4101
G01 X26.6020 Y15.3719
G01 X26.6090 Y15.3531
G01 X26.6244 Y15.3159
G01 X26.6416 Y15.2795
G01 X26.6509 Y15.2616
G01 X26.6708 Y15.2266
G01 X26.6923 Y15.1926
G01 X26.7155 Y15.1597
G01 X26.7276 Y15.1437
G01 X26.7532 Y15.1126
G01 X26.7802 Y15.0828
G01 X27.0702 Y14.7925
G01 X26.7802 Y14.5021
G01 X26.7532 Y14.4723
G01 X26.7276 Y14.4412
G01 X26.7037 Y14.4089
G01 X26.6813 Y14.3754
G01 X26.6606 Y14.3409
G01 X26.6416 Y14.3054
G01 X26.6328 Y14.2873
G01 X26.6165 Y14.2505
G01 X26.6090 Y14.2318
G01 X26.6020 Y14.2130
G01 X26.5894 Y14.1748
G01 X26.5787 Y14.1360
G01 X26.5698 Y14.0967
G01 X26.5662 Y14.0769
G01 X26.5603 Y14.0371
G01 X26.5563 Y13.9970
G01 X26.5551 Y13.9770
G01 X26.5541 Y13.9367
G01 X26.5543 Y13.0881
G01 X26.5563 Y13.0479
G01 X26.5580 Y13.0278
G01 X26.5603 Y13.0078
G01 X26.5662 Y12.9680
G01 X26.5740 Y12.9285
G01 X26.5838 Y12.8895
G01 X26.5894 Y12.8701
G01 X26.6020 Y12.8319
G01 X26.6165 Y12.7944
G01 X26.6328 Y12.7576
G01 X26.6509 Y12.7216
G01 X26.6708 Y12.6866
G01 X26.6813 Y12.6695
G01 X26.7037 Y12.6360
G01 X26.7276 Y12.6037
G01 X26.7532 Y12.5726
G01 X26.7802 Y12.5428
G01 X27.0702 Y12.2525
G01 X26.7802 Y11.9621
G01 X26.7532 Y11.9323
G01 X26.7276 Y11.9012
G01 X26.7037 Y11.8689
G01 X26.6923 Y11.8523
G01 X26.6708 Y11.8183
G01 X26.6509 Y11.7833
G01 X26.6328 Y11.7473
G01 X26.6165 Y11.7105
G01 X26.6090 Y11.6918
G01 X26.6020 Y11.6730
G01 X26.5894 Y11.6348
G01 X26.5787 Y11.5960
G01 X26.5698 Y11.5567
G01 X26.5662 Y11.5369
G01 X26.5603 Y11.4971
G01 X26.5563 Y11.4570
G01 X26.5551 Y11.4370
G01 X26.5541 Y11.3967
G01 X26.5541 Y10.5682
G01 X26.5543 Y10.5481
G01 X26.5563 Y10.5079
G01 X26.5603 Y10.4678
G01 X26.5630 Y10.4479
G01 X26.5662 Y10.4280
G01 X26.5740 Y10.3885
G01 X26.5787 Y10.3689
G01 X26.5894 Y10.3301
G01 X26.6020 Y10.2919
G01 X26.6165 Y10.2544
G01 X26.6328 Y10.2176
G01 X26.6416 Y10.1995
G01 X26.6509 Y10.1816
G01 X26.6708 Y10.1466
G01 X26.6923 Y10.1126
G01 X26.7155 Y10.0797
G01 X26.7402 Y10.0480
G01 X26.7532 Y10.0326
G01 X26.7802 Y10.0028
G01 X26.7943 Y9.9884
G00 Z2.0000
G00 X26.9215 Y10.1156
G01 F200.00
G01 Z0.0000
G01 F600.00
G01 X27.5073 Y9.5299
G01 X27.5300 Y9.5082
G01 X27.5538 Y9.4877
G01 X27.5786 Y9.4684
G01 X27.6042 Y9.4503
G01 X27.6308 Y9.4335
G01 X27.6581 Y9.4180
G01 X27.6862 Y9.4039
G01 X27.7005 Y9.3974
G01 X27.7295 Y9.3853
G01 X27.7442 Y9.3799
G01 X27.7740 Y9.3700
G01 X27.8043 Y9.3616
G01 X27.8350 Y9.3548
G01 X27.8659 Y9.3494
G01 X27.8971 Y9.3455
G01 X27.9284 Y9.3432
G01 X27.9441 Y9.3426
G01 X28.7884 Y9.3425
G01 X28.8198 Y9.3432
G01 X28.8511 Y9.3455
G01 X28.8823 Y9.3494
G01 X28.8978 Y9.3519
G01 X28.9286 Y9.3580
G01 X28.9591 Y9.3656
G01 X28.9891 Y9.3748
G01 X29.0187 Y9.3853
G01 X29.0477 Y9.3974
G01 X29.0620 Y9.4039
G01 X29.0761 Y9.4108
G01 X29.1038 Y9.4256
G01 X29.1174 Y9.4335
G01 X29.1439 Y9.4503
G01 X29.1696 Y9.4684
G01 X29.1821 Y9.4779
G01 X29.2064 Y9.4978
G01 X29.2297 Y9.5189
G01 X29.8266 Y10.1156
G01 X29.8376 Y10.1269
G01 X29.8587 Y10.1501
G01 X29.8786 Y10.1744
G01 X29.8881 Y10.1869
G01 X29.9062 Y10.2126
G01 X29.9230 Y10.2392
G01 X29.9385 Y10.2665
G01 X29.9457 Y10.2804
G01 X29.9592 Y10.3088
G01 X29.9654 Y10.3233
G01 X29.9767 Y10.3526
G01 X29.9865 Y10.3824
G01 X29.9949 Y10.4127
G01 X29.9985 Y10.4280
G01 X30.0047 Y10.4588
G01 X30.0093 Y10.4898
G01 X30.0123 Y10.5211
G01 X30.0139 Y10.5525
G01 X30.0141 Y11.3967
G01 X30.0139 Y11.4124
G01 X30.0123 Y11.4438
G01 X30.0093 Y11.4751
G01 X30.0072 Y11.4906
G01 X30.0047 Y11.5061
G01 X29.9985 Y11.5369
G01 X29.9909 Y11.5674
G01 X29.9865 Y11.5825
G01 X29.9767 Y11.6123
G01 X29.9654 Y11.6416
G01 X29.9526 Y11.6704
G01 X29.9385 Y11.6984
G01 X29.9230 Y11.7258
G01 X29.9062 Y11.7523
G01 X29.8881 Y11.7780
G01 X29.8688 Y11.8027
G01 X29.8483 Y11.8265
G01 X29.8266 Y11.8493
G01 X29.4235 Y12.2525
G01 X29.8376 Y12.6669
G01 X29.8483 Y12.6784
G01 X29.8688 Y12.7022
G01 X29.8881 Y12.7269
G01 X29.8973 Y12.7397
G01 X29.9062 Y12.7526
G01 X29.9230 Y12.7792
G01 X29.9309 Y12.7927
G01 X29.9457 Y12.8204
G01 X29.9526 Y12.8345
G01 X29.9654 Y12.8633
G01 X29.9712 Y12.8778
G01 X29.9818 Y12.9074
G01 X29.9865 Y12.9224
G01 X29.9949 Y12.9527
G01 X30.0018 Y12.9833
G01 X30.0047 Y12.9988
G01 X30.0093 Y13.0298
G01 X30.0110 Y13.0454
G01 X30.0123 Y13.0611
G01 X30.0139 Y13.0925
G01 X30.0139 Y13.9524
G01 X30.0123 Y13.9838
G01 X30.0093 Y14.0151
G01 X30.0072 Y14.0306
G01 X30.0018 Y14.0616
G01 X29.9949 Y14.0922
G01 X29.9909 Y14.1074
G01 X29.9818 Y14.1375
G01 X29.9767 Y14.1523
G01 X29.9654 Y14.1816
G01 X29.9526 Y14.2104
G01 X29.9385 Y14.2384
G01 X29.9230 Y14.2658
G01 X29.9062 Y14.2923
G01 X29.8973 Y14.3052
G01 X29.8786 Y14.3305
G01 X29.8587 Y14.3548
G01 X29.8376 Y14.3780
G01 X29.8266 Y14.3893
G01 X29.4235 Y14.7925
G01 X29.8376 Y15.2069
G01 X29.8483 Y15.2184
G01 X29.8688 Y15.2422
G01 X29.8881 Y15.2669
G01 X29.8973 Y15.2797
G01 X29.9062 Y15.2926
G01 X29.9230 Y15.3192
G01 X29.9309 Y15.3327
G01 X29.9457 Y15.3604
G01 X29.9526 Y15.3745
G01 X29.9654 Y15.4033
G01 X29.9712 Y15.4178
G01 X29.9818 Y15.4474
G01 X29.9865 Y15.4624
G01 X29.9949 Y15.4927
G01 X30.0018 Y15.5233
G01 X30.0047 Y15.5388
G01 X30.0093 Y15.5698
G01 X30.0110 Y15.5854
G01 X30.0123 Y15.6011
G01 X30.0139 Y15.6325
G01 X30.0139 Y16.4924
G01 X30.0123 Y16.5238
G01 X30.0093 Y16.5551
G01 X30.0047 Y16.5861
G01 X29.9985 Y16.6169
G01 X29.9909 Y16.6474
G01 X29.9818 Y16.6775
G01 X29.9712 Y16.7071
G01 X29.9654 Y16.7216
G01 X29.9526 Y16.7504
G01 X29.9385 Y16.7784
G01 X29.9230 Y16.8058
G01 X29.9062 Y16.8323
G01 X29.8881 Y16.8580
G01 X29.8786 Y16.8705
G01 X29.8688 Y16.8827
G01 X29.8483 Y16.9065
G01 X29.8266 Y16.9293
G01 X29.7027 Y17.0532
G01 X29.7296 Y17.0703
G01 X29.7553 Y17.0884
G01 X29.7801 Y17.1077
G01 X29.7921 Y17.1178
G01 X29.8154 Y17.1389
G01 X29.8376 Y17.1612
G01 X29.8483 Y17.1727
G01 X29.8688 Y17.1964
G01 X29.8881 Y17.2212
G01 X29.9062 Y17.2469
G01 X29.9230 Y17.2734
G01 X29.9385 Y17.3008
G01 X29.9526 Y17.3288
G01 X29.9654 Y17.3575
G01 X29.9712 Y17.3721
G01 X29.9818 Y17.4017
G01 X29.9909 Y17.4318
G01 X29.9949 Y17.4469
G01 X30.0018 Y17.4776
G01 X30.0047 Y17.4930
G01 X30.0093 Y17.5241
G01 X30.0123 Y17.5554
G01 X30.0139 Y17.5868
G01 X30.0141 Y17.6025
G01 X30.0141 Y19.6024
G01 X30.0133 Y19.6339
G01 X30.0110 Y19.6652
G01 X30.0093 Y19.6808
G01 X30.0047 Y19.7119
G01 X30.0018 Y19.7273
G01 X29.9949 Y19.7580
G01 X29.9909 Y19.7731
G01 X29.9818 Y19.8032
G01 X29.9767 Y19.8181
G01 X29.9654 Y19.8474
G01 X29.9526 Y19.8761
G01 X29.9457 Y19.8902
G01 X29.9385 Y19.9041
G01 X29.9230 Y19.9315
G01 X29.9062 Y19.9580
G01 X29.8881 Y19.9837
G01 X29.8688 Y20.0085
G01 X29.8587 Y20.0205
G01 X29.8376 Y20.0438
G01 X29.8266 Y20.0550
G01 X29.8039 Y20.0767
G01 X29.7801 Y20.0972
G01 X29.7678 Y20.1070
G01 X29.7426 Y20.1257
G01 X29.7296 Y20.1346
G01 X29.7031 Y20.1514
G01 X29.6758 Y20.1669
G01 X29.6618 Y20.1741
G01 X29.6477 Y20.1810
G01 X29.6190 Y20.1937
G01 X29.6044 Y20.1996
G01 X29.5748 Y20.2101
G01 X29.5448 Y20.2193
G01 X29.5296 Y20.2233
G01 X29.4989 Y20.2302
G01 X29.4835 Y20.2330
G01 X29.4524 Y20.2376
G01 X29.4368 Y20.2394
G01 X29.4055 Y20.2417
G01 X29.3741 Y20.2424
G01 X27.3741 Y20.2424
G01 X27.3427 Y20.2417
G01 X27.3114 Y20.2394
G01 X27.2802 Y20.2355
G01 X27.2647 Y20.2330
G01 X27.2339 Y20.2269
G01 X27.2186 Y20.2233
G01 X27.1883 Y20.2149
G01 X27.1585 Y20.2050
G01 X27.1438 Y20.1996
G01 X27.1292 Y20.1937
G01 X27.1005 Y20.1810
G01 X27.0724 Y20.1669
G01 X27.0586 Y20.1593
G01 X27.0451 Y20.1514
G01 X27.0185 Y20.1346
G01 X27.0056 Y20.1257
G01 X26.9803 Y20.1070
G01 X26.9561 Y20.0871
G01 X26.9443 Y20.0767
G01 X26.9215 Y20.0550
G01 X26.9106 Y20.0438
G01 X26.8895 Y20.0205
G01 X26.8794 Y20.0085
G01 X26.8600 Y19.9837
G01 X26.8508 Y19.9710
G01 X26.8420 Y19.9580
G01 X26.8251 Y19.9315
G01 X26.8097 Y19.9041
G01 X26.8024 Y19.8902
G01 X26.7890 Y19.8618
G01 X26.7828 Y19.8474
G01 X26.7770 Y19.8328
G01 X26.7664 Y19.8032
G01 X26.7573 Y19.7731
G01 X26.7533 Y19.7580
G01 X26.7464 Y19.7273
G01 X26.7410 Y19.6964
G01 X26.7389 Y19.6808
G01 X26.7372 Y19.6652
G01 X26.7349 Y19.6339
G01 X26.7341 Y19.6024
G01 X26.7341 Y17.6025
G01 X26.7349 Y17.5711
G01 X26.7372 Y17.5397
G01 X26.7410 Y17.5085
G01 X26.7464 Y17.4776
G01 X26.7533 Y17.4469
G01 X26.7573 Y17.4318
G01 X26.7664 Y17.4017
G01 X26.7715 Y17.3868
G01 X26.7828 Y17.3575
G01 X26.7955 Y17.3288
G01 X26.8097 Y17.3008
G01 X26.8251 Y17.2734
G01 X26.8334 Y17.2601
G01 X26.8420 Y17.2469
G01 X26.8600 Y17.2212
G01 X26.8794 Y17.1964
G01 X26.8999 Y17.1727
G01 X26.9215 Y17.1499
G01 X26.9328 Y17.1389
G01 X26.9443 Y17.1282
G01 X26.9681 Y17.1077
G01 X26.9928 Y17.0884
G01 X27.0185 Y17.0703
G01 X27.0455 Y17.0532
G01 X26.9215 Y16.9293
G01 X26.8999 Y16.9065
G01 X26.8895 Y16.8948
G01 X26.8695 Y16.8705
G01 X26.8600 Y16.8580
G01 X26.8420 Y16.8323
G01 X26.8251 Y16.8058
G01 X26.8097 Y16.7784
G01 X26.7955 Y16.7504
G01 X26.7828 Y16.7216
G01 X26.7715 Y16.6923
G01 X26.7616 Y16.6625
G01 X26.7533 Y16.6322
G01 X26.7464 Y16.6016
G01 X26.7410 Y16.5706
G01 X26.7372 Y16.5395
G01 X26.7349 Y16.5081
G01 X26.7341 Y16.4767
G01 X26.7341 Y15.6482
G01 X26.7349 Y15.6168
G01 X26.7358 Y15.6011
G01 X26.7389 Y15.5698
G01 X26.7435 Y15.5388
G01 X26.7464 Y15.5233
G01 X26.7533 Y15.4927
G01 X26.7573 Y15.4775
G01 X26.7664 Y15.4474
G01 X26.7715 Y15.4326
G01 X26.7828 Y15.4033
G01 X26.7890 Y15.3888
G01 X26.8024 Y15.3604
G01 X26.8172 Y15.3327
G01 X26.8334 Y15.3058
G01 X26.8508 Y15.2797
G01 X26.8600 Y15.2669
G01 X26.8794 Y15.2422
G01 X26.8895 Y15.2301
G01 X26.9106 Y15.2069
G01 X26.9215 Y15.1956
G01 X27.3247 Y14.7925
G01 X26.9215 Y14.3893
G01 X26.8999 Y14.3665
G01 X26.8895 Y14.3548
G01 X26.8794 Y14.3427
G01 X26.8600 Y14.3180
G01 X26.8420 Y14.2923
G01 X26.8334 Y14.2791
G01 X26.8172 Y14.2522
G01 X26.8097 Y14.2384
G01 X26.7955 Y14.2104
G01 X26.7828 Y14.1816
G01 X26.7770 Y14.1671
G01 X26.7664 Y14.1375
G01 X26.7616 Y14.1225
G01 X26.7533 Y14.0922
G01 X26.7496 Y14.0769
G01 X26.7435 Y14.0461
G01 X26.7389 Y14.0151
G01 X26.7372 Y13.9995
G01 X26.7349 Y13.9681
G01 X26.7341 Y13.9367
G01 X26.7343 Y13.0925
G01 X26.7358 Y13.0611
G01 X26.7372 Y13.0454
G01 X26.7389 Y13.0298
G01 X26.7435 Y12.9988
G01 X26.7464 Y12.9833
G01 X26.7533 Y12.9527
G01 X26.7573 Y12.9375
G01 X26.7664 Y12.9074
G01 X26.7770 Y12.8778
G01 X26.7890 Y12.8488
G01 X26.8024 Y12.8204
G01 X26.8172 Y12.7927
G01 X26.8334 Y12.7658
G01 X26.8508 Y12.7397
G01 X26.8695 Y12.7144
G01 X26.8895 Y12.6901
G01 X26.9106 Y12.6669
G01 X26.9215 Y12.6556
G01 X27.3247 Y12.2525
G01 X26.9215 Y11.8493
G01 X26.8999 Y11.8265
G01 X26.8794 Y11.8027
G01 X26.8695 Y11.7905
G01 X26.8508 Y11.7652
G01 X26.8334 Y11.7391
G01 X26.8172 Y11.7122
G01 X26.8097 Y11.6984
G01 X26.7955 Y11.6704
G01 X26.7828 Y11.6416
G01 X26.7770 Y11.6271
G01 X26.7664 Y11.5975
G01 X26.7616 Y11.5825
G01 X26.7533 Y11.5522
G01 X26.7464 Y11.5216
G01 X26.7410 Y11.4906
G01 X26.7372 Y11.4595
G01 X26.7349 Y11.4281
G01 X26.7341 Y11.3967
G01 X26.7341 Y10.5682
G01 X26.7349 Y10.5368
G01 X26.7358 Y10.5211
G01 X26.7389 Y10.4898
G01 X26.7435 Y10.4588
G01 X26.7464 Y10.4433
G01 X26.7533 Y10.4127
G01 X26.7573 Y10.3975
G01 X26.7664 Y10.3674
G01 X26.7715 Y10.3526
G01 X26.7828 Y10.3233
G01 X26.7955 Y10.2945
G01 X26.8024 Y10.2804
G01 X26.8172 Y10.2527
G01 X26.8334 Y10.2258
G01 X26.8508 Y10.1997
G01 X26.8695 Y10.1744
G01 X26.8895 Y10.1501
G01 X26.9106 Y10.1269
G01 X26.9215 Y10.1156
G00 Z2.0000
G00 X27.0488 Y10.2429
G01 F200.00
G01 Z0.0000
G01 F600.00
G01 X27.6426 Y9.6493
G01 X27.6594 Y9.6341
G01 X27.6768 Y9.6198
G01 X27.6858 Y9.6130
G01 X27.7043 Y9.6000
G01 X27.7233 Y9.5879
G01 X27.7430 Y9.5768
G01 X27.7631 Y9.5666
G01 X27.7838 Y9.5575
G01 X27.8048 Y9.5493
G01 X27.8263 Y9.5423
G01 X27.8480 Y9.5362
G01 X27.8701 Y9.5313
G01 X27.8923 Y9.5274
G01 X27.9147 Y9.5247
G01 X27.9372 Y9.5230
G01 X27.9485 Y9.5226
G01 X28.7884 Y9.5225
G01 X28.8109 Y9.5230
G01 X28.8222 Y9.5237
G01 X28.8447 Y9.5259
G01 X28.8670 Y9.5292
G01 X28.8781 Y9.5313
G01 X28.9001 Y9.5362
G01 X28.9219 Y9.5423
G01 X28.9433 Y9.5493
G01 X28.9539 Y9.5533
G01 X28.9748 Y9.5619
G01 X28.9952 Y9.5716
G01 X29.0052 Y9.5768
G01 X29.0248 Y9.5879
G01 X29.0439 Y9.6000
G01 X29.0624 Y9.6130
G01 X29.0714 Y9.6198
G01 X29.0888 Y9.6341
G01 X29.1055 Y9.6493
G01 X29.6994 Y10.2429
G01 X29.7149 Y10.2593
G01 X29.7297 Y10.2764
G01 X29.7436 Y10.2942
G01 X29.7502 Y10.3033
G01 X29.7627 Y10.3221
G01 X29.7686 Y10.3317
G01 X29.7798 Y10.3513
G01 X29.7899 Y10.3715
G01 X29.7946 Y10.3818
G01 X29.8033 Y10.4026
G01 X29.8109 Y10.4239
G01 X29.8174 Y10.4455
G01 X29.8203 Y10.4564
G01 X29.8252 Y10.4784
G01 X29.8291 Y10.5007
G01 X29.8319 Y10.5231
G01 X29.8328 Y10.5343
G01 X29.8339 Y10.5569
G01 X29.8341 Y11.3967
G01 X29.8335 Y11.4193
G01 X29.8319 Y11.4418
G01 X29.8306 Y11.4530
G01 X29.8273 Y11.4754
G01 X29.8229 Y11.4975
G01 X29.8174 Y11.5194
G01 X29.8143 Y11.5303
G01 X29.8072 Y11.5517
G01 X29.7991 Y11.5728
G01 X29.7899 Y11.5934
G01 X29.7798 Y11.6136
G01 X29.7686 Y11.6332
G01 X29.7566 Y11.6523
G01 X29.7436 Y11.6707
G01 X29.7297 Y11.6885
G01 X29.7149 Y11.7056
G01 X29.6994 Y11.7220
G01 X29.1689 Y12.2525
G01 X29.6994 Y12.7829
G01 X29.7072 Y12.7910
G01 X29.7224 Y12.8077
G01 X29.7367 Y12.8252
G01 X29.7502 Y12.8433
G01 X29.7627 Y12.8621
G01 X29.7686 Y12.8717
G01 X29.7798 Y12.8913
G01 X29.7850 Y12.9014
G01 X29.7946 Y12.9218
G01 X29.7991 Y12.9321
G01 X29.8072 Y12.9532
G01 X29.8143 Y12.9746
G01 X29.8174 Y12.9855
G01 X29.8203 Y12.9964
G01 X29.8252 Y13.0184
G01 X29.8273 Y13.0295
G01 X29.8306 Y13.0519
G01 X29.8319 Y13.0631
G01 X29.8335 Y13.0856
G01 X29.8341 Y13.1082
G01 X29.8339 Y13.9480
G01 X29.8328 Y13.9706
G01 X29.8306 Y13.9930
G01 X29.8273 Y14.0154
G01 X29.8252 Y14.0265
G01 X29.8203 Y14.0485
G01 X29.8143 Y14.0703
G01 X29.8072 Y14.0917
G01 X29.8033 Y14.1023
G01 X29.7946 Y14.1231
G01 X29.7899 Y14.1334
G01 X29.7798 Y14.1536
G01 X29.7686 Y14.1732
G01 X29.7566 Y14.1923
G01 X29.7436 Y14.2107
G01 X29.7297 Y14.2285
G01 X29.7149 Y14.2456
G01 X29.6994 Y14.2620
G01 X29.1689 Y14.7925
G01 X29.6994 Y15.3229
G01 X29.7072 Y15.3310
G01 X29.7224 Y15.3477
G01 X29.7367 Y15.3652
G01 X29.7502 Y15.3833
G01 X29.7627 Y15.4021
G01 X29.7686 Y15.4117
G01 X29.7798 Y15.4313
G01 X29.7850 Y15.4414
G01 X29.7946 Y15.4618
G01 X29.7991 Y15.4721
G01 X29.8072 Y15.4932
G01 X29.8143 Y15.5146
G01 X29.8174 Y15.5255
G01 X29.8203 Y15.5364
G01 X29.8252 Y15.5584
G01 X29.8273 Y15.5695
G01 X29.8306 Y15.5919
G01 X29.8319 Y15.6031
G01 X29.8335 Y15.6256
G01 X29.8341 Y15.6482
G01 X29.8339 Y16.4880
G01 X29.8328 Y16.5106
G01 X29.8319 Y16.5218
G01 X29.8306 Y16.5330
G01 X29.8273 Y16.5554
G01 X29.8229 Y16.5775
G01 X29.8203 Y16.5885
G01 X29.8143 Y16.6103
G01 X29.8072 Y16.6317
G01 X29.7991 Y16.6528
G01 X29.7946 Y16.6631
G01 X29.7850 Y16.6835
G01 X29.7743 Y16.7035
G01 X29.7627 Y16.7228
G01 X29.7502 Y16.7416
G01 X29.7367 Y16.7597
G01 X29.7224 Y16.7772
G01 X29.7149 Y16.7856
G01 X29.6994 Y16.8020
G01 X29.3589 Y17.1425
G01 X29.3967 Y17.1430
G01 X29.4192 Y17.1447
G01 X29.4416 Y17.1474
G01 X29.4638 Y17.1513
G01 X29.4859 Y17.1562
G01 X29.5076 Y17.1623
G01 X29.5291 Y17.1693
G01 X29.5501 Y17.1775
G01 X29.5708 Y17.1866
G01 X29.5909 Y17.1968
G01 X29.6106 Y17.2079
G01 X29.6296 Y17.2200
G01 X29.6481 Y17.2330
G01 X29.6659 Y17.2469
G01 X29.6830 Y17.2616
G01 X29.6994 Y17.2772
G01 X29.7149 Y17.2935
G01 X29.7297 Y17.3106
G01 X29.7436 Y17.3284
G01 X29.7566 Y17.3469
G01 X29.7686 Y17.3660
G01 X29.7798 Y17.3856
G01 X29.7899 Y17.4058
G01 X29.7991 Y17.4264
G01 X29.8072 Y17.4475
G01 X29.8143 Y17.4689
G01 X29.8203 Y17.4907
G01 X29.8252 Y17.5127
G01 X29.8291 Y17.5350
G01 X29.8319 Y17.5574
G01 X29.8335 Y17.5799
G01 X29.8341 Y17.6025
G01 X29.8341 Y19.6024
G01 X29.8339 Y19.6137
G01 X29.8328 Y19.6363
G01 X29.8319 Y19.6475
G01 X29.8291 Y19.6699
G01 X29.8273 Y19.6811
G01 X29.8229 Y19.7032
G01 X29.8174 Y19.7251
G01 X29.8143 Y19.7360
G01 X29.8109 Y19.7467
G01 X29.8033 Y19.7680
G01 X29.7946 Y19.7889
G01 X29.7899 Y19.7991
G01 X29.7850 Y19.8093
G01 X29.7743 Y19.8292
G01 X29.7627 Y19.8485
G01 X29.7566 Y19.8580
G01 X29.7502 Y19.8673
G01 X29.7367 Y19.8855
G01 X29.7224 Y19.9029
G01 X29.7149 Y19.9114
G01 X29.6994 Y19.9277
G01 X29.6913 Y19.9356
G01 X29.6745 Y19.9508
G01 X29.6659 Y19.9580
G01 X29.6481 Y19.9719
G01 X29.6390 Y19.9785
G01 X29.6202 Y19.9911
G01 X29.6106 Y19.9970
G01 X29.6008 Y20.0027
G01 X29.5809 Y20.0133
G01 X29.5605 Y20.0230
G01 X29.5501 Y20.0274
G01 X29.5291 Y20.0356
G01 X29.5184 Y20.0392
G01 X29.4968 Y20.0458
G01 X29.4859 Y20.0487
G01 X29.4638 Y20.0536
G01 X29.4527 Y20.0557
G01 X29.4304 Y20.0590
G01 X29.4079 Y20.0612
G01 X29.3854 Y20.0623
G01 X29.3741 Y20.0624
G01 X27.3741 Y20.0624
G01 X27.3628 Y20.0623
G01 X27.3403 Y20.0612
G01 X27.3178 Y20.0590
G01 X27.3066 Y20.0575
G01 X27.2843 Y20.0536
G01 X27.2623 Y20.0487
G01 X27.2514 Y20.0458
G01 X27.2406 Y20.0426
G01 X27.2191 Y20.0356
G01 X27.2085 Y20.0316
G01 X27.1877 Y20.0230
G01 X27.1673 Y20.0133
G01 X27.1572 Y20.0081
G01 X27.1474 Y20.0027
G01 X27.1280 Y19.9911
G01 X27.1092 Y19.9785
G01 X27.1001 Y19.9719
G01 X27.0911 Y19.9651
G01 X27.0736 Y19.9508
G01 X27.0569 Y19.9356
G01 X27.0409 Y19.9196
G01 X27.0258 Y19.9029
G01 X27.0185 Y19.8943
G01 X27.0046 Y19.8765
G01 X26.9980 Y19.8673
G01 X26.9916 Y19.8580
G01 X26.9795 Y19.8389
G01 X26.9739 Y19.8292
G01 X26.9632 Y19.8093
G01 X26.9583 Y19.7991
G01 X26.9491 Y19.7785
G01 X26.9449 Y19.7680
G01 X26.9373 Y19.7467
G01 X26.9339 Y19.7360
G01 X26.9279 Y19.7142
G01 X26.9253 Y19.7032
G01 X26.9209 Y19.6811
G01 X26.9175 Y19.6588
G01 X26.9153 Y19.6363
G01 X26.9146 Y19.6250
G01 X26.9141 Y19.6024
G01 X26.9141 Y17.6025
G01 X26.9146 Y17.5799
G01 X26.9163 Y17.5574
G01 X26.9191 Y17.5350
G01 X26.9209 Y17.5238
G01 X26.9229 Y17.5127
G01 X26.9279 Y17.4907
G01 X26.9339 Y17.4689
G01 X26.9410 Y17.4475
G01 X26.9491 Y17.4264
G01 X26.9583 Y17.4058
G01 X26.9684 Y17.3856
G01 X26.9795 Y17.3660
G01 X26.9855 Y17.3564
G01 X26.9980 Y17.3376
G01 X27.0115 Y17.3195
G01 X27.0258 Y17.3020
G01 X27.0409 Y17.2853
G01 X27.0569 Y17.2693
G01 X27.0736 Y17.2541
G01 X27.0823 Y17.2469
G01 X27.1001 Y17.2330
G01 X27.1185 Y17.2200
G01 X27.1376 Y17.2079
G01 X27.1572 Y17.1968
G01 X27.1673 Y17.1916
G01 X27.1877 Y17.1819
G01 X27.2085 Y17.1733
G01 X27.2298 Y17.1657
G01 X27.2514 Y17.1591
G01 X27.2733 Y17.1536
G01 X27.2843 Y17.1513
G01 X27.3066 Y17.1474
G01 X27.3290 Y17.1447
G01 X27.3515 Y17.1430
G01 X27.3893 Y17.1425
G01 X27.0488 Y16.8020
G01 X27.0333 Y16.7856
G01 X27.0258 Y16.7772
G01 X27.0115 Y16.7597
G01 X26.9980 Y16.7416
G01 X26.9916 Y16.7323
G01 X26.9795 Y16.7132
G01 X26.9684 Y16.6936
G01 X26.9583 Y16.6734
G01 X26.9491 Y16.6528
G01 X26.9410 Y16.6317
G01 X26.9339 Y16.6103
G01 X26.9279 Y16.5885
G01 X26.9229 Y16.5665
G01 X26.9209 Y16.5554
G01 X26.9175 Y16.5330
G01 X26.9163 Y16.5218
G01 X26.9153 Y16.5106
G01 X26.9142 Y16.4880
G01 X26.9141 Y15.6482
G01 X26.9142 Y15.6369
G01 X26.9153 Y15.6143
G01 X26.9175 Y15.5919
G01 X26.9209 Y15.5695
G01 X26.9253 Y15.5474
G01 X26.9279 Y15.5364
G01 X26.9339 Y15.5146
G01 X26.9373 Y15.5039
G01 X26.9410 Y15.4932
G01 X26.9491 Y15.4721
G01 X26.9536 Y15.4618
G01 X26.9632 Y15.4414
G01 X26.9739 Y15.4214
G01 X26.9795 Y15.4117
G01 X26.9855 Y15.4021
G01 X26.9980 Y15.3833
G01 X27.0115 Y15.3652
G01 X27.0185 Y15.3564
G01 X27.0333 Y15.3393
G01 X27.0488 Y15.3229
G01 X27.5793 Y14.7925
G01 X27.0488 Y14.2620
G01 X27.0333 Y14.2456
G01 X27.0185 Y14.2285
G01 X27.0046 Y14.2107
G01 X26.9980 Y14.2016
G01 X26.9916 Y14.1923
G01 X26.9795 Y14.1732
G01 X26.9684 Y14.1536
G01 X26.9632 Y14.1435
G01 X26.9583 Y14.1334
G01 X26.9491 Y14.1128
G01 X26.9410 Y14.0917
G01 X26.9373 Y14.0810
G01 X26.9308 Y14.0594
G01 X26.9279 Y14.0485
G01 X26.9229 Y14.0265
G01 X26.9209 Y14.0154
G01 X26.9175 Y13.9930
G01 X26.9153 Y13.9706
G01 X26.9142 Y13.9480
G01 X26.9141 Y13.9367
G01 X26.9142 Y13.0969
G01 X26.9153 Y13.0743
G01 X26.9163 Y13.0631
G01 X26.9191 Y13.0407
G01 X26.9229 Y13.0184
G01 X26.9279 Y12.9964
G01 X26.9339 Y12.9746
G01 X26.9373 Y12.9639
G01 X26.9449 Y12.9426
G01 X26.9536 Y12.9218
G01 X26.9632 Y12.9014
G01 X26.9739 Y12.8814
G01 X26.9855 Y12.8621
G01 X26.9980 Y12.8433
G01 X27.0046 Y12.8342
G01 X27.0185 Y12.8164
G01 X27.0333 Y12.7993
G01 X27.0488 Y12.7829
G01 X27.5793 Y12.2525
G01 X27.0488 Y11.7220
G01 X27.0333 Y11.7056
G01 X27.0258 Y11.6972
G01 X27.0115 Y11.6797
G01 X26.9980 Y11.6616
G01 X26.9855 Y11.6428
G01 X26.9739 Y11.6235
G01 X26.9632 Y11.6035
G01 X26.9583 Y11.5934
G01 X26.9491 Y11.5728
G01 X26.9410 Y11.5517
G01 X26.9339 Y11.5303
G01 X26.9308 Y11.5194
G01 X26.9279 Y11.5085
G01 X26.9229 Y11.4865
G01 X26.9191 Y11.4642
G01 X26.9163 Y11.4418
G01 X26.9153 Y11.4306
G01 X26.9142 Y11.4080
G01 X26.9141 Y10.5682
G01 X26.9146 Y10.5456
G01 X26.9163 Y10.5231
G01 X26.9175 Y10.5119
G01 X26.9209 Y10.4895
G01 X26.9253 Y10.4674
G01 X26.9308 Y10.4455
G01 X26.9373 Y10.4239
G01 X26.9449 Y10.4026
G01 X26.9491 Y10.3921
G01 X26.9583 Y10.3715
G01 X26.9632 Y10.3614
G01 X26.9739 Y10.3414
G01 X26.9855 Y10.3221
G01 X26.9980 Y10.3033
G01 X27.0046 Y10.2942
G01 X27.0185 Y10.2764
G01 X27.0333 Y10.2593
G01 X27.0488 Y10.2429
G00 Z2.0000
G00 X27.1761 Y10.3702
G01 F200.00
G01 Z0.0000
G01 F600.00
G01 X27.7667 Y9.7797
G01 X27.7822 Y9.7660
G01 X27.7930 Y9.7576
G01 X27.8043 Y9.7496
G01 X27.8159 Y9.7423
G01 X27.8278 Y9.7355
G01 X27.8401 Y9.7293
G01 X27.8527 Y9.7238
G01 X27.8655 Y9.7188
G01 X27.8785 Y9.7145
G01 X27.8985 Y9.7093
G01 X27.9119 Y9.7066
G01 X27.9255 Y9.7046
G01 X27.9392 Y9.7032
G01 X27.9529 Y9.7025
G01 X28.7884 Y9.7025
G01 X28.8021 Y9.7028
G01 X28.8158 Y9.7038
G01 X28.8294 Y9.7055
G01 X28.8497 Y9.7093
G01 X28.8696 Y9.7145
G01 X28.8827 Y9.7188
G01 X28.8955 Y9.7238
G01 X28.9143 Y9.7324
G01 X28.9264 Y9.7388
G01 X28.9382 Y9.7459
G01 X28.9496 Y9.7535
G01 X28.9606 Y9.7617
G01 X28.9712 Y9.7704
G01 X28.9814 Y9.7797
G01 X29.5721 Y10.3702
G01 X29.5815 Y10.3801
G01 X29.5905 Y10.3905
G01 X29.6030 Y10.4070
G01 X29.6106 Y10.4184
G01 X29.6210 Y10.4362
G01 X29.6301 Y10.4547
G01 X29.6353 Y10.4674
G01 X29.6399 Y10.4803
G01 X29.6457 Y10.5001
G01 X29.6487 Y10.5136
G01 X29.6520 Y10.5339
G01 X29.6537 Y10.5544
G01 X29.6541 Y10.5682
G01 X29.6540 Y11.4036
G01 X29.6533 Y11.4173
G01 X29.6520 Y11.4310
G01 X29.6500 Y11.4446
G01 X29.6473 Y11.4581
G01 X29.6439 Y11.4714
G01 X29.6399 Y11.4846
G01 X29.6353 Y11.4975
G01 X29.6301 Y11.5102
G01 X29.6242 Y11.5226
G01 X29.6177 Y11.5347
G01 X29.6069 Y11.5523
G01 X29.5990 Y11.5635
G01 X29.5905 Y11.5744
G01 X29.5769 Y11.5898
G01 X28.9814 Y12.1852
G01 X28.9660 Y12.1989
G01 X28.9552 Y12.2073
G01 X28.9439 Y12.2153
G01 X28.9264 Y12.2261
G01 X28.9081 Y12.2356
G01 X28.8955 Y12.2411
G01 X28.8762 Y12.2483
G01 X28.8625 Y12.2525
G01 X28.8762 Y12.2566
G01 X28.8891 Y12.2612
G01 X28.9018 Y12.2665
G01 X28.9204 Y12.2755
G01 X28.9323 Y12.2823
G01 X28.9496 Y12.2935
G01 X28.9606 Y12.3017
G01 X28.9764 Y12.3150
G01 X28.9863 Y12.3245
G01 X29.5769 Y12.9151
G01 X29.5861 Y12.9253
G01 X29.5948 Y12.9359
G01 X29.6069 Y12.9526
G01 X29.6142 Y12.9642
G01 X29.6210 Y12.9762
G01 X29.6301 Y12.9947
G01 X29.6353 Y13.0074
G01 X29.6399 Y13.0203
G01 X29.6457 Y13.0401
G01 X29.6487 Y13.0536
G01 X29.6511 Y13.0671
G01 X29.6533 Y13.0876
G01 X29.6541 Y13.1082
G01 X29.6540 Y13.9436
G01 X29.6533 Y13.9573
G01 X29.6520 Y13.9710
G01 X29.6500 Y13.9846
G01 X29.6473 Y13.9981
G01 X29.6439 Y14.0114
G01 X29.6399 Y14.0246
G01 X29.6328 Y14.0439
G01 X29.6272 Y14.0564
G01 X29.6177 Y14.0747
G01 X29.6069 Y14.0923
G01 X29.5990 Y14.1035
G01 X29.5905 Y14.1144
G01 X29.5769 Y14.1298
G01 X28.9814 Y14.7252
G01 X28.9660 Y14.7389
G01 X28.9552 Y14.7473
G01 X28.9382 Y14.7590
G01 X28.9264 Y14.7661
G01 X28.9081 Y14.7756
G01 X28.8955 Y14.7811
G01 X28.8762 Y14.7883
G01 X28.8625 Y14.7925
G01 X28.8762 Y14.7966
G01 X28.8891 Y14.8012
G01 X28.9081 Y14.8093
G01 X28.9204 Y14.8155
G01 X28.9323 Y14.8223
G01 X28.9496 Y14.8335
G01 X28.9660 Y14.8460
G01 X28.9764 Y14.8550
G01 X28.9863 Y14.8645
G01 X29.5769 Y15.4551
G01 X29.5861 Y15.4653
G01 X29.5948 Y15.4759
G01 X29.6069 Y15.4926
G01 X29.6177 Y15.5102
G01 X29.6272 Y15.5285
G01 X29.6353 Y15.5474
G01 X29.6420 Y15.5669
G01 X29.6457 Y15.5801
G01 X29.6487 Y15.5936
G01 X29.6520 Y15.6139
G01 X29.6537 Y15.6344
G01 X29.6541 Y15.6482
G01 X29.6540 Y16.4836
G01 X29.6533 Y16.4973
G01 X29.6520 Y16.5110
G01 X29.6500 Y16.5246
G01 X29.6473 Y16.5381
G01 X29.6439 Y16.5514
G01 X29.6399 Y16.5646
G01 X29.6353 Y16.5775
G01 X29.6301 Y16.5902
G01 X29.6242 Y16.6026
G01 X29.6177 Y16.6147
G01 X29.6069 Y16.6323
G01 X29.5990 Y16.6435
G01 X29.5905 Y16.6544
G01 X29.5769 Y16.6698
G01 X28.9863 Y17.2604
G01 X28.9764 Y17.2699
G01 X28.9660 Y17.2789
G01 X28.9552 Y17.2873
G01 X28.9439 Y17.2953
G01 X28.9323 Y17.3026
G01 X28.9204 Y17.3094
G01 X28.9081 Y17.3156
G01 X28.8922 Y17.3225
G01 X29.3810 Y17.3225
G01 X29.4015 Y17.3238
G01 X29.4152 Y17.3255
G01 X29.4354 Y17.3293
G01 X29.4488 Y17.3326
G01 X29.4619 Y17.3366
G01 X29.4812 Y17.3438
G01 X29.5000 Y17.3524
G01 X29.5180 Y17.3623
G01 X29.5353 Y17.3735
G01 X29.5463 Y17.3817
G01 X29.5621 Y17.3950
G01 X29.5769 Y17.4094
G01 X29.5905 Y17.4248
G01 X29.6030 Y17.4412
G01 X29.6142 Y17.4585
G01 X29.6210 Y17.4705
G01 X29.6301 Y17.4890
G01 X29.6377 Y17.5081
G01 X29.6420 Y17.5212
G01 X29.6473 Y17.5411
G01 X29.6500 Y17.5546
G01 X29.6520 Y17.5682
G01 X29.6537 Y17.5887
G01 X29.6541 Y17.6025
G01 X29.6541 Y19.6024
G01 X29.6537 Y19.6162
G01 X29.6527 Y19.6299
G01 X29.6500 Y19.6503
G01 X29.6457 Y19.6705
G01 X29.6399 Y19.6903
G01 X29.6353 Y19.7032
G01 X29.6301 Y19.7159
G01 X29.6210 Y19.7344
G01 X29.6106 Y19.7522
G01 X29.5990 Y19.7692
G01 X29.5861 Y19.7853
G01 X29.5769 Y19.7955
G01 X29.5672 Y19.8052
G01 X29.5517 Y19.8189
G01 X29.5353 Y19.8314
G01 X29.5180 Y19.8426
G01 X29.5000 Y19.8526
G01 X29.4812 Y19.8611
G01 X29.4619 Y19.8683
G01 X29.4421 Y19.8741
G01 X29.4287 Y19.8771
G01 X29.4084 Y19.8803
G01 X29.3878 Y19.8821
G01 X29.3741 Y19.8824
G01 X27.3741 Y19.8824
G01 X27.3604 Y19.8821
G01 X27.3466 Y19.8811
G01 X27.3262 Y19.8783
G01 X27.3127 Y19.8756
G01 X27.2994 Y19.8723
G01 X27.2798 Y19.8661
G01 X27.2606 Y19.8584
G01 X27.2421 Y19.8494
G01 X27.2243 Y19.8390
G01 X27.2073 Y19.8273
G01 X27.1912 Y19.8145
G01 X27.1810 Y19.8052
G01 X27.1713 Y19.7955
G01 X27.1576 Y19.7801
G01 X27.1452 Y19.7637
G01 X27.1339 Y19.7464
G01 X27.1240 Y19.7283
G01 X27.1154 Y19.7096
G01 X27.1082 Y19.6903
G01 X27.1025 Y19.6705
G01 X27.0995 Y19.6571
G01 X27.0962 Y19.6367
G01 X27.0944 Y19.6162
G01 X27.0941 Y19.6024
G01 X27.0941 Y17.6025
G01 X27.0948 Y17.5819
G01 X27.0962 Y17.5682
G01 X27.0982 Y17.5546
G01 X27.1025 Y17.5344
G01 X27.1082 Y17.5146
G01 X27.1129 Y17.5017
G01 X27.1210 Y17.4827
G01 X27.1305 Y17.4644
G01 X27.1413 Y17.4469
G01 X27.1534 Y17.4302
G01 X27.1621 Y17.4196
G01 X27.1761 Y17.4045
G01 X27.1861 Y17.3950
G01 X27.1965 Y17.3860
G01 X27.2129 Y17.3735
G01 X27.2243 Y17.3659
G01 X27.2421 Y17.3555
G01 X27.2606 Y17.3465
G01 X27.2733 Y17.3412
G01 X27.2863 Y17.3366
G01 X27.3061 Y17.3308
G01 X27.3195 Y17.3278
G01 X27.3330 Y17.3255
G01 X27.3466 Y17.3238
G01 X27.3672 Y17.3225
G01 X27.8560 Y17.3225
G01 X27.8401 Y17.3156
G01 X27.8278 Y17.3094
G01 X27.8159 Y17.3026
G01 X27.8043 Y17.2953
G01 X27.7930 Y17.2873
G01 X27.7822 Y17.2789
G01 X27.7718 Y17.2699
G01 X27.7618 Y17.2604
G01 X27.1713 Y16.6698
G01 X27.1576 Y16.6544
G01 X27.1492 Y16.6435
G01 X27.1413 Y16.6323
G01 X27.1339 Y16.6207
G01 X27.1272 Y16.6087
G01 X27.1181 Y16.5902
G01 X27.1129 Y16.5775
G01 X27.1082 Y16.5646
G01 X27.1042 Y16.5514
G01 X27.1009 Y16.5381
G01 X27.0982 Y16.5246
G01 X27.0962 Y16.5110
G01 X27.0948 Y16.4973
G01 X27.0942 Y16.4836
G01 X27.0941 Y15.6482
G01 X27.0948 Y15.6276
G01 X27.0971 Y15.6071
G01 X27.1009 Y15.5868
G01 X27.1061 Y15.5669
G01 X27.1105 Y15.5538
G01 X27.1154 Y15.5410
G01 X27.1240 Y15.5223
G01 X27.1339 Y15.5042
G01 X27.1452 Y15.4870
G01 X27.1576 Y15.4705
G01 X27.1713 Y15.4551
G01 X27.7618 Y14.8645
G01 X27.7718 Y14.8550
G01 X27.7822 Y14.8460
G01 X27.7986 Y14.8335
G01 X27.8100 Y14.8259
G01 X27.8278 Y14.8155
G01 X27.8463 Y14.8065
G01 X27.8590 Y14.8012
G01 X27.8720 Y14.7966
G01 X27.8857 Y14.7925
G01 X27.8720 Y14.7883
G01 X27.8590 Y14.7837
G01 X27.8401 Y14.7756
G01 X27.8278 Y14.7694
G01 X27.8159 Y14.7626
G01 X27.7986 Y14.7514
G01 X27.7822 Y14.7389
G01 X27.7718 Y14.7299
G01 X27.7618 Y14.7204
G01 X27.1713 Y14.1298
G01 X27.1576 Y14.1144
G01 X27.1452 Y14.0980
G01 X27.1339 Y14.0807
G01 X27.1240 Y14.0626
G01 X27.1154 Y14.0439
G01 X27.1105 Y14.0311
G01 X27.1061 Y14.0180
G01 X27.1009 Y13.9981
G01 X27.0971 Y13.9778
G01 X27.0948 Y13.9573
G01 X27.0941 Y13.9367
G01 X27.0942 Y13.1013
G01 X27.0948 Y13.0876
G01 X27.0962 Y13.0739
G01 X27.0982 Y13.0603
G01 X27.1009 Y13.0468
G01 X27.1042 Y13.0335
G01 X27.1082 Y13.0203
G01 X27.1129 Y13.0074
G01 X27.1181 Y12.9947
G01 X27.1272 Y12.9762
G01 X27.1339 Y12.9642
G01 X27.1413 Y12.9526
G01 X27.1534 Y12.9359
G01 X27.1621 Y12.9253
G01 X27.1713 Y12.9151
G01 X27.7667 Y12.3197
G01 X27.7822 Y12.3060
G01 X27.7930 Y12.2976
G01 X27.8043 Y12.2896
G01 X27.8218 Y12.2788
G01 X27.8401 Y12.2693
G01 X27.8527 Y12.2638
G01 X27.8720 Y12.2566
G01 X27.8857 Y12.2525
G01 X27.8720 Y12.2483
G01 X27.8527 Y12.2411
G01 X27.8339 Y12.2326
G01 X27.8218 Y12.2261
G01 X27.8100 Y12.2190
G01 X27.7930 Y12.2073
G01 X27.7769 Y12.1945
G01 X27.7618 Y12.1804
G01 X27.1713 Y11.5898
G01 X27.1621 Y11.5796
G01 X27.1534 Y11.5690
G01 X27.1452 Y11.5580
G01 X27.1375 Y11.5465
G01 X27.1305 Y11.5347
G01 X27.1240 Y11.5226
G01 X27.1181 Y11.5102
G01 X27.1129 Y11.4975
G01 X27.1061 Y11.4780
G01 X27.1025 Y11.4648
G01 X27.0995 Y11.4514
G01 X27.0962 Y11.4310
G01 X27.0948 Y11.4173
G01 X27.0942 Y11.4036
G01 X27.0941 Y10.5682
G01 X27.0944 Y10.5544
G01 X27.0962 Y10.5339
G01 X27.0982 Y10.5203
G01 X27.1009 Y10.5068
G01 X27.1042 Y10.4935
G01 X27.1082 Y10.4803
G01 X27.1129 Y10.4674
G01 X27.1181 Y10.4547
G01 X27.1240 Y10.4423
G01 X27.1305 Y10.4302
G01 X27.1375 Y10.4184
G01 X27.1452 Y10.4070
G01 X27.1534 Y10.3959
G01 X27.1621 Y10.3853
G01 X27.1761 Y10.3702
G00 Z2.0000
G00 X27.3034 Y10.4975
G01 F200.00
G01 Z0.0000
G01 F600.00
G01 X27.8891 Y9.9117
G01 X27.8964 Y9.9052
G01 X27.9043 Y9.8993
G01 X27.9127 Y9.8943
G01 X27.9238 Y9.8892
G01 X27.9331 Y9.8861
G01 X27.9427 Y9.8839
G01 X27.9500 Y9.8829
G01 X27.9598 Y9.8825
G01 X28.7884 Y9.8825
G01 X28.8006 Y9.8832
G01 X28.8103 Y9.8849
G01 X28.8197 Y9.8875
G01 X28.8289 Y9.8910
G01 X28.8355 Y9.8943
G01 X28.8439 Y9.8993
G01 X28.8518 Y9.9052
G01 X28.8591 Y9.9117
G01 X29.4448 Y10.4975
G01 X29.4514 Y10.5047
G01 X29.4572 Y10.5126
G01 X29.4623 Y10.5210
G01 X29.4665 Y10.5299
G01 X29.4698 Y10.5392
G01 X29.4722 Y10.5487
G01 X29.4736 Y10.5584
G01 X29.4741 Y10.5682
G01 X29.4741 Y11.3967
G01 X29.4736 Y11.4065
G01 X29.4722 Y11.4162
G01 X29.4698 Y11.4258
G01 X29.4655 Y11.4372
G01 X29.4623 Y11.4439
G01 X29.4572 Y11.4523
G01 X29.4514 Y11.4602
G01 X29.4448 Y11.4674
G01 X28.8591 Y12.0532
G01 X28.8518 Y12.0597
G01 X28.8439 Y12.0656
G01 X28.8355 Y12.0706
G01 X28.8266 Y12.0748
G01 X28.8174 Y12.0781
G01 X28.8079 Y12.0805
G01 X28.7982 Y12.0820
G01 X28.7884 Y12.0824
G01 X27.9598 Y12.0824
G01 X27.9500 Y12.0820
G01 X27.9379 Y12.0800
G01 X27.9284 Y12.0774
G01 X27.9193 Y12.0739
G01 X27.9127 Y12.0706
G01 X27.9043 Y12.0656
G01 X27.8964 Y12.0597
G01 X27.8891 Y12.0532
G01 X27.3034 Y11.4674
G01 X27.2953 Y11.4582
G01 X27.2896 Y11.4502
G01 X27.2848 Y11.4417
G01 X27.2808 Y11.4327
G01 X27.2777 Y11.4234
G01 X27.2756 Y11.4138
G01 X27.2744 Y11.4041
G01 X27.2741 Y11.3967
G01 X27.2741 Y10.5657
G01 X27.2748 Y10.5559
G01 X27.2760 Y10.5487
G01 X27.2784 Y10.5392
G01 X27.2817 Y10.5299
G01 X27.2859 Y10.5210
G01 X27.2909 Y10.5126
G01 X27.2968 Y10.5047
G01 X27.3034 Y10.4975
G00 Z2.0000
G00 X27.3034 Y13.0375
G01 F200.00
G01 Z0.0000
G01 F600.00
G01 X27.8891 Y12.4517
G01 X27.8964 Y12.4452
G01 X27.9043 Y12.4393
G01 X27.9127 Y12.4343
G01 X27.9238 Y12.4292
G01 X27.9331 Y12.4261
G01 X27.9427 Y12.4239
G01 X27.9500 Y12.4229
G01 X27.9598 Y12.4225
G01 X28.7884 Y12.4225
G01 X28.8006 Y12.4232
G01 X28.8103 Y12.4249
G01 X28.8197 Y12.4275
G01 X28.8289 Y12.4310
G01 X28.8355 Y12.4343
G01 X28.8439 Y12.4393
G01 X28.8518 Y12.4452
G01 X28.8591 Y12.4517
G01 X29.4448 Y13.0375
G01 X29.4514 Y13.0447
G01 X29.4572 Y13.0526
G01 X29.4623 Y13.0610
G01 X29.4665 Y13.0699
G01 X29.4698 Y13.0792
G01 X29.4722 Y13.0887
G01 X29.4736 Y13.0984
G01 X29.4741 Y13.1082
G01 X29.4741 Y13.9367
G01 X29.4736 Y13.9465
G01 X29.4722 Y13.9562
G01 X29.4698 Y13.9658
G01 X29.4655 Y13.9772
G01 X29.4623 Y13.9839
G01 X29.4572 Y13.9923
G01 X29.4514 Y14.0002
G01 X29.4448 Y14.0074
G01 X28.8591 Y14.5932
G01 X28.8518 Y14.5997
G01 X28.8439 Y14.6056
G01 X28.8355 Y14.6106
G01 X28.8266 Y14.6148
G01 X28.8174 Y14.6181
G01 X28.8079 Y14.6205
G01 X28.7982 Y14.6220
G01 X28.7884 Y14.6224
G01 X27.9598 Y14.6224
G01 X27.9500 Y14.6220
G01 X27.9403 Y14.6205
G01 X27.9284 Y14.6174
G01 X27.9193 Y14.6139
G01 X27.9105 Y14.6095
G01 X27.9022 Y14.6042
G01 X27.8945 Y14.5982
G01 X27.8891 Y14.5932
G01 X27.3034 Y14.0074
G01 X27.2953 Y13.9982
G01 X27.2896 Y13.9902
G01 X27.2848 Y13.9817
G01 X27.2808 Y13.9727
G01 X27.2777 Y13.9634
G01 X27.2756 Y13.9538
G01 X27.2744 Y13.9441
G01 X27.2741 Y13.9367
G01 X27.2741 Y13.1057
G01 X27.2748 Y13.0959
G01 X27.2760 Y13.0887
G01 X27.2784 Y13.0792
G01 X27.2817 Y13.0699
G01 X27.2859 Y13.0610
G01 X27.2909 Y13.0526
G01 X27.2968 Y13.0447
G01 X27.3034 Y13.0375
G00 Z2.0000
G00 X27.3034 Y15.5775
G01 F200.00
G01 Z0.0000
G01 F600.00
G01 X27.8891 Y14.9917
G01 X27.8964 Y14.9852
G01 X27.9043 Y14.9793
G01 X27.9127 Y14.9743
G01 X27.9238 Y14.9692
G01 X27.9331 Y14.9661
G01 X27.9403 Y14.9644
G01 X27.9500 Y14.9629
G01 X27.9598 Y14.9625
G01 X28.7884 Y14.9625
G01 X28.7982 Y14.9629
G01 X28.8079 Y14.9644
G01 X28.8197 Y14.9675
G01 X28.8289 Y14.9710
G01 X28.8376 Y14.9754
G01 X28.8459 Y14.9807
G01 X28.8537 Y14.9867
G01 X28.8591 Y14.9917
G01 X29.4448 Y15.5775
G01 X29.4514 Y15.5847
G01 X29.4572 Y15.5926
G01 X29.4623 Y15.6010
G01 X29.4665 Y15.6099
G01 X29.4698 Y15.6192
G01 X29.4722 Y15.6287
G01 X29.4736 Y15.6384
G01 X29.4741 Y15.6482
G01 X29.4741 Y16.4767
G01 X29.4736 Y16.4865
G01 X29.4722 Y16.4962
G01 X29.4690 Y16.5081
G01 X29.4655 Y16.5172
G01 X29.4623 Y16.5239
G01 X29.4572 Y16.5323
G01 X29.4514 Y16.5402
G01 X29.4448 Y16.5474
G01 X28.8591 Y17.1332
G01 X28.8518 Y17.1397
G01 X28.8439 Y17.1456
G01 X28.8355 Y17.1506
G01 X28.8266 Y17.1548
G01 X28.8174 Y17.1581
G01 X28.8079 Y17.1605
G01 X28.7982 Y17.1620
G01 X28.7884 Y17.1624
G01 X27.9598 Y17.1624
G01 X27.9476 Y17.1617
G01 X27.9379 Y17.1600
G01 X27.9284 Y17.1574
G01 X27.9193 Y17.1539
G01 X27.9105 Y17.1495
G01 X27.9022 Y17.1442
G01 X27.8945 Y17.1382
G01 X27.8891 Y17.1332
G01 X27.3034 Y16.5474
G01 X27.2968 Y16.5402
G01 X27.2909 Y16.5323
G01 X27.2848 Y16.5217
G01 X27.2808 Y16.5127
G01 X27.2777 Y16.5034
G01 X27.2756 Y16.4938
G01 X27.2744 Y16.4841
G01 X27.2741 Y16.4767
G01 X27.2741 Y15.6457
G01 X27.2748 Y15.6359
G01 X27.2760 Y15.6287
G01 X27.2784 Y15.6192
G01 X27.2817 Y15.6099
G01 X27.2859 Y15.6010
G01 X27.2909 Y15.5926
G01 X27.2968 Y15.5847
G01 X27.3034 Y15.5775
G00 Z2.0000
G00 X27.3741 Y17.5025
G01 F200.00
G01 Z0.0000
G01 F600.00
G01 X29.3765 Y17.5025
G01 X29.3863 Y17.5032
G01 X29.3960 Y17.5049
G01 X29.4054 Y17.5075
G01 X29.4146 Y17.5110
G01 X29.4234 Y17.5154
G01 X29.4317 Y17.5207
G01 X29.4394 Y17.5267
G01 X29.4465 Y17.5335
G01 X29.4529 Y17.5409
G01 X29.4586 Y17.5490
G01 X29.4623 Y17.5553
G01 X29.4665 Y17.5642
G01 X29.4690 Y17.5711
G01 X29.4717 Y17.5805
G01 X29.4733 Y17.5902
G01 X29.4741 Y17.6000
G01 X29.4741 Y19.6024
G01 X29.4736 Y19.6122
G01 X29.4722 Y19.6220
G01 X29.4690 Y19.6338
G01 X29.4655 Y19.6430
G01 X29.4611 Y19.6517
G01 X29.4558 Y19.6600
G01 X29.4498 Y19.6678
G01 X29.4430 Y19.6749
G01 X29.4356 Y19.6813
G01 X29.4276 Y19.6869
G01 X29.4212 Y19.6906
G01 X29.4123 Y19.6948
G01 X29.4054 Y19.6974
G01 X29.3960 Y19.7000
G01 X29.3863 Y19.7017
G01 X29.3765 Y19.7024
G01 X27.3741 Y19.7024
G01 X27.3643 Y19.7020
G01 X27.3546 Y19.7005
G01 X27.3451 Y19.6981
G01 X27.3336 Y19.6939
G01 X27.3248 Y19.6895
G01 X27.3165 Y19.6842
G01 X27.3088 Y19.6782
G01 X27.3017 Y19.6714
G01 X27.2968 Y19.6659
G01 X27.2909 Y19.6580
G01 X27.2859 Y19.6496
G01 X27.2817 Y19.6407
G01 X27.2784 Y19.6315
G01 X27.2760 Y19.6220
G01 X27.2748 Y19.6147
G01 X27.2741 Y19.6049
G01 X27.2741 Y17.6000
G01 X27.2748 Y17.5902
G01 X27.2765 Y17.5805
G01 X27.2791 Y17.5711
G01 X27.2827 Y17.5619
G01 X27.2871 Y17.5532
G01 X27.2909 Y17.5469
G01 X27.2968 Y17.5390
G01 X27.3034 Y17.5317
G01 X27.3107 Y17.5252
G01 X27.3185 Y17.5193
G01 X27.3270 Y17.5143
G01 X27.3358 Y17.5101
G01 X27.3451 Y17.5068
G01 X27.3546 Y17.5044
G01 X27.3643 Y17.5029
G01 X27.3741 Y17.5025
G00 Z2.0000
G00 X30.6120 Y17.0396
G01 F200.00
G01 Z0.0000
G01 F600.00
G01 X30.6138 Y17.0357
G01 X30.6138 Y17.0435
G01 X30.6120 Y17.0396
G00 Z2.0000
G00 X30.4310 Y14.7925
G01 F200.00
G01 Z0.0000
G01 F600.00
G01 X30.4462 Y14.7734
G01 X30.4664 Y14.7469
G01 X30.4860 Y14.7198
G01 X30.5049 Y14.6923
G01 X30.5231 Y14.6643
G01 X30.5406 Y14.6359
G01 X30.5574 Y14.6071
G01 X30.5735 Y14.5778
G01 X30.5889 Y14.5482
G01 X30.6035 Y14.5182
G01 X30.6138 Y14.4957
G01 X30.6138 Y15.0892
G01 X30.6035 Y15.0667
G01 X30.5889 Y15.0367
G01 X30.5735 Y15.0071
G01 X30.5574 Y14.9778
G01 X30.5406 Y14.9490
G01 X30.5231 Y14.9206
G01 X30.5049 Y14.8926
G01 X30.4860 Y14.8651
G01 X30.4664 Y14.8380
G01 X30.4462 Y14.8115
G01 X30.4310 Y14.7925
G00 Z2.0000
G00 X30.4310 Y12.2525
G01 F200.00
G01 Z0.0000
G01 F600.00
G01 X30.4462 Y12.2334
G01 X30.4664 Y12.2069
G01 X30.4860 Y12.1798
G01 X30.5049 Y12.1523
G01 X30.5231 Y12.1243
G01 X30.5406 Y12.0959
G01 X30.5574 Y12.0671
G01 X30.5735 Y12.0378
G01 X30.5889 Y12.0082
G01 X30.6035 Y11.9782
G01 X30.6138 Y11.9557
G01 X30.6138 Y12.5492
G01 X30.6035 Y12.5267
G01 X30.5889 Y12.4967
G01 X30.5735 Y12.4671
G01 X30.5574 Y12.4378
G01 X30.5406 Y12.4090
G01 X30.5231 Y12.3806
G01 X30.5049 Y12.3526
G01 X30.4860 Y12.3251
G01 X30.4664 Y12.2980
G01 X30.4462 Y12.2715
G01 X30.4310 Y12.2525
G00 Z2.0000
G00 X30.9738 Y9.3007
G01 F200.00
G01 Z0.0000
G01 F600.00
G01 X30.9328 Y9.2450
G01 X30.9190 Y9.2247
G01 X30.9056 Y9.2042
G01 X30.8549 Y9.1201
G01 X30.8425 Y9.0989
G01 X30.8307 Y9.0774
G01 X30.8194 Y9.0556
G01 X30.7771 Y8.9671
G01 X30.7669 Y8.9447
G01 X30.7572 Y8.9222
G01 X30.7481 Y8.8994
G01 X30.7396 Y8.8764
G01 X30.7068 Y8.7839
G01 X30.6994 Y8.7605
G01 X30.6925 Y8.7369
G01 X30.6863 Y8.7132
G01 X30.6627 Y8.6179
G01 X30.6576 Y8.5939
G01 X30.6532 Y8.5698
G01 X30.6385 Y8.4727
G01 X30.6352 Y8.4484
G01 X30.6324 Y8.4240
G01 X30.6303 Y8.3995
G01 X30.6288 Y8.3750
G01 X30.6243 Y8.2770
G01 X30.6240 Y8.2525
G01 X30.6243 Y8.2279
G01 X30.6288 Y8.1299
G01 X30.6303 Y8.1054
G01 X30.6324 Y8.0809
G01 X30.6352 Y8.0565
G01 X30.6385 Y8.0322
G01 X30.6532 Y7.9352
G01 X30.6576 Y7.9110
G01 X30.6627 Y7.8870
G01 X30.6684 Y7.8632
G01 X30.6925 Y7.7680
G01 X30.6994 Y7.7444
G01 X30.7068 Y7.7210
G01 X30.7396 Y7.6285
G01 X30.7481 Y7.6055
G01 X30.7572 Y7.5827
G01 X30.7669 Y7.5602
G01 X30.8086 Y7.4713
G01 X30.8194 Y7.4493
G01 X30.8307 Y7.4275
G01 X30.8425 Y7.4060
G01 X30.8549 Y7.3848
G01 X30.9056 Y7.3008
G01 X30.9190 Y7.2802
G01 X30.9328 Y7.2599
G01 X30.9472 Y7.2401
G01 X31.0059 Y7.1614
G01 X31.0213 Y7.1422
G01 X31.0371 Y7.1235
G01 X31.1028 Y7.0505
G01 X31.1195 Y7.0325
G01 X31.1366 Y7.0150
G01 X31.1542 Y6.9978
G01 X31.1721 Y6.9811
G01 X31.2451 Y6.9154
G01 X31.2639 Y6.8996
G01 X31.2830 Y6.8843
G01 X31.3617 Y6.8256
G01 X31.3816 Y6.8112
G01 X31.4018 Y6.7973
G01 X31.4224 Y6.7840
G01 X31.4433 Y6.7711
G01 X31.5276 Y6.7209
G01 X31.5491 Y6.7090
G01 X31.5709 Y6.6977
G01 X31.5929 Y6.6870
G01 X31.6818 Y6.6453
G01 X31.7044 Y6.6356
G01 X31.7271 Y6.6265
G01 X31.8195 Y6.5932
G01 X31.8427 Y6.5852
G01 X31.8661 Y6.5778
G01 X31.8896 Y6.5709
G01 X31.9134 Y6.5647
G01 X32.0086 Y6.5411
G01 X32.0327 Y6.5360
G01 X32.0568 Y6.5315
G01 X32.0810 Y6.5276
G01 X32.1781 Y6.5135
G01 X32.2025 Y6.5108
G01 X32.2270 Y6.5087
G01 X32.3250 Y6.5036
G01 X32.3495 Y6.5027
G01 X32.3741 Y6.5024
G01 X32.3986 Y6.5027
G01 X32.4231 Y6.5036
G01 X32.5212 Y6.5087
G01 X32.5456 Y6.5108
G01 X32.5700 Y6.5135
G01 X32.5943 Y6.5168
G01 X32.6914 Y6.5315
G01 X32.7155 Y6.5360
G01 X32.7395 Y6.5411
G01 X32.7634 Y6.5468
G01 X32.8585 Y6.5709
G01 X32.8821 Y6.5778
G01 X32.9055 Y6.5852
G01 X32.9980 Y6.6180
G01 X33.0210 Y6.6265
G01 X33.0438 Y6.6356
G01 X33.0664 Y6.6453
G01 X33.0887 Y6.6555
G01 X33.1773 Y6.6977
G01 X33.1991 Y6.7090
G01 X33.2206 Y6.7209
G01 X33.3049 Y6.7711
G01 X33.3258 Y6.7840
G01 X33.3464 Y6.7973
G01 X33.3666 Y6.8112
G01 X33.3865 Y6.8256
G01 X33.4651 Y6.8843
G01 X33.4843 Y6.8996
G01 X33.5031 Y6.9154
G01 X33.5760 Y6.9811
G01 X33.5940 Y6.9978
G01 X33.6116 Y7.0150
G01 X33.6287 Y7.0325
G01 X33.6454 Y7.0505
G01 X33.7111 Y7.1235
G01 X33.7269 Y7.1422
G01 X33.7422 Y7.1614
G01 X33.8009 Y7.2401
G01 X33.8153 Y7.2599
G01 X33.8292 Y7.2802
G01 X33.8426 Y7.3008
G01 X33.8555 Y7.3216
G01 X33.9057 Y7.4060
G01 X33.9175 Y7.4275
G01 X33.9288 Y7.4493
G01 X33.9710 Y7.5379
G01 X33.9813 Y7.5602
G01 X33.9909 Y7.5827
G01 X34.0000 Y7.6055
G01 X34.0086 Y7.6285
G01 X34.0414 Y7.7210
G01 X34.0488 Y7.7444
G01 X34.0556 Y7.7680
G01 X34.0798 Y7.8632
G01 X34.0854 Y7.8870
G01 X34.0905 Y7.9110
G01 X34.0950 Y7.9352
G01 X34.0989 Y7.9594
G01 X34.1097 Y8.0322
G01 X34.1130 Y8.0565
G01 X34.1157 Y8.0809
G01 X34.1178 Y8.1054
G01 X34.1193 Y8.1299
G01 X34.1238 Y8.2279
G01 X34.1241 Y8.2525
G01 X34.1238 Y8.2770
G01 X34.1193 Y8.3750
G01 X34.1178 Y8.3995
G01 X34.1157 Y8.4240
G01 X34.1130 Y8.4484
G01 X34.1097 Y8.4727
G01 X34.0950 Y8.5698
G01 X34.0905 Y8.5939
G01 X34.0854 Y8.6179
G01 X34.0619 Y8.7132
G01 X34.0556 Y8.7369
G01 X34.0488 Y8.7605
G01 X34.0414 Y8.7839
G01 X34.0086 Y8.8764
G01 X34.0000 Y8.8994
G01 X33.9909 Y8.9222
G01 X33.9813 Y8.9447
G01 X33.9710 Y8.9671
G01 X33.9288 Y9.0556
G01 X33.9175 Y9.0774
G01 X33.9057 Y9.0989
G01 X33.8555 Y9.1833
G01 X33.8426 Y9.2042
G01 X33.8292 Y9.2247
G01 X33.8153 Y9.2450
G01 X33.7743 Y9.3008
G01 X33.7743 Y18.1041
G01 X33.8153 Y18.1598
G01 X33.8292 Y18.1801
G01 X33.8426 Y18.2007
G01 X33.8933 Y18.2847
G01 X33.9057 Y18.3059
G01 X33.9175 Y18.3274
G01 X33.9288 Y18.3492
G01 X33.9710 Y18.4378
G01 X33.9813 Y18.4601
G01 X33.9909 Y18.4826
G01 X34.0000 Y18.5054
G01 X34.0086 Y18.5284
G01 X34.0414 Y18.6209
G01 X34.0488 Y18.6443
G01 X34.0556 Y18.6679
G01 X34.0798 Y18.7631
G01 X34.0854 Y18.7869
G01 X34.0905 Y18.8109
G01 X34.0950 Y18.8351
G01 X34.0989 Y18.8593
G01 X34.1130 Y18.9564
G01 X34.1157 Y18.9808
G01 X34.1178 Y19.0053
G01 X34.1229 Y19.1033
G01 X34.1238 Y19.1278
G01 X34.1241 Y19.1524
G01 X34.1238 Y19.1769
G01 X34.1229 Y19.2014
G01 X34.1193 Y19.2749
G01 X34.1178 Y19.2994
G01 X34.1157 Y19.3239
G01 X34.1130 Y19.3483
G01 X34.1097 Y19.3726
G01 X34.0950 Y19.4697
G01 X34.0905 Y19.4938
G01 X34.0854 Y19.5178
G01 X34.0619 Y19.6131
G01 X34.0556 Y19.6368
G01 X34.0488 Y19.6604
G01 X34.0414 Y19.6838
G01 X34.0086 Y19.7763
G01 X34.0000 Y19.7993
G01 X33.9909 Y19.8221
G01 X33.9813 Y19.8446
G01 X33.9396 Y19.9335
G01 X33.9288 Y19.9555
G01 X33.9175 Y19.9773
G01 X33.9057 Y19.9988
G01 X33.8933 Y20.0200
G01 X33.8426 Y20.1041
G01 X33.8292 Y20.1246
G01 X33.8153 Y20.1449
G01 X33.7571 Y20.2239
G01 X33.7422 Y20.2434
G01 X33.7203 Y20.2704
G01 X33.7772 Y20.2977
G01 X33.7990 Y20.3090
G01 X33.8205 Y20.3208
G01 X33.9048 Y20.3710
G01 X33.9257 Y20.3839
G01 X33.9463 Y20.3973
G01 X33.9665 Y20.4111
G01 X34.0456 Y20.4694
G01 X34.0651 Y20.4842
G01 X34.0843 Y20.4996
G01 X34.1030 Y20.5154
G01 X34.1214 Y20.5316
G01 X34.1939 Y20.5978
G01 X34.2115 Y20.6149
G01 X34.2286 Y20.6325
G01 X34.2453 Y20.6505
G01 X34.2948 Y20.7050
G01 X34.3110 Y20.7234
G01 X34.3268 Y20.7422
G01 X34.3422 Y20.7613
G01 X34.3570 Y20.7809
G01 X34.4153 Y20.8599
G01 X34.4291 Y20.8801
G01 X34.4425 Y20.9007
G01 X34.4554 Y20.9216
G01 X34.4932 Y20.9847
G01 X34.5056 Y21.0059
G01 X34.5174 Y21.0274
G01 X34.5287 Y21.0492
G01 X34.5395 Y21.0713
G01 X34.5812 Y21.1601
G01 X34.5909 Y21.1827
G01 X34.6000 Y21.2055
G01 X34.6085 Y21.2285
G01 X34.6333 Y21.2978
G01 X34.6413 Y21.3210
G01 X34.6487 Y21.3444
G01 X34.6556 Y21.3679
G01 X34.6618 Y21.3917
G01 X34.6854 Y21.4870
G01 X34.6905 Y21.5110
G01 X34.6950 Y21.5351
G01 X34.6988 Y21.5593
G01 X34.7130 Y21.6565
G01 X34.7157 Y21.6808
G01 X34.7178 Y21.7053
G01 X34.7229 Y21.8033
G01 X34.7238 Y21.8278
G01 X34.7241 Y21.8524
G01 X34.7238 Y21.8769
G01 X34.7229 Y21.9014
G01 X34.7193 Y21.9750
G01 X34.7178 Y21.9995
G01 X34.7157 Y22.0239
G01 X34.7130 Y22.0483
G01 X34.7097 Y22.0726
G01 X34.6988 Y22.1454
G01 X34.6950 Y22.1697
G01 X34.6905 Y22.1938
G01 X34.6854 Y22.2178
G01 X34.6797 Y22.2417
G01 X34.6556 Y22.3368
G01 X34.6487 Y22.3604
G01 X34.6413 Y22.3838
G01 X34.6333 Y22.4070
G01 X34.6000 Y22.4993
G01 X34.5909 Y22.5221
G01 X34.5812 Y22.5447
G01 X34.5395 Y22.6335
G01 X34.5287 Y22.6556
G01 X34.5174 Y22.6774
G01 X34.5056 Y22.6989
G01 X34.4932 Y22.7201
G01 X34.4425 Y22.8041
G01 X34.4291 Y22.8247
G01 X34.4153 Y22.8449
G01 X34.3743 Y22.9007
G01 X34.3743 Y31.3042
G01 X34.4153 Y31.3600
G01 X34.4291 Y31.3802
G01 X34.4425 Y31.4008
G01 X34.4932 Y31.4848
G01 X34.5056 Y31.5060
G01 X34.5174 Y31.5275
G01 X34.5287 Y31.5493
G01 X34.5710 Y31.6379
G01 X34.5812 Y31.6602
G01 X34.5909 Y31.6828
G01 X34.6000 Y31.7056
G01 X34.6085 Y31.7286
G01 X34.6413 Y31.8211
G01 X34.6487 Y31.8445
G01 X34.6556 Y31.8680
G01 X34.6797 Y31.9632
G01 X34.6854 Y31.9871
G01 X34.6905 Y32.0111
G01 X34.6950 Y32.0352
G01 X34.6988 Y32.0594
G01 X34.7130 Y32.1566
G01 X34.7157 Y32.1810
G01 X34.7178 Y32.2054
G01 X34.7229 Y32.3034
G01 X34.7238 Y32.3279
G01 X34.7241 Y32.3525
G01 X34.7238 Y32.3770
G01 X34.7193 Y32.4751
G01 X34.7178 Y32.4996
G01 X34.7157 Y32.5240
G01 X34.7130 Y32.5484
G01 X34.7097 Y32.5727
G01 X34.6988 Y32.6455
G01 X34.6950 Y32.6698
G01 X34.6905 Y32.6939
G01 X34.6854 Y32.7179
G01 X34.6797 Y32.7418
G01 X34.6618 Y32.8132
G01 X34.6556 Y32.8369
G01 X34.6487 Y32.8605
G01 X34.6413 Y32.8839
G01 X34.6333 Y32.9071
G01 X34.6085 Y32.9764
G01 X34.6000 Y32.9994
G01 X34.5909 Y33.0222
G01 X34.5812 Y33.0448
G01 X34.5710 Y33.0671
G01 X34.5395 Y33.1336
G01 X34.5287 Y33.1557
G01 X34.5174 Y33.1775
G01 X34.5056 Y33.1990
G01 X34.4932 Y33.2202
G01 X34.4425 Y33.3042
G01 X34.4291 Y33.3248
G01 X34.4153 Y33.3450
G01 X34.4009 Y33.3649
G01 X34.3422 Y33.4436
G01 X34.3268 Y33.4627
G01 X34.3110 Y33.4815
G01 X34.2453 Y33.5544
G01 X34.2286 Y33.5724
G01 X34.2115 Y33.5900
G01 X34.1939 Y33.6071
G01 X34.1760 Y33.6238
G01 X34.1030 Y33.6895
G01 X34.0843 Y33.7053
G01 X34.0651 Y33.7206
G01 X34.0456 Y33.7355
G01 X33.9665 Y33.7937
G01 X33.9463 Y33.8076
G01 X33.9257 Y33.8210
G01 X33.9048 Y33.8339
G01 X33.8205 Y33.8841
G01 X33.7990 Y33.8959
G01 X33.7772 Y33.9072
G01 X33.6886 Y33.9494
G01 X33.6663 Y33.9597
G01 X33.6437 Y33.9693
G01 X33.6210 Y33.9784
G01 X33.5980 Y33.9870
G01 X33.5286 Y34.0118
G01 X33.5054 Y34.0198
G01 X33.4820 Y34.0272
G01 X33.4585 Y34.0340
G01 X33.4347 Y34.0403
G01 X33.3633 Y34.0582
G01 X33.3395 Y34.0638
G01 X33.3154 Y34.0689
G01 X33.2913 Y34.0734
G01 X33.2671 Y34.0773
G01 X33.1943 Y34.0881
G01 X33.1700 Y34.0914
G01 X33.1456 Y34.0941
G01 X33.1211 Y34.0962
G01 X33.0966 Y34.0977
G01 X33.0231 Y34.1013
G01 X32.9986 Y34.1022
G01 X32.9740 Y34.1025
G01 X32.9495 Y34.1022
G01 X32.9250 Y34.1013
G01 X32.8514 Y34.0977
G01 X32.8269 Y34.0962
G01 X32.8025 Y34.0941
G01 X32.7781 Y34.0914
G01 X32.7538 Y34.0881
G01 X32.6810 Y34.0773
G01 X32.6567 Y34.0734
G01 X32.6326 Y34.0689
G01 X32.6086 Y34.0638
G01 X32.5847 Y34.0582
G01 X32.5133 Y34.0403
G01 X32.4896 Y34.0340
G01 X32.4660 Y34.0272
G01 X32.4426 Y34.0198
G01 X32.4194 Y34.0118
G01 X32.3501 Y33.9870
G01 X32.3271 Y33.9784
G01 X32.3043 Y33.9693
G01 X32.2817 Y33.9597
G01 X32.2594 Y33.9494
G01 X32.1929 Y33.9180
G01 X32.1708 Y33.9072
G01 X32.1491 Y33.8959
G01 X32.1276 Y33.8841
G01 X32.1063 Y33.8717
G01 X32.0432 Y33.8339
G01 X32.0223 Y33.8210
G01 X32.0017 Y33.8076
G01 X31.9815 Y33.7937
G01 X31.9616 Y33.7793
G01 X31.9025 Y33.7355
G01 X31.8830 Y33.7206
G01 X31.8638 Y33.7053
G01 X31.8450 Y33.6895
G01 X31.8266 Y33.6732
G01 X31.7721 Y33.6238
G01 X31.7541 Y33.6071
G01 X31.7365 Y33.5900
G01 X31.7194 Y33.5724
G01 X31.7027 Y33.5544
G01 X31.6533 Y33.4999
G01 X31.6370 Y33.4815
G01 X31.6212 Y33.4627
G01 X31.6059 Y33.4436
G01 X31.5910 Y33.4240
G01 X31.5472 Y33.3649
G01 X31.5328 Y33.3450
G01 X31.5189 Y33.3248
G01 X31.5055 Y33.3042
G01 X31.4926 Y33.2833
G01 X31.4548 Y33.2202
G01 X31.4424 Y33.1990
G01 X31.4306 Y33.1775
G01 X31.4193 Y33.1557
G01 X31.4085 Y33.1336
G01 X31.3771 Y33.0671
G01 X31.3669 Y33.0448
G01 X31.3572 Y33.0222
G01 X31.3481 Y32.9994
G01 X31.3395 Y32.9764
G01 X31.3147 Y32.9071
G01 X31.3067 Y32.8839
G01 X31.2993 Y32.8605
G01 X31.2925 Y32.8369
G01 X31.2862 Y32.8132
G01 X31.2683 Y32.7418
G01 X31.2627 Y32.7179
G01 X31.2576 Y32.6939
G01 X31.2531 Y32.6698
G01 X31.2492 Y32.6455
G01 X31.2384 Y32.5727
G01 X31.2351 Y32.5484
G01 X31.2324 Y32.5240
G01 X31.2303 Y32.4996
G01 X31.2288 Y32.4751
G01 X31.2252 Y32.4016
G01 X31.2243 Y32.3770
G01 X31.2240 Y32.3525
G01 X31.2243 Y32.3279
G01 X31.2252 Y32.3034
G01 X31.2288 Y32.2299
G01 X31.2303 Y32.2054
G01 X31.2324 Y32.1810
G01 X31.2351 Y32.1566
G01 X31.2384 Y32.1322
G01 X31.2492 Y32.0594
G01 X31.2531 Y32.0352
G01 X31.2576 Y32.0111
G01 X31.2627 Y31.9871
G01 X31.2683 Y31.9632
G01 X31.2925 Y31.8680
G01 X31.2993 Y31.8445
G01 X31.3067 Y31.8211
G01 X31.3147 Y31.7979
G01 X31.3481 Y31.7056
G01 X31.3572 Y31.6828
G01 X31.3669 Y31.6602
G01 X31.4085 Y31.5714
G01 X31.4193 Y31.5493
G01 X31.4306 Y31.5275
G01 X31.4424 Y31.5060
G01 X31.4548 Y31.4848
G01 X31.5055 Y31.4008
G01 X31.5189 Y31.3802
G01 X31.5328 Y31.3600
G01 X31.5738 Y31.3042
G01 X31.5738 Y22.9007
G01 X31.5328 Y22.8449
G01 X31.5189 Y22.8247
G01 X31.5055 Y22.8041
G01 X31.4548 Y22.7201
G01 X31.4424 Y22.6989
G01 X31.4306 Y22.6774
G01 X31.4193 Y22.6556
G01 X31.3771 Y22.5670
G01 X31.3669 Y22.5447
G01 X31.3572 Y22.5221
G01 X31.3481 Y22.4993
G01 X31.3395 Y22.4763
G01 X31.3067 Y22.3838
G01 X31.2993 Y22.3604
G01 X31.2925 Y22.3368
G01 X31.2683 Y22.2417
G01 X31.2627 Y22.2178
G01 X31.2576 Y22.1938
G01 X31.2531 Y22.1697
G01 X31.2384 Y22.0726
G01 X31.2351 Y22.0483
G01 X31.2324 Y22.0239
G01 X31.2303 Y21.9995
G01 X31.2288 Y21.9750
G01 X31.2243 Y21.8769
G01 X31.2240 Y21.8524
G01 X31.2243 Y21.8278
G01 X31.2288 Y21.7298
G01 X31.2303 Y21.7053
G01 X31.2324 Y21.6808
G01 X31.2351 Y21.6565
G01 X31.2384 Y21.6321
G01 X31.2492 Y21.5593
G01 X31.2531 Y21.5351
G01 X31.2576 Y21.5110
G01 X31.2627 Y21.4870
G01 X31.2683 Y21.4631
G01 X31.2925 Y21.3679
G01 X31.2993 Y21.3444
G01 X31.3067 Y21.3210
G01 X31.3395 Y21.2285
G01 X31.3481 Y21.2055
G01 X31.3572 Y21.1827
G01 X31.3669 Y21.1601
G01 X31.4085 Y21.0713
G01 X31.4193 Y21.0492
G01 X31.4306 Y21.0274
G01 X31.4424 Y21.0059
G01 X31.4548 Y20.9847
G01 X31.5055 Y20.9007
G01 X31.5189 Y20.8801
G01 X31.5328 Y20.8599
G01 X31.5910 Y20.7809
G01 X31.6059 Y20.7613
G01 X31.6278 Y20.7343
G01 X31.5709 Y20.7071
G01 X31.5491 Y20.6958
G01 X31.5276 Y20.6839
G01 X31.4433 Y20.6337
G01 X31.4224 Y20.6209
G01 X31.4018 Y20.6075
G01 X31.3816 Y20.5936
G01 X31.3617 Y20.5792
G01 X31.2830 Y20.5205
G01 X31.2639 Y20.5052
G01 X31.2451 Y20.4894
G01 X31.1721 Y20.4237
G01 X31.1542 Y20.4070
G01 X31.1366 Y20.3898
G01 X31.1195 Y20.3723
G01 X31.1028 Y20.3543
G01 X31.0533 Y20.2998
G01 X31.0371 Y20.2814
G01 X31.0213 Y20.2626
G01 X31.0059 Y20.2434
G01 X30.9472 Y20.1648
G01 X30.9328 Y20.1449
G01 X30.9190 Y20.1246
G01 X30.9056 Y20.1041
G01 X30.8927 Y20.0832
G01 X30.8425 Y19.9988
G01 X30.8307 Y19.9773
G01 X30.8194 Y19.9555
G01 X30.8086 Y19.9335
G01 X30.7771 Y19.8670
G01 X30.7669 Y19.8446
G01 X30.7572 Y19.8221
G01 X30.7481 Y19.7993
G01 X30.7396 Y19.7763
G01 X30.7068 Y19.6838
G01 X30.6994 Y19.6604
G01 X30.6925 Y19.6368
G01 X30.6863 Y19.6131
G01 X30.6684 Y19.5417
G01 X30.6627 Y19.5178
G01 X30.6576 Y19.4938
G01 X30.6532 Y19.4697
G01 X30.6493 Y19.4454
G01 X30.6352 Y19.3483
G01 X30.6324 Y19.3239
G01 X30.6303 Y19.2994
G01 X30.6288 Y19.2749
G01 X30.6243 Y19.1769
G01 X30.6240 Y19.1524
G01 X30.6243 Y19.1278
G01 X30.6288 Y19.0298
G01 X30.6303 Y19.0053
G01 X30.6324 Y18.9808
G01 X30.6352 Y18.9564
G01 X30.6493 Y18.8593
G01 X30.6532 Y18.8351
G01 X30.6576 Y18.8109
G01 X30.6627 Y18.7869
G01 X30.6684 Y18.7631
G01 X30.6863 Y18.6917
G01 X30.6925 Y18.6679
G01 X30.6994 Y18.6443
G01 X30.7068 Y18.6209
G01 X30.7148 Y18.5977
G01 X30.7396 Y18.5284
G01 X30.7481 Y18.5054
G01 X30.7572 Y18.4826
G01 X30.7669 Y18.4601
G01 X30.7771 Y18.4378
G01 X30.8194 Y18.3492
G01 X30.8307 Y18.3274
G01 X30.8425 Y18.3059
G01 X30.8927 Y18.2215
G01 X30.9056 Y18.2007
G01 X30.9190 Y18.1801
G01 X30.9328 Y18.1598
G01 X30.9738 Y18.1041
G01 X30.9738 Y9.3007
G00 Z2.0000
G00 X31.1538 Y9.2403
G01 F200.00
G01 Z0.0000
G01 F600.00
G01 X31.1356 Y9.2168
G01 X31.0918 Y9.1576
G01 X31.0686 Y9.1247
G01 X31.0471 Y9.0907
G01 X31.0092 Y9.0276
G01 X30.9894 Y8.9926
G01 X30.9713 Y8.9566
G01 X30.9398 Y8.8901
G01 X30.9235 Y8.8533
G01 X30.9090 Y8.8157
G01 X30.8842 Y8.7464
G01 X30.8716 Y8.7082
G01 X30.8609 Y8.6694
G01 X30.8430 Y8.5980
G01 X30.8342 Y8.5588
G01 X30.8273 Y8.5191
G01 X30.8165 Y8.4463
G01 X30.8116 Y8.4064
G01 X30.8086 Y8.3662
G01 X30.8050 Y8.2927
G01 X30.8040 Y8.2525
G01 X30.8050 Y8.2122
G01 X30.8086 Y8.1387
G01 X30.8116 Y8.0986
G01 X30.8165 Y8.0586
G01 X30.8273 Y7.9858
G01 X30.8342 Y7.9462
G01 X30.8430 Y7.9069
G01 X30.8609 Y7.8355
G01 X30.8716 Y7.7967
G01 X30.8842 Y7.7585
G01 X30.9090 Y7.6892
G01 X30.9235 Y7.6516
G01 X30.9398 Y7.6148
G01 X30.9713 Y7.5483
G01 X30.9894 Y7.5123
G01 X31.0092 Y7.4773
G01 X31.0471 Y7.4142
G01 X31.0686 Y7.3802
G01 X31.0918 Y7.3473
G01 X31.1356 Y7.2882
G01 X31.1604 Y7.2564
G01 X31.1867 Y7.2259
G01 X31.2361 Y7.1714
G01 X31.2639 Y7.1423
G01 X31.2930 Y7.1145
G01 X31.3476 Y7.0651
G01 X31.3780 Y7.0388
G01 X31.4098 Y7.0140
G01 X31.4689 Y6.9702
G01 X31.5018 Y6.9470
G01 X31.5358 Y6.9255
G01 X31.5989 Y6.8876
G01 X31.6340 Y6.8678
G01 X31.6699 Y6.8497
G01 X31.7364 Y6.8182
G01 X31.7732 Y6.8019
G01 X31.8108 Y6.7874
G01 X31.8801 Y6.7626
G01 X31.9183 Y6.7500
G01 X31.9571 Y6.7393
G01 X32.0285 Y6.7214
G01 X32.0678 Y6.7126
G01 X32.1074 Y6.7057
G01 X32.1802 Y6.6949
G01 X32.2202 Y6.6900
G01 X32.2603 Y6.6870
G01 X32.3338 Y6.6834
G01 X32.3741 Y6.6824
G01 X32.4143 Y6.6834
G01 X32.4878 Y6.6870
G01 X32.5280 Y6.6900
G01 X32.5679 Y6.6949
G01 X32.6407 Y6.7057
G01 X32.6804 Y6.7126
G01 X32.7197 Y6.7214
G01 X32.7911 Y6.7393
G01 X32.8298 Y6.7500
G01 X32.8681 Y6.7626
G01 X32.9374 Y6.7874
G01 X32.9749 Y6.8019
G01 X33.0117 Y6.8182
G01 X33.0782 Y6.8497
G01 X33.1142 Y6.8678
G01 X33.1492 Y6.8876
G01 X33.2124 Y6.9255
G01 X33.2464 Y6.9470
G01 X33.2793 Y6.9702
G01 X33.3384 Y7.0140
G01 X33.3701 Y7.0388
G01 X33.4006 Y7.0651
G01 X33.4551 Y7.1145
G01 X33.4843 Y7.1423
G01 X33.5120 Y7.1714
G01 X33.5615 Y7.2259
G01 X33.5878 Y7.2564
G01 X33.6125 Y7.2882
G01 X33.6564 Y7.3473
G01 X33.6795 Y7.3802
G01 X33.7011 Y7.4142
G01 X33.7490 Y7.4947
G01 X33.7680 Y7.5302
G01 X33.8083 Y7.6148
G01 X33.8246 Y7.6516
G01 X33.8391 Y7.6892
G01 X33.8639 Y7.7585
G01 X33.8765 Y7.7967
G01 X33.8873 Y7.8355
G01 X33.9052 Y7.9069
G01 X33.9140 Y7.9462
G01 X33.9208 Y7.9858
G01 X33.9317 Y8.0586
G01 X33.9366 Y8.0986
G01 X33.9395 Y8.1387
G01 X33.9439 Y8.2323
G01 X33.9439 Y8.2726
G01 X33.9383 Y8.3863
G01 X33.9344 Y8.4264
G01 X33.9208 Y8.5191
G01 X33.9140 Y8.5588
G01 X33.9098 Y8.5785
G01 X33.8873 Y8.6694
G01 X33.8765 Y8.7082
G01 X33.8639 Y8.7464
G01 X33.8391 Y8.8157
G01 X33.8246 Y8.8533
G01 X33.8083 Y8.8901
G01 X33.7768 Y8.9566
G01 X33.7587 Y8.9926
G01 X33.7389 Y9.0276
G01 X33.7011 Y9.0907
G01 X33.6795 Y9.1247
G01 X33.6564 Y9.1576
G01 X33.6125 Y9.2168
G01 X33.5943 Y9.2403
G01 X33.5943 Y18.1645
G01 X33.6125 Y18.1881
G01 X33.6564 Y18.2472
G01 X33.6795 Y18.2801
G01 X33.7011 Y18.3141
G01 X33.7389 Y18.3772
G01 X33.7587 Y18.4122
G01 X33.7768 Y18.4482
G01 X33.8083 Y18.5147
G01 X33.8246 Y18.5515
G01 X33.8391 Y18.5891
G01 X33.8639 Y18.6584
G01 X33.8765 Y18.6966
G01 X33.8873 Y18.7354
G01 X33.9098 Y18.8264
G01 X33.9140 Y18.8461
G01 X33.9208 Y18.8857
G01 X33.9344 Y18.9785
G01 X33.9383 Y19.0185
G01 X33.9439 Y19.1322
G01 X33.9439 Y19.1725
G01 X33.9383 Y19.2862
G01 X33.9344 Y19.3263
G01 X33.9177 Y19.4389
G01 X33.9098 Y19.4784
G01 X33.8821 Y19.5888
G01 X33.8705 Y19.6273
G01 X33.8321 Y19.7345
G01 X33.8167 Y19.7717
G01 X33.8083 Y19.7900
G01 X33.7680 Y19.8746
G01 X33.7587 Y19.8925
G01 X33.7389 Y19.9275
G01 X33.7011 Y19.9906
G01 X33.6795 Y20.0246
G01 X33.6564 Y20.0575
G01 X33.6125 Y20.1167
G01 X33.5878 Y20.1484
G01 X33.5748 Y20.1638
G01 X33.4983 Y20.2482
G01 X33.4699 Y20.2766
G01 X33.3989 Y20.3413
G01 X33.4298 Y20.3499
G01 X33.4490 Y20.3560
G01 X33.5373 Y20.3874
G01 X33.5749 Y20.4018
G01 X33.6117 Y20.4181
G01 X33.6782 Y20.4496
G01 X33.7141 Y20.4677
G01 X33.7492 Y20.4876
G01 X33.8123 Y20.5254
G01 X33.8463 Y20.5469
G01 X33.8792 Y20.5701
G01 X33.9543 Y20.6261
G01 X33.9855 Y20.6517
G01 X34.0005 Y20.6650
G01 X34.0551 Y20.7144
G01 X34.0842 Y20.7422
G01 X34.1120 Y20.7713
G01 X34.1614 Y20.8259
G01 X34.1877 Y20.8563
G01 X34.2125 Y20.8881
G01 X34.2563 Y20.9472
G01 X34.2795 Y20.9801
G01 X34.3010 Y21.0141
G01 X34.3389 Y21.0772
G01 X34.3490 Y21.0946
G01 X34.3680 Y21.1301
G01 X34.4083 Y21.2148
G01 X34.4246 Y21.2515
G01 X34.4391 Y21.2891
G01 X34.4704 Y21.3774
G01 X34.4821 Y21.4159
G01 X34.4872 Y21.4354
G01 X34.5051 Y21.5068
G01 X34.5139 Y21.5461
G01 X34.5208 Y21.5857
G01 X34.5316 Y21.6585
G01 X34.5365 Y21.6985
G01 X34.5395 Y21.7386
G01 X34.5431 Y21.8121
G01 X34.5441 Y21.8524
G01 X34.5431 Y21.8926
G01 X34.5395 Y21.9661
G01 X34.5365 Y22.0063
G01 X34.5316 Y22.0462
G01 X34.5208 Y22.1190
G01 X34.5139 Y22.1587
G01 X34.5051 Y22.1980
G01 X34.4872 Y22.2694
G01 X34.4765 Y22.3081
G01 X34.4639 Y22.3464
G01 X34.4391 Y22.4157
G01 X34.4246 Y22.4532
G01 X34.4083 Y22.4900
G01 X34.3768 Y22.5566
G01 X34.3587 Y22.5925
G01 X34.3389 Y22.6275
G01 X34.3010 Y22.6907
G01 X34.2795 Y22.7247
G01 X34.2563 Y22.7576
G01 X34.2125 Y22.8167
G01 X34.1943 Y22.8402
G01 X34.1943 Y31.3647
G01 X34.2125 Y31.3882
G01 X34.2563 Y31.4473
G01 X34.2795 Y31.4802
G01 X34.3010 Y31.5142
G01 X34.3389 Y31.5773
G01 X34.3587 Y31.6124
G01 X34.3768 Y31.6483
G01 X34.4083 Y31.7149
G01 X34.4246 Y31.7517
G01 X34.4391 Y31.7892
G01 X34.4639 Y31.8585
G01 X34.4765 Y31.8967
G01 X34.4872 Y31.9355
G01 X34.5097 Y32.0265
G01 X34.5176 Y32.0660
G01 X34.5208 Y32.0858
G01 X34.5343 Y32.1786
G01 X34.5383 Y32.2186
G01 X34.5438 Y32.3324
G01 X34.5438 Y32.3726
G01 X34.5395 Y32.4662
G01 X34.5365 Y32.5064
G01 X34.5316 Y32.5463
G01 X34.5208 Y32.6191
G01 X34.5139 Y32.6588
G01 X34.5051 Y32.6981
G01 X34.4872 Y32.7695
G01 X34.4765 Y32.8083
G01 X34.4639 Y32.8465
G01 X34.4391 Y32.9158
G01 X34.4246 Y32.9533
G01 X34.4083 Y32.9901
G01 X34.3768 Y33.0567
G01 X34.3587 Y33.0926
G01 X34.3389 Y33.1276
G01 X34.3010 Y33.1908
G01 X34.2795 Y33.2248
G01 X34.2563 Y33.2577
G01 X34.2125 Y33.3168
G01 X34.1877 Y33.3485
G01 X34.1614 Y33.3790
G01 X34.0983 Y33.4483
G01 X34.0698 Y33.4767
G01 X33.9855 Y33.5532
G01 X33.9543 Y33.5787
G01 X33.8792 Y33.6348
G01 X33.8463 Y33.6579
G01 X33.8123 Y33.6795
G01 X33.7318 Y33.7275
G01 X33.6963 Y33.7464
G01 X33.6782 Y33.7553
G01 X33.5934 Y33.7951
G01 X33.5562 Y33.8105
G01 X33.4490 Y33.8489
G01 X33.4105 Y33.8605
G01 X33.3000 Y33.8882
G01 X33.2605 Y33.8961
G01 X33.1479 Y33.9128
G01 X33.1079 Y33.9167
G01 X32.9941 Y33.9223
G01 X32.9539 Y33.9223
G01 X32.8402 Y33.9167
G01 X32.8001 Y33.9128
G01 X32.6875 Y33.8961
G01 X32.6480 Y33.8882
G01 X32.5376 Y33.8605
G01 X32.4991 Y33.8489
G01 X32.3919 Y33.8105
G01 X32.3547 Y33.7951
G01 X32.2518 Y33.7464
G01 X32.2163 Y33.7275
G01 X32.1186 Y33.6689
G01 X32.0852 Y33.6466
G01 X31.9937 Y33.5787
G01 X31.9626 Y33.5532
G01 X31.8782 Y33.4767
G01 X31.8498 Y33.4483
G01 X31.7733 Y33.3639
G01 X31.7478 Y33.3328
G01 X31.6800 Y33.2414
G01 X31.6576 Y33.2079
G01 X31.5991 Y33.1102
G01 X31.5801 Y33.0747
G01 X31.5314 Y32.9718
G01 X31.5160 Y32.9346
G01 X31.4777 Y32.8274
G01 X31.4660 Y32.7889
G01 X31.4383 Y32.6785
G01 X31.4305 Y32.6390
G01 X31.4137 Y32.5264
G01 X31.4098 Y32.4863
G01 X31.4050 Y32.3927
G01 X31.4040 Y32.3525
G01 X31.4050 Y32.3123
G01 X31.4086 Y32.2387
G01 X31.4115 Y32.1986
G01 X31.4165 Y32.1587
G01 X31.4273 Y32.0858
G01 X31.4341 Y32.0462
G01 X31.4430 Y32.0069
G01 X31.4608 Y31.9355
G01 X31.4716 Y31.8967
G01 X31.4842 Y31.8585
G01 X31.5090 Y31.7892
G01 X31.5235 Y31.7517
G01 X31.5398 Y31.7149
G01 X31.5713 Y31.6483
G01 X31.5894 Y31.6124
G01 X31.6092 Y31.5773
G01 X31.6470 Y31.5142
G01 X31.6686 Y31.4802
G01 X31.6917 Y31.4473
G01 X31.7356 Y31.3882
G01 X31.7538 Y31.3647
G01 X31.7538 Y22.8402
G01 X31.7356 Y22.8167
G01 X31.6917 Y22.7576
G01 X31.6686 Y22.7247
G01 X31.6470 Y22.6907
G01 X31.6092 Y22.6275
G01 X31.5894 Y22.5925
G01 X31.5713 Y22.5566
G01 X31.5398 Y22.4900
G01 X31.5235 Y22.4532
G01 X31.5090 Y22.4157
G01 X31.4777 Y22.3273
G01 X31.4660 Y22.2888
G01 X31.4383 Y22.1784
G01 X31.4305 Y22.1389
G01 X31.4165 Y22.0462
G01 X31.4115 Y22.0063
G01 X31.4086 Y21.9661
G01 X31.4042 Y21.8725
G01 X31.4040 Y21.8524
G01 X31.4050 Y21.8121
G01 X31.4098 Y21.7185
G01 X31.4115 Y21.6985
G01 X31.4165 Y21.6585
G01 X31.4273 Y21.5857
G01 X31.4341 Y21.5461
G01 X31.4430 Y21.5068
G01 X31.4608 Y21.4354
G01 X31.4716 Y21.3966
G01 X31.4777 Y21.3774
G01 X31.5160 Y21.2702
G01 X31.5314 Y21.2330
G01 X31.5713 Y21.1482
G01 X31.5894 Y21.1123
G01 X31.5991 Y21.0946
G01 X31.6576 Y20.9970
G01 X31.6800 Y20.9635
G01 X31.7478 Y20.8721
G01 X31.7733 Y20.8409
G01 X31.8498 Y20.7566
G01 X31.8782 Y20.7281
G01 X31.9492 Y20.6635
G01 X31.9183 Y20.6548
G01 X31.8991 Y20.6487
G01 X31.8108 Y20.6174
G01 X31.7732 Y20.6029
G01 X31.7364 Y20.5866
G01 X31.6699 Y20.5551
G01 X31.6340 Y20.5370
G01 X31.5989 Y20.5172
G01 X31.5358 Y20.4794
G01 X31.5018 Y20.4578
G01 X31.4689 Y20.4346
G01 X31.4098 Y20.3908
G01 X31.3780 Y20.3660
G01 X31.3476 Y20.3397
G01 X31.2930 Y20.2903
G01 X31.2639 Y20.2626
G01 X31.2498 Y20.2482
G01 X31.1867 Y20.1789
G01 X31.1604 Y20.1484
G01 X31.1356 Y20.1167
G01 X31.0918 Y20.0575
G01 X31.0686 Y20.0246
G01 X31.0471 Y19.9906
G01 X31.0092 Y19.9275
G01 X30.9894 Y19.8925
G01 X30.9801 Y19.8746
G01 X30.9398 Y19.7900
G01 X30.9235 Y19.7532
G01 X30.9090 Y19.7156
G01 X30.8842 Y19.6463
G01 X30.8716 Y19.6081
G01 X30.8609 Y19.5693
G01 X30.8430 Y19.4979
G01 X30.8342 Y19.4587
G01 X30.8273 Y19.4190
G01 X30.8138 Y19.3263
G01 X30.8099 Y19.2862
G01 X30.8050 Y19.1926
G01 X30.8040 Y19.1524
G01 X30.8050 Y19.1121
G01 X30.8086 Y19.0386
G01 X30.8116 Y18.9985
G01 X30.8165 Y18.9585
G01 X30.8273 Y18.8857
G01 X30.8342 Y18.8461
G01 X30.8430 Y18.8068
G01 X30.8609 Y18.7354
G01 X30.8716 Y18.6966
G01 X30.8842 Y18.6584
G01 X30.9090 Y18.5891
G01 X30.9235 Y18.5515
G01 X30.9398 Y18.5147
G01 X30.9713 Y18.4482
G01 X30.9894 Y18.4122
G01 X31.0092 Y18.3772
G01 X31.0471 Y18.3141
G01 X31.0686 Y18.2801
G01 X31.0918 Y18.2472
G01 X31.1356 Y18.1881
G01 X31.1538 Y18.1645
G01 X31.1538 Y9.2403
G00 Z2.0000
G00 X31.3338 Y9.1733
G01 F200.00
G01 Z0.0000
G01 F600.00
G01 X31.3097 Y9.1463
G01 X31.2897 Y9.1220
G01 X31.2272 Y9.0377
G01 X31.2183 Y9.0247
G01 X31.2015 Y8.9982
G01 X31.1557 Y8.9215
G01 X31.1409 Y8.8938
G01 X31.1340 Y8.8797
G01 X31.1026 Y8.8131
G01 X31.0898 Y8.7844
G01 X31.0785 Y8.7551
G01 X31.0486 Y8.6709
G01 X31.0439 Y8.6560
G01 X31.0355 Y8.6257
G01 X31.0176 Y8.5543
G01 X31.0107 Y8.5236
G01 X31.0054 Y8.4927
G01 X30.9946 Y8.4199
G01 X30.9907 Y8.3887
G01 X30.9884 Y8.3574
G01 X30.9848 Y8.2839
G01 X30.9840 Y8.2525
G01 X30.9848 Y8.2211
G01 X30.9894 Y8.1319
G01 X30.9924 Y8.1006
G01 X30.9946 Y8.0850
G01 X31.0054 Y8.0122
G01 X31.0107 Y7.9813
G01 X31.0176 Y7.9506
G01 X31.0355 Y7.8792
G01 X31.0439 Y7.8489
G01 X31.0537 Y7.8191
G01 X31.0785 Y7.7498
G01 X31.0898 Y7.7205
G01 X31.1026 Y7.6918
G01 X31.1340 Y7.6252
G01 X31.1482 Y7.5972
G01 X31.1636 Y7.5699
G01 X31.2015 Y7.5067
G01 X31.2183 Y7.4802
G01 X31.2364 Y7.4545
G01 X31.2802 Y7.3954
G01 X31.2995 Y7.3706
G01 X31.3201 Y7.3468
G01 X31.3695 Y7.2923
G01 X31.3912 Y7.2695
G01 X31.4139 Y7.2479
G01 X31.4802 Y7.1880
G01 X31.5045 Y7.1681
G01 X31.5170 Y7.1586
G01 X31.5761 Y7.1148
G01 X31.6018 Y7.0967
G01 X31.6283 Y7.0799
G01 X31.6915 Y7.0420
G01 X31.7188 Y7.0265
G01 X31.7469 Y7.0124
G01 X31.8134 Y6.9809
G01 X31.8421 Y6.9682
G01 X31.8714 Y6.9569
G01 X31.9407 Y6.9321
G01 X31.9706 Y6.9223
G01 X32.0008 Y6.9139
G01 X32.0722 Y6.8960
G01 X32.1029 Y6.8891
G01 X32.1338 Y6.8837
G01 X32.2067 Y6.8729
G01 X32.2378 Y6.8691
G01 X32.2692 Y6.8668
G01 X32.3427 Y6.8632
G01 X32.3741 Y6.8624
G01 X32.4055 Y6.8632
G01 X32.4790 Y6.8668
G01 X32.5103 Y6.8691
G01 X32.5415 Y6.8729
G01 X32.6143 Y6.8837
G01 X32.6453 Y6.8891
G01 X32.6759 Y6.8960
G01 X32.7473 Y6.9139
G01 X32.7776 Y6.9223
G01 X32.8074 Y6.9321
G01 X32.8767 Y6.9569
G01 X32.9060 Y6.9682
G01 X32.9347 Y6.9809
G01 X33.0013 Y7.0124
G01 X33.0293 Y7.0265
G01 X33.0567 Y7.0420
G01 X33.1198 Y7.0799
G01 X33.1464 Y7.0967
G01 X33.1720 Y7.1148
G01 X33.2312 Y7.1586
G01 X33.2559 Y7.1779
G01 X33.2797 Y7.1984
G01 X33.3342 Y7.2479
G01 X33.3570 Y7.2695
G01 X33.3787 Y7.2923
G01 X33.4385 Y7.3586
G01 X33.4486 Y7.3706
G01 X33.4679 Y7.3954
G01 X33.5210 Y7.4672
G01 X33.5384 Y7.4934
G01 X33.5845 Y7.5699
G01 X33.6000 Y7.5972
G01 X33.6141 Y7.6252
G01 X33.6521 Y7.7061
G01 X33.6642 Y7.7351
G01 X33.6696 Y7.7498
G01 X33.6944 Y7.8191
G01 X33.7043 Y7.8489
G01 X33.7127 Y7.8792
G01 X33.7305 Y7.9506
G01 X33.7374 Y7.9813
G01 X33.7428 Y8.0122
G01 X33.7536 Y8.0850
G01 X33.7574 Y8.1162
G01 X33.7598 Y8.1475
G01 X33.7634 Y8.2211
G01 X33.7641 Y8.2525
G01 X33.7634 Y8.2839
G01 X33.7598 Y8.3574
G01 X33.7574 Y8.3887
G01 X33.7536 Y8.4199
G01 X33.7428 Y8.4927
G01 X33.7374 Y8.5236
G01 X33.7305 Y8.5543
G01 X33.7127 Y8.6257
G01 X33.7043 Y8.6560
G01 X33.6944 Y8.6858
G01 X33.6642 Y8.7698
G01 X33.6583 Y8.7844
G01 X33.6456 Y8.8131
G01 X33.6141 Y8.8797
G01 X33.6000 Y8.9077
G01 X33.5845 Y8.9351
G01 X33.5384 Y9.0116
G01 X33.5299 Y9.0247
G01 X33.5118 Y9.0504
G01 X33.4584 Y9.1220
G01 X33.4385 Y9.1463
G01 X33.4143 Y9.1733
G01 X33.4143 Y18.2315
G01 X33.4385 Y18.2585
G01 X33.4486 Y18.2705
G01 X33.4679 Y18.2953
G01 X33.5210 Y18.3671
G01 X33.5384 Y18.3933
G01 X33.5467 Y18.4066
G01 X33.5924 Y18.4833
G01 X33.6072 Y18.5110
G01 X33.6521 Y18.6060
G01 X33.6583 Y18.6204
G01 X33.6696 Y18.6497
G01 X33.6995 Y18.7339
G01 X33.7087 Y18.7639
G01 X33.7305 Y18.8505
G01 X33.7374 Y18.8812
G01 X33.7403 Y18.8966
G01 X33.7536 Y18.9849
G01 X33.7557 Y19.0005
G01 X33.7588 Y19.0318
G01 X33.7639 Y19.1367
G01 X33.7639 Y19.1681
G01 X33.7634 Y19.1838
G01 X33.7598 Y19.2573
G01 X33.7574 Y19.2886
G01 X33.7536 Y19.3198
G01 X33.7403 Y19.4081
G01 X33.7342 Y19.4389
G01 X33.7127 Y19.5256
G01 X33.7043 Y19.5559
G01 X33.6944 Y19.5857
G01 X33.6696 Y19.6550
G01 X33.6583 Y19.6843
G01 X33.6456 Y19.7130
G01 X33.6141 Y19.7796
G01 X33.6000 Y19.8076
G01 X33.5845 Y19.8350
G01 X33.5467 Y19.8981
G01 X33.5299 Y19.9246
G01 X33.5118 Y19.9503
G01 X33.4679 Y20.0094
G01 X33.4486 Y20.0342
G01 X33.4281 Y20.0580
G01 X33.3680 Y20.1240
G01 X33.3458 Y20.1463
G01 X33.2797 Y20.2064
G01 X33.2559 Y20.2269
G01 X33.2312 Y20.2462
G01 X33.1593 Y20.2993
G01 X33.1332 Y20.3167
G01 X33.0567 Y20.3628
G01 X33.0293 Y20.3783
G01 X33.0154 Y20.3855
G01 X32.9347 Y20.4239
G01 X32.9060 Y20.4366
G01 X32.8767 Y20.4479
G01 X32.8072 Y20.4728
G01 X32.8378 Y20.4690
G01 X32.8534 Y20.4677
G01 X32.9583 Y20.4625
G01 X32.9897 Y20.4625
G01 X33.0054 Y20.4631
G01 X33.0946 Y20.4677
G01 X33.1259 Y20.4707
G01 X33.1415 Y20.4729
G01 X33.2143 Y20.4837
G01 X33.2452 Y20.4890
G01 X33.2759 Y20.4959
G01 X33.3625 Y20.5178
G01 X33.3925 Y20.5269
G01 X33.4074 Y20.5320
G01 X33.4767 Y20.5568
G01 X33.5060 Y20.5681
G01 X33.5347 Y20.5809
G01 X33.6012 Y20.6123
G01 X33.6293 Y20.6265
G01 X33.6566 Y20.6419
G01 X33.7198 Y20.6798
G01 X33.7463 Y20.6966
G01 X33.7720 Y20.7147
G01 X33.8436 Y20.7680
G01 X33.8679 Y20.7880
G01 X33.8797 Y20.7984
G01 X33.9342 Y20.8478
G01 X33.9569 Y20.8695
G01 X33.9786 Y20.8922
G01 X34.0280 Y20.9468
G01 X34.0486 Y20.9705
G01 X34.0679 Y20.9953
G01 X34.1117 Y21.0544
G01 X34.1298 Y21.0801
G01 X34.1466 Y21.1066
G01 X34.1845 Y21.1698
G01 X34.1999 Y21.1971
G01 X34.2141 Y21.2252
G01 X34.2455 Y21.2917
G01 X34.2583 Y21.3204
G01 X34.2696 Y21.3497
G01 X34.2944 Y21.4190
G01 X34.3042 Y21.4489
G01 X34.3126 Y21.4791
G01 X34.3305 Y21.5505
G01 X34.3374 Y21.5812
G01 X34.3427 Y21.6121
G01 X34.3557 Y21.7005
G01 X34.3587 Y21.7318
G01 X34.3597 Y21.7475
G01 X34.3633 Y21.8210
G01 X34.3641 Y21.8524
G01 X34.3633 Y21.8838
G01 X34.3597 Y21.9573
G01 X34.3574 Y21.9886
G01 X34.3535 Y22.0198
G01 X34.3427 Y22.0926
G01 X34.3374 Y22.1236
G01 X34.3305 Y22.1542
G01 X34.3126 Y22.2256
G01 X34.3042 Y22.2559
G01 X34.2995 Y22.2709
G01 X34.2696 Y22.3550
G01 X34.2583 Y22.3843
G01 X34.2455 Y22.4131
G01 X34.2141 Y22.4796
G01 X34.2072 Y22.4937
G01 X34.1924 Y22.5214
G01 X34.1466 Y22.5981
G01 X34.1298 Y22.6247
G01 X34.1209 Y22.6376
G01 X34.0584 Y22.7220
G01 X34.0384 Y22.7462
G01 X34.0143 Y22.7732
G01 X34.0143 Y31.4317
G01 X34.0384 Y31.4586
G01 X34.0584 Y31.4829
G01 X34.1117 Y31.5545
G01 X34.1209 Y31.5673
G01 X34.1384 Y31.5934
G01 X34.1845 Y31.6699
G01 X34.1999 Y31.6972
G01 X34.2141 Y31.7253
G01 X34.2455 Y31.7918
G01 X34.2583 Y31.8205
G01 X34.2641 Y31.8351
G01 X34.2944 Y31.9191
G01 X34.3042 Y31.9490
G01 X34.3126 Y31.9792
G01 X34.3305 Y32.0507
G01 X34.3374 Y32.0813
G01 X34.3427 Y32.1123
G01 X34.3535 Y32.1851
G01 X34.3574 Y32.2162
G01 X34.3597 Y32.2476
G01 X34.3633 Y32.3211
G01 X34.3639 Y32.3368
G01 X34.3639 Y32.3682
G01 X34.3597 Y32.4574
G01 X34.3574 Y32.4887
G01 X34.3535 Y32.5199
G01 X34.3427 Y32.5927
G01 X34.3374 Y32.6237
G01 X34.3305 Y32.6543
G01 X34.3126 Y32.7257
G01 X34.3042 Y32.7560
G01 X34.2944 Y32.7858
G01 X34.2696 Y32.8551
G01 X34.2583 Y32.8844
G01 X34.2455 Y32.9132
G01 X34.2141 Y32.9797
G01 X34.1999 Y33.0078
G01 X34.1845 Y33.0351
G01 X34.1466 Y33.0982
G01 X34.1298 Y33.1248
G01 X34.1117 Y33.1504
G01 X34.0679 Y33.2096
G01 X34.0486 Y33.2343
G01 X34.0280 Y33.2581
G01 X33.9786 Y33.3127
G01 X33.9569 Y33.3354
G01 X33.9342 Y33.3571
G01 X33.8679 Y33.4169
G01 X33.8559 Y33.4270
G01 X33.8311 Y33.4463
G01 X33.7593 Y33.4994
G01 X33.7331 Y33.5168
G01 X33.6431 Y33.5708
G01 X33.6293 Y33.5784
G01 X33.6012 Y33.5925
G01 X33.5204 Y33.6305
G01 X33.4914 Y33.6426
G01 X33.4074 Y33.6728
G01 X33.3925 Y33.6779
G01 X33.3625 Y33.6871
G01 X33.2759 Y33.7090
G01 X33.2452 Y33.7158
G01 X33.2143 Y33.7212
G01 X33.1415 Y33.7320
G01 X33.1259 Y33.7341
G01 X33.0946 Y33.7372
G01 X33.0054 Y33.7418
G01 X32.9740 Y33.7425
G01 X32.9426 Y33.7418
G01 X32.8691 Y33.7382
G01 X32.8378 Y33.7359
G01 X32.8066 Y33.7320
G01 X32.7338 Y33.7212
G01 X32.7028 Y33.7158
G01 X32.6722 Y33.7090
G01 X32.6008 Y33.6911
G01 X32.5705 Y33.6827
G01 X32.5407 Y33.6728
G01 X32.4714 Y33.6480
G01 X32.4421 Y33.6367
G01 X32.4134 Y33.6240
G01 X32.3468 Y33.5925
G01 X32.3188 Y33.5784
G01 X32.2914 Y33.5629
G01 X32.2283 Y33.5251
G01 X32.2018 Y33.5083
G01 X32.1761 Y33.4902
G01 X32.1169 Y33.4463
G01 X32.0922 Y33.4270
G01 X32.0684 Y33.4065
G01 X32.0139 Y33.3571
G01 X31.9911 Y33.3354
G01 X31.9694 Y33.3127
G01 X31.9200 Y33.2581
G01 X31.8995 Y33.2343
G01 X31.8802 Y33.2096
G01 X31.8363 Y33.1504
G01 X31.8182 Y33.1248
G01 X31.8014 Y33.0982
G01 X31.7636 Y33.0351
G01 X31.7481 Y33.0078
G01 X31.7340 Y32.9797
G01 X31.7025 Y32.9132
G01 X31.6898 Y32.8844
G01 X31.6785 Y32.8551
G01 X31.6537 Y32.7858
G01 X31.6438 Y32.7560
G01 X31.6354 Y32.7257
G01 X31.6176 Y32.6543
G01 X31.6107 Y32.6237
G01 X31.6053 Y32.5927
G01 X31.5945 Y32.5199
G01 X31.5924 Y32.5043
G01 X31.5893 Y32.4731
G01 X31.5847 Y32.3839
G01 X31.5840 Y32.3525
G01 X31.5847 Y32.3211
G01 X31.5883 Y32.2476
G01 X31.5907 Y32.2162
G01 X31.5945 Y32.1851
G01 X31.6053 Y32.1123
G01 X31.6107 Y32.0813
G01 X31.6176 Y32.0507
G01 X31.6354 Y31.9792
G01 X31.6394 Y31.9641
G01 X31.6486 Y31.9340
G01 X31.6785 Y31.8498
G01 X31.6898 Y31.8205
G01 X31.7025 Y31.7918
G01 X31.7340 Y31.7253
G01 X31.7409 Y31.7112
G01 X31.7557 Y31.6835
G01 X31.8014 Y31.6068
G01 X31.8097 Y31.5934
G01 X31.8271 Y31.5673
G01 X31.8897 Y31.4829
G01 X31.9096 Y31.4586
G01 X31.9338 Y31.4317
G01 X31.9338 Y22.7732
G01 X31.9096 Y22.7462
G01 X31.8897 Y22.7220
G01 X31.8271 Y22.6376
G01 X31.8097 Y22.6115
G01 X31.8014 Y22.5981
G01 X31.7557 Y22.5214
G01 X31.7481 Y22.5077
G01 X31.7340 Y22.4796
G01 X31.7025 Y22.4131
G01 X31.6898 Y22.3843
G01 X31.6785 Y22.3550
G01 X31.6486 Y22.2709
G01 X31.6394 Y22.2408
G01 X31.6354 Y22.2256
G01 X31.6176 Y22.1542
G01 X31.6107 Y22.1236
G01 X31.6053 Y22.0926
G01 X31.5945 Y22.0198
G01 X31.5907 Y21.9886
G01 X31.5883 Y21.9573
G01 X31.5847 Y21.8838
G01 X31.5840 Y21.8524
G01 X31.5847 Y21.8210
G01 X31.5893 Y21.7318
G01 X31.5924 Y21.7005
G01 X31.6053 Y21.6121
G01 X31.6107 Y21.5812
G01 X31.6176 Y21.5505
G01 X31.6354 Y21.4791
G01 X31.6438 Y21.4489
G01 X31.6537 Y21.4190
G01 X31.6785 Y21.3497
G01 X31.6898 Y21.3204
G01 X31.7025 Y21.2917
G01 X31.7409 Y21.2111
G01 X31.7557 Y21.1834
G01 X31.7636 Y21.1698
G01 X31.8014 Y21.1066
G01 X31.8182 Y21.0801
G01 X31.8363 Y21.0544
G01 X31.8897 Y20.9828
G01 X31.9096 Y20.9585
G01 X31.9694 Y20.8922
G01 X31.9911 Y20.8695
G01 X32.0139 Y20.8478
G01 X32.0684 Y20.7984
G01 X32.0922 Y20.7779
G01 X32.1169 Y20.7585
G01 X32.1888 Y20.7055
G01 X32.2018 Y20.6966
G01 X32.2283 Y20.6798
G01 X32.3050 Y20.6340
G01 X32.3327 Y20.6192
G01 X32.4134 Y20.5809
G01 X32.4421 Y20.5681
G01 X32.4714 Y20.5568
G01 X32.5409 Y20.5320
G01 X32.5103 Y20.5357
G01 X32.4947 Y20.5371
G01 X32.3898 Y20.5422
G01 X32.3584 Y20.5422
G01 X32.3427 Y20.5417
G01 X32.2692 Y20.5380
G01 X32.2378 Y20.5357
G01 X32.2067 Y20.5319
G01 X32.1338 Y20.5211
G01 X32.1029 Y20.5157
G01 X32.0722 Y20.5088
G01 X32.0008 Y20.4909
G01 X31.9706 Y20.4826
G01 X31.9407 Y20.4727
G01 X31.8714 Y20.4479
G01 X31.8421 Y20.4366
G01 X31.8134 Y20.4239
G01 X31.7469 Y20.3924
G01 X31.7188 Y20.3783
G01 X31.6915 Y20.3628
G01 X31.6283 Y20.3250
G01 X31.6018 Y20.3082
G01 X31.5761 Y20.2901
G01 X31.5170 Y20.2462
G01 X31.4922 Y20.2269
G01 X31.4684 Y20.2064
G01 X31.4139 Y20.1569
G01 X31.3912 Y20.1353
G01 X31.3695 Y20.1125
G01 X31.3201 Y20.0580
G01 X31.2995 Y20.0342
G01 X31.2802 Y20.0094
G01 X31.2364 Y19.9503
G01 X31.2183 Y19.9246
G01 X31.2015 Y19.8981
G01 X31.1636 Y19.8350
G01 X31.1482 Y19.8076
G01 X31.1340 Y19.7796
G01 X31.1026 Y19.7130
G01 X31.0898 Y19.6843
G01 X31.0785 Y19.6550
G01 X31.0537 Y19.5857
G01 X31.0439 Y19.5559
G01 X31.0355 Y19.5256
G01 X31.0176 Y19.4542
G01 X31.0107 Y19.4235
G01 X31.0054 Y19.3926
G01 X30.9946 Y19.3198
G01 X30.9907 Y19.2886
G01 X30.9884 Y19.2573
G01 X30.9848 Y19.1838
G01 X30.9840 Y19.1524
G01 X30.9848 Y19.1210
G01 X30.9884 Y19.0474
G01 X30.9907 Y19.0161
G01 X30.9946 Y18.9849
G01 X31.0054 Y18.9121
G01 X31.0107 Y18.8812
G01 X31.0176 Y18.8505
G01 X31.0355 Y18.7791
G01 X31.0395 Y18.7639
G01 X31.0486 Y18.7339
G01 X31.0785 Y18.6497
G01 X31.0898 Y18.6204
G01 X31.1026 Y18.5917
G01 X31.1340 Y18.5252
G01 X31.1409 Y18.5110
G01 X31.1557 Y18.4833
G01 X31.2015 Y18.4066
G01 X31.2097 Y18.3933
G01 X31.2272 Y18.3671
G01 X31.2897 Y18.2828
G01 X31.3097 Y18.2585
G01 X31.3338 Y18.2315
G01 X31.3338 Y9.1733
G00 Z2.0000
G00 X31.5138 Y9.1034
G01 F200.00
G01 Z0.0000
G01 F600.00
G01 X31.5029 Y9.0917
G01 X31.4534 Y9.0372
G01 X31.4387 Y9.0201
G01 X31.4248 Y9.0023
G01 X31.3810 Y8.9432
G01 X31.3680 Y8.9247
G01 X31.3559 Y8.9057
G01 X31.3180 Y8.8425
G01 X31.3069 Y8.8229
G01 X31.2967 Y8.8027
G01 X31.2653 Y8.7362
G01 X31.2561 Y8.7155
G01 X31.2480 Y8.6945
G01 X31.2232 Y8.6252
G01 X31.2161 Y8.6037
G01 X31.2101 Y8.5820
G01 X31.1922 Y8.5106
G01 X31.1873 Y8.4885
G01 X31.1834 Y8.4663
G01 X31.1726 Y8.3935
G01 X31.1698 Y8.3711
G01 X31.1682 Y8.3485
G01 X31.1646 Y8.2750
G01 X31.1640 Y8.2525
G01 X31.1646 Y8.2299
G01 X31.1682 Y8.1564
G01 X31.1698 Y8.1339
G01 X31.1726 Y8.1114
G01 X31.1834 Y8.0386
G01 X31.1873 Y8.0164
G01 X31.1922 Y7.9944
G01 X31.2101 Y7.9230
G01 X31.2161 Y7.9012
G01 X31.2232 Y7.8798
G01 X31.2480 Y7.8105
G01 X31.2561 Y7.7894
G01 X31.2653 Y7.7687
G01 X31.2967 Y7.7022
G01 X31.3069 Y7.6820
G01 X31.3180 Y7.6624
G01 X31.3559 Y7.5993
G01 X31.3680 Y7.5802
G01 X31.3810 Y7.5617
G01 X31.4248 Y7.5026
G01 X31.4387 Y7.4848
G01 X31.4534 Y7.4677
G01 X31.5029 Y7.4132
G01 X31.5184 Y7.3968
G01 X31.5348 Y7.3813
G01 X31.5893 Y7.3318
G01 X31.6064 Y7.3171
G01 X31.6242 Y7.3032
G01 X31.6833 Y7.2593
G01 X31.7018 Y7.2463
G01 X31.7209 Y7.2343
G01 X31.7840 Y7.1964
G01 X31.8037 Y7.1853
G01 X31.8238 Y7.1751
G01 X31.8904 Y7.1437
G01 X31.9110 Y7.1345
G01 X31.9321 Y7.1264
G01 X32.0014 Y7.1016
G01 X32.0228 Y7.0945
G01 X32.0446 Y7.0885
G01 X32.1160 Y7.0706
G01 X32.1380 Y7.0657
G01 X32.1603 Y7.0618
G01 X32.2331 Y7.0510
G01 X32.2555 Y7.0482
G01 X32.2780 Y7.0466
G01 X32.3515 Y7.0430
G01 X32.3741 Y7.0424
G01 X32.3966 Y7.0430
G01 X32.4702 Y7.0466
G01 X32.4927 Y7.0482
G01 X32.5151 Y7.0510
G01 X32.5879 Y7.0618
G01 X32.6101 Y7.0657
G01 X32.6322 Y7.0706
G01 X32.7036 Y7.0885
G01 X32.7253 Y7.0945
G01 X32.7468 Y7.1016
G01 X32.8161 Y7.1264
G01 X32.8371 Y7.1345
G01 X32.8578 Y7.1437
G01 X32.9243 Y7.1751
G01 X32.9445 Y7.1853
G01 X32.9641 Y7.1964
G01 X33.0273 Y7.2343
G01 X33.0464 Y7.2463
G01 X33.0648 Y7.2593
G01 X33.1239 Y7.3032
G01 X33.1417 Y7.3171
G01 X33.1588 Y7.3318
G01 X33.2134 Y7.3813
G01 X33.2297 Y7.3968
G01 X33.2453 Y7.4132
G01 X33.2947 Y7.4677
G01 X33.3095 Y7.4848
G01 X33.3234 Y7.5026
G01 X33.3672 Y7.5617
G01 X33.3802 Y7.5802
G01 X33.3923 Y7.5993
G01 X33.4301 Y7.6624
G01 X33.4413 Y7.6820
G01 X33.4514 Y7.7022
G01 X33.4829 Y7.7687
G01 X33.4920 Y7.7894
G01 X33.5002 Y7.8105
G01 X33.5250 Y7.8798
G01 X33.5320 Y7.9012
G01 X33.5381 Y7.9230
G01 X33.5559 Y7.9944
G01 X33.5609 Y8.0164
G01 X33.5647 Y8.0386
G01 X33.5755 Y8.1114
G01 X33.5783 Y8.1339
G01 X33.5800 Y8.1564
G01 X33.5840 Y8.2412
G01 X33.5840 Y8.2637
G01 X33.5836 Y8.2750
G01 X33.5800 Y8.3485
G01 X33.5783 Y8.3711
G01 X33.5755 Y8.3935
G01 X33.5647 Y8.4663
G01 X33.5609 Y8.4885
G01 X33.5559 Y8.5106
G01 X33.5381 Y8.5820
G01 X33.5320 Y8.6037
G01 X33.5250 Y8.6252
G01 X33.5002 Y8.6945
G01 X33.4920 Y8.7155
G01 X33.4829 Y8.7362
G01 X33.4514 Y8.8027
G01 X33.4413 Y8.8229
G01 X33.4301 Y8.8425
G01 X33.3923 Y8.9057
G01 X33.3802 Y8.9247
G01 X33.3672 Y8.9432
G01 X33.3234 Y9.0023
G01 X33.3095 Y9.0201
G01 X33.2947 Y9.0372
G01 X33.2453 Y9.0917
G01 X33.2343 Y9.1034
G01 X33.2343 Y18.3014
G01 X33.2453 Y18.3131
G01 X33.2947 Y18.3676
G01 X33.3095 Y18.3847
G01 X33.3234 Y18.4025
G01 X33.3672 Y18.4616
G01 X33.3802 Y18.4801
G01 X33.3864 Y18.4896
G01 X33.4301 Y18.5623
G01 X33.4413 Y18.5819
G01 X33.4465 Y18.5920
G01 X33.4876 Y18.6789
G01 X33.4920 Y18.6893
G01 X33.5002 Y18.7104
G01 X33.5286 Y18.7903
G01 X33.5352 Y18.8119
G01 X33.5381 Y18.8229
G01 X33.5559 Y18.8943
G01 X33.5609 Y18.9163
G01 X33.5647 Y18.9385
G01 X33.5755 Y19.0113
G01 X33.5783 Y19.0338
G01 X33.5793 Y19.0450
G01 X33.5840 Y19.1411
G01 X33.5840 Y19.1637
G01 X33.5836 Y19.1749
G01 X33.5800 Y19.2485
G01 X33.5783 Y19.2710
G01 X33.5771 Y19.2822
G01 X33.5630 Y19.3773
G01 X33.5609 Y19.3884
G01 X33.5559 Y19.4105
G01 X33.5381 Y19.4819
G01 X33.5320 Y19.5036
G01 X33.5250 Y19.5251
G01 X33.4962 Y19.6049
G01 X33.4876 Y19.6258
G01 X33.4829 Y19.6361
G01 X33.4514 Y19.7026
G01 X33.4413 Y19.7228
G01 X33.4301 Y19.7424
G01 X33.3923 Y19.8056
G01 X33.3802 Y19.8246
G01 X33.3672 Y19.8431
G01 X33.3234 Y19.9022
G01 X33.3095 Y19.9200
G01 X33.2947 Y19.9371
G01 X33.2453 Y19.9917
G01 X33.2297 Y20.0080
G01 X33.2134 Y20.0236
G01 X33.1588 Y20.0730
G01 X33.1417 Y20.0878
G01 X33.1239 Y20.1016
G01 X33.0648 Y20.1455
G01 X33.0464 Y20.1585
G01 X33.0369 Y20.1646
G01 X32.9641 Y20.2084
G01 X32.9445 Y20.2195
G01 X32.9243 Y20.2297
G01 X32.8578 Y20.2612
G01 X32.8371 Y20.2703
G01 X32.8161 Y20.2784
G01 X32.7468 Y20.3032
G01 X32.7253 Y20.3103
G01 X32.7036 Y20.3163
G01 X32.6322 Y20.3342
G01 X32.6101 Y20.3392
G01 X32.5879 Y20.3430
G01 X32.5151 Y20.3538
G01 X32.4927 Y20.3566
G01 X32.4702 Y20.3583
G01 X32.3966 Y20.3619
G01 X32.3741 Y20.3624
G01 X32.3515 Y20.3619
G01 X32.2780 Y20.3583
G01 X32.2555 Y20.3566
G01 X32.2331 Y20.3538
G01 X32.1603 Y20.3430
G01 X32.1380 Y20.3392
G01 X32.1160 Y20.3342
G01 X32.0446 Y20.3163
